%
(1001)
(Hole Cuts)
(T1  D=3.175 CR=0 - ZMIN=-3.429 - flat end mill)
G90 G94
G17
G21

(2D Contour1)
M9
T1 M6
S10000 M3
G54
M9
G0 X291.148 Y44.682
Z15
Z5
G1 Z1.25 F200
Z0.067
G18 G2 X291.466 Z-0.25 I0.318
G1 X291.783
G17 G3 X292.1 Y45 J0.318
X282.576 I-4.762
X292.1 I4.763
X291.783 Y45.318 I-0.318
G1 X291.466
G18 G3 X291.148 Z0.067 K0.318
G1 Y44.682
Z-0.183
G2 X291.466 Z-0.5 I0.318
G1 X291.783
G17 G3 X292.1 Y45 J0.318
X282.576 I-4.762
X292.1 I4.763
X291.783 Y45.318 I-0.318
G1 X291.466
G18 G3 X291.148 Z-0.183 K0.317
G1 Y44.682
Z-0.433
G2 X291.466 Z-0.75 I0.318
G1 X291.783
G17 G3 X292.1 Y45 J0.318
X282.576 I-4.762
X292.1 I4.763
X291.783 Y45.318 I-0.318
G1 X291.466
G18 G3 X291.148 Z-0.433 K0.317
G1 Y44.682
Z-0.683
G2 X291.466 Z-1 I0.318
G1 X291.783
G17 G3 X292.1 Y45 J0.318
X282.576 I-4.762
X292.1 I4.763
X291.783 Y45.318 I-0.318
G1 X291.466
G18 G3 X291.148 Z-0.683 K0.317
G1 Y44.682
Z-0.933
G2 X291.466 Z-1.25 I0.318
G1 X291.783
G17 G3 X292.1 Y45 J0.318
X282.576 I-4.762
X292.1 I4.763
X291.783 Y45.318 I-0.318
G1 X291.466
G18 G3 X291.148 Z-0.933 K0.317
G1 Y44.682
Z-1.183
G2 X291.466 Z-1.5 I0.318
G1 X291.783
G17 G3 X292.1 Y45 J0.318
X282.576 I-4.762
X292.1 I4.763
X291.783 Y45.318 I-0.318
G1 X291.466
G18 G3 X291.148 Z-1.183 K0.317
G1 Y44.682
Z-1.433
G2 X291.466 Z-1.75 I0.318
G1 X291.783
G17 G3 X292.1 Y45 J0.318
X282.576 I-4.762
X292.1 I4.763
X291.783 Y45.318 I-0.318
G1 X291.466
G18 G3 X291.148 Z-1.433 K0.317
G1 Y44.682
Z-1.683
G2 X291.466 Z-2 I0.318
G1 X291.783
G17 G3 X292.1 Y45 J0.318
X282.576 I-4.762
X292.1 I4.763
X291.783 Y45.318 I-0.318
G1 X291.466
G18 G3 X291.148 Z-1.683 K0.317
G1 Y44.682
Z-1.933
G2 X291.466 Z-2.25 I0.318
G1 X291.783
G17 G3 X292.1 Y45 J0.318
X282.576 I-4.762
X292.1 I4.763
X291.783 Y45.318 I-0.318
G1 X291.466
G18 G3 X291.148 Z-1.933 K0.317
G1 Y44.682
Z-2.183
G2 X291.466 Z-2.5 I0.318
G1 X291.783
G17 G3 X292.1 Y45 J0.318
X282.576 I-4.762
X292.1 I4.763
X291.783 Y45.318 I-0.318
G1 X291.466
G18 G3 X291.148 Z-2.183 K0.318
G1 Y44.682
Z-2.433
G2 X291.466 Z-2.75 I0.318
G1 X291.783
G17 G3 X292.1 Y45 J0.318
X282.576 I-4.762
X292.1 I4.763
X291.783 Y45.318 I-0.318
G1 X291.466
G18 G3 X291.148 Z-2.433 K0.318
G1 Y44.682
Z-2.683
G2 X291.466 Z-3 I0.318
G1 X291.783
G17 G3 X292.1 Y45 J0.318
X282.576 I-4.762
X292.1 I4.763
X291.783 Y45.318 I-0.318
G1 X291.466
G18 G3 X291.148 Z-2.683 K0.318
G1 Y44.682
Z-2.933
G2 X291.466 Z-3.25 I0.318
G1 X291.783
G17 G3 X292.1 Y45 J0.318
X282.576 I-4.762
X292.1 I4.763
X291.783 Y45.318 I-0.318
G1 X291.466
G18 G3 X291.148 Z-2.933 K0.318
G1 Y44.682
Z-3.112
G2 X291.466 Z-3.429 I0.318
G1 X291.783
G17 G3 X292.1 Y45 J0.318
X282.576 I-4.762
X292.1 I4.763
X291.783 Y45.318 I-0.318
G1 X291.466
G18 G3 X291.148 Z-3.112 K0.317
G0 Z5
X460.382 Y34.726
G1 Z1.25 F200
Z0.067
G19 G3 Y35.043 Z-0.25 J0.318
G1 Y35.361
G17 G3 X460.064 Y35.678 I-0.318
Y33.773 J-0.952
G1 X470.224
G3 Y35.678 J0.952
G1 X460.064
G3 X459.746 Y35.361 J-0.318
G1 Y35.043
G19 G2 Y34.726 Z0.067 K0.318
G1 X460.382
Z-0.183
G3 Y35.043 Z-0.5 J0.318
G1 Y35.361
G17 G3 X460.064 Y35.678 I-0.318
Y33.773 J-0.952
G1 X470.224
G3 Y35.678 J0.952
G1 X460.064
G3 X459.746 Y35.361 J-0.318
G1 Y35.043
G19 G2 Y34.726 Z-0.183 K0.317
G1 X460.382
Z-0.433
G3 Y35.043 Z-0.75 J0.318
G1 Y35.361
G17 G3 X460.064 Y35.678 I-0.318
Y33.773 J-0.952
G1 X470.224
G3 Y35.678 J0.952
G1 X460.064
G3 X459.746 Y35.361 J-0.318
G1 Y35.043
G19 G2 Y34.726 Z-0.433 K0.317
G1 X460.382
Z-0.683
G3 Y35.043 Z-1 J0.318
G1 Y35.361
G17 G3 X460.064 Y35.678 I-0.318
Y33.773 J-0.952
G1 X470.224
G3 Y35.678 J0.952
G1 X460.064
G3 X459.746 Y35.361 J-0.318
G1 Y35.043
G19 G2 Y34.726 Z-0.683 K0.317
G1 X460.382
Z-0.933
G3 Y35.043 Z-1.25 J0.318
G1 Y35.361
G17 G3 X460.064 Y35.678 I-0.318
Y33.773 J-0.952
G1 X470.224
G3 Y35.678 J0.952
G1 X460.064
G3 X459.746 Y35.361 J-0.318
G1 Y35.043
G19 G2 Y34.726 Z-0.933 K0.317
G1 X460.382
Z-1.183
G3 Y35.043 Z-1.5 J0.318
G1 Y35.361
G17 G3 X460.064 Y35.678 I-0.318
Y33.773 J-0.952
G1 X470.224
G3 Y35.678 J0.952
G1 X460.064
G3 X459.746 Y35.361 J-0.318
G1 Y35.043
G19 G2 Y34.726 Z-1.183 K0.317
G1 X460.382
Z-1.433
G3 Y35.043 Z-1.75 J0.318
G1 Y35.361
G17 G3 X460.064 Y35.678 I-0.318
Y33.773 J-0.952
G1 X470.224
G3 Y35.678 J0.952
G1 X460.064
G3 X459.746 Y35.361 J-0.318
G1 Y35.043
G19 G2 Y34.726 Z-1.433 K0.317
G1 X460.382
Z-1.683
G3 Y35.043 Z-2 J0.318
G1 Y35.361
G17 G3 X460.064 Y35.678 I-0.318
Y33.773 J-0.952
G1 X470.224
G3 Y35.678 J0.952
G1 X460.064
G3 X459.746 Y35.361 J-0.318
G1 Y35.043
G19 G2 Y34.726 Z-1.683 K0.317
G1 X460.382
Z-1.933
G3 Y35.043 Z-2.25 J0.318
G1 Y35.361
G17 G3 X460.064 Y35.678 I-0.318
Y33.773 J-0.952
G1 X470.224
G3 Y35.678 J0.952
G1 X460.064
G3 X459.746 Y35.361 J-0.318
G1 Y35.043
G19 G2 Y34.726 Z-1.933 K0.317
G1 X460.382
Z-2.183
G3 Y35.043 Z-2.5 J0.318
G1 Y35.361
G17 G3 X460.064 Y35.678 I-0.318
Y33.773 J-0.952
G1 X470.224
G3 Y35.678 J0.952
G1 X460.064
G3 X459.746 Y35.361 J-0.318
G1 Y35.043
G19 G2 Y34.726 Z-2.183 K0.318
G1 X460.382
Z-2.433
G3 Y35.043 Z-2.75 J0.318
G1 Y35.361
G17 G3 X460.064 Y35.678 I-0.318
Y33.773 J-0.952
G1 X470.224
G3 Y35.678 J0.952
G1 X460.064
G3 X459.746 Y35.361 J-0.318
G1 Y35.043
G19 G2 Y34.726 Z-2.433 K0.318
G1 X460.382
Z-2.683
G3 Y35.043 Z-3 J0.318
G1 Y35.361
G17 G3 X460.064 Y35.678 I-0.318
Y33.773 J-0.952
G1 X470.224
G3 Y35.678 J0.952
G1 X460.064
G3 X459.746 Y35.361 J-0.318
G1 Y35.043
G19 G2 Y34.726 Z-2.683 K0.318
G1 X460.382
Z-2.933
G3 Y35.043 Z-3.25 J0.318
G1 Y35.361
G17 G3 X460.064 Y35.678 I-0.318
Y33.773 J-0.952
G1 X470.224
G3 Y35.678 J0.952
G1 X460.064
G3 X459.746 Y35.361 J-0.318
G1 Y35.043
G19 G2 Y34.726 Z-2.933 K0.318
G1 X460.382
Z-3.112
G3 Y35.043 Z-3.429 J0.318
G1 Y35.361
G17 G3 X460.064 Y35.678 I-0.318
Y33.773 J-0.952
G1 X470.224
G3 Y35.678 J0.952
G1 X460.064
G3 X459.746 Y35.361 J-0.318
G1 Y35.043
G19 G2 Y34.726 Z-3.112 K0.317
G0 Z5
X471.13 Y41.19
G1 Z1.25 F200
Z0.067
G2 Y40.873 Z-0.25 J-0.317
G1 Y40.555
G17 G3 X471.448 Y40.237 I0.318
G1 X473.443
G2 X474.787 Y39.494 J-1.587
G3 X492.318 I8.765 J5.506
G2 X493.662 Y40.237 I1.344 J-0.844
G1 X495.998
G3 Y49.763 J4.763
G1 X493.662
G2 X492.318 Y50.506 J1.587
G3 X474.787 I-8.765 J-5.506
G2 X473.443 Y49.763 I-1.344 J0.844
G1 X471.106
G3 Y40.237 J-4.763
G1 X471.448
G3 X471.765 Y40.555 J0.318
G1 Y40.873
G19 G3 Y41.19 Z0.067 K0.318
G1 X471.13
Z-0.183
G2 Y40.873 Z-0.5 J-0.317
G1 Y40.555
G17 G3 X471.448 Y40.237 I0.318
G1 X473.443
G2 X474.787 Y39.494 J-1.587
G3 X492.318 I8.765 J5.506
G2 X493.662 Y40.237 I1.344 J-0.844
G1 X495.998
G3 Y49.763 J4.763
G1 X493.662
G2 X492.318 Y50.506 J1.587
G3 X474.787 I-8.765 J-5.506
G2 X473.443 Y49.763 I-1.344 J0.844
G1 X471.106
G3 Y40.237 J-4.763
G1 X471.448
G3 X471.765 Y40.555 J0.318
G1 Y40.873
G19 G3 Y41.19 Z-0.183 K0.317
G1 X471.13
Z-0.433
G2 Y40.873 Z-0.75 J-0.317
G1 Y40.555
G17 G3 X471.448 Y40.237 I0.318
G1 X473.443
G2 X474.787 Y39.494 J-1.587
G3 X492.318 I8.765 J5.506
G2 X493.662 Y40.237 I1.344 J-0.844
G1 X495.998
G3 Y49.763 J4.763
G1 X493.662
G2 X492.318 Y50.506 J1.587
G3 X474.787 I-8.765 J-5.506
G2 X473.443 Y49.763 I-1.344 J0.844
G1 X471.106
G3 Y40.237 J-4.763
G1 X471.448
G3 X471.765 Y40.555 J0.318
G1 Y40.873
G19 G3 Y41.19 Z-0.433 K0.317
G1 X471.13
Z-0.683
G2 Y40.873 Z-1 J-0.317
G1 Y40.555
G17 G3 X471.448 Y40.237 I0.318
G1 X473.443
G2 X474.787 Y39.494 J-1.587
G3 X492.318 I8.765 J5.506
G2 X493.662 Y40.237 I1.344 J-0.844
G1 X495.998
G3 Y49.763 J4.763
G1 X493.662
G2 X492.318 Y50.506 J1.587
G3 X474.787 I-8.765 J-5.506
G2 X473.443 Y49.763 I-1.344 J0.844
G1 X471.106
G3 Y40.237 J-4.763
G1 X471.448
G3 X471.765 Y40.555 J0.318
G1 Y40.873
G19 G3 Y41.19 Z-0.683 K0.317
G1 X471.13
Z-0.933
G2 Y40.873 Z-1.25 J-0.317
G1 Y40.555
G17 G3 X471.448 Y40.237 I0.318
G1 X473.443
G2 X474.787 Y39.494 J-1.587
G3 X492.318 I8.765 J5.506
G2 X493.662 Y40.237 I1.344 J-0.844
G1 X495.998
G3 Y49.763 J4.763
G1 X493.662
G2 X492.318 Y50.506 J1.587
G3 X474.787 I-8.765 J-5.506
G2 X473.443 Y49.763 I-1.344 J0.844
G1 X471.106
G3 Y40.237 J-4.763
G1 X471.448
G3 X471.765 Y40.555 J0.318
G1 Y40.873
G19 G3 Y41.19 Z-0.933 K0.317
G1 X471.13
Z-1.183
G2 Y40.873 Z-1.5 J-0.317
G1 Y40.555
G17 G3 X471.448 Y40.237 I0.318
G1 X473.443
G2 X474.787 Y39.494 J-1.587
G3 X492.318 I8.765 J5.506
G2 X493.662 Y40.237 I1.344 J-0.844
G1 X495.998
G3 Y49.763 J4.763
G1 X493.662
G2 X492.318 Y50.506 J1.587
G3 X474.787 I-8.765 J-5.506
G2 X473.443 Y49.763 I-1.344 J0.844
G1 X471.106
G3 Y40.237 J-4.763
G1 X471.448
G3 X471.765 Y40.555 J0.318
G1 Y40.873
G19 G3 Y41.19 Z-1.183 K0.317
G1 X471.13
Z-1.433
G2 Y40.873 Z-1.75 J-0.317
G1 Y40.555
G17 G3 X471.448 Y40.237 I0.318
G1 X473.443
G2 X474.787 Y39.494 J-1.587
G3 X492.318 I8.765 J5.506
G2 X493.662 Y40.237 I1.344 J-0.844
G1 X495.998
G3 Y49.763 J4.763
G1 X493.662
G2 X492.318 Y50.506 J1.587
G3 X474.787 I-8.765 J-5.506
G2 X473.443 Y49.763 I-1.344 J0.844
G1 X471.106
G3 Y40.237 J-4.763
G1 X471.448
G3 X471.765 Y40.555 J0.318
G1 Y40.873
G19 G3 Y41.19 Z-1.433 K0.317
G1 X471.13
Z-1.683
G2 Y40.873 Z-2 J-0.317
G1 Y40.555
G17 G3 X471.448 Y40.237 I0.318
G1 X473.443
G2 X474.787 Y39.494 J-1.587
G3 X492.318 I8.765 J5.506
G2 X493.662 Y40.237 I1.344 J-0.844
G1 X495.998
G3 Y49.763 J4.763
G1 X493.662
G2 X492.318 Y50.506 J1.587
G3 X474.787 I-8.765 J-5.506
G2 X473.443 Y49.763 I-1.344 J0.844
G1 X471.106
G3 Y40.237 J-4.763
G1 X471.448
G3 X471.765 Y40.555 J0.318
G1 Y40.873
G19 G3 Y41.19 Z-1.683 K0.317
G1 X471.13
Z-1.933
G2 Y40.873 Z-2.25 J-0.317
G1 Y40.555
G17 G3 X471.448 Y40.237 I0.318
G1 X473.443
G2 X474.787 Y39.494 J-1.587
G3 X492.318 I8.765 J5.506
G2 X493.662 Y40.237 I1.344 J-0.844
G1 X495.998
G3 Y49.763 J4.763
G1 X493.662
G2 X492.318 Y50.506 J1.587
G3 X474.787 I-8.765 J-5.506
G2 X473.443 Y49.763 I-1.344 J0.844
G1 X471.106
G3 Y40.237 J-4.763
G1 X471.448
G3 X471.765 Y40.555 J0.318
G1 Y40.873
G19 G3 Y41.19 Z-1.933 K0.317
G1 X471.13
Z-2.183
G2 Y40.873 Z-2.5 J-0.317
G1 Y40.555
G17 G3 X471.448 Y40.237 I0.318
G1 X473.443
G2 X474.787 Y39.494 J-1.587
G3 X492.318 I8.765 J5.506
G2 X493.662 Y40.237 I1.344 J-0.844
G1 X495.998
G3 Y49.763 J4.763
G1 X493.662
G2 X492.318 Y50.506 J1.587
G3 X474.787 I-8.765 J-5.506
G2 X473.443 Y49.763 I-1.344 J0.844
G1 X471.106
G3 Y40.237 J-4.763
G1 X471.448
G3 X471.765 Y40.555 J0.318
G1 Y40.873
G19 G3 Y41.19 Z-2.183 K0.318
G1 X471.13
Z-2.433
G2 Y40.873 Z-2.75 J-0.317
G1 Y40.555
G17 G3 X471.448 Y40.237 I0.318
G1 X473.443
G2 X474.787 Y39.494 J-1.587
G3 X492.318 I8.765 J5.506
G2 X493.662 Y40.237 I1.344 J-0.844
G1 X495.998
G3 Y49.763 J4.763
G1 X493.662
G2 X492.318 Y50.506 J1.587
G3 X474.787 I-8.765 J-5.506
G2 X473.443 Y49.763 I-1.344 J0.844
G1 X471.106
G3 Y40.237 J-4.763
G1 X471.448
G3 X471.765 Y40.555 J0.318
G1 Y40.873
G19 G3 Y41.19 Z-2.433 K0.318
G1 X471.13
Z-2.683
G2 Y40.873 Z-3 J-0.317
G1 Y40.555
G17 G3 X471.448 Y40.237 I0.318
G1 X473.443
G2 X474.787 Y39.494 J-1.587
G3 X492.318 I8.765 J5.506
G2 X493.662 Y40.237 I1.344 J-0.844
G1 X495.998
G3 Y49.763 J4.763
G1 X493.662
G2 X492.318 Y50.506 J1.587
G3 X474.787 I-8.765 J-5.506
G2 X473.443 Y49.763 I-1.344 J0.844
G1 X471.106
G3 Y40.237 J-4.763
G1 X471.448
G3 X471.765 Y40.555 J0.318
G1 Y40.873
G19 G3 Y41.19 Z-2.683 K0.318
G1 X471.13
Z-2.933
G2 Y40.873 Z-3.25 J-0.317
G1 Y40.555
G17 G3 X471.448 Y40.237 I0.318
G1 X473.443
G2 X474.787 Y39.494 J-1.587
G3 X492.318 I8.765 J5.506
G2 X493.662 Y40.237 I1.344 J-0.844
G1 X495.998
G3 Y49.763 J4.763
G1 X493.662
G2 X492.318 Y50.506 J1.587
G3 X474.787 I-8.765 J-5.506
G2 X473.443 Y49.763 I-1.344 J0.844
G1 X471.106
G3 Y40.237 J-4.763
G1 X471.448
G3 X471.765 Y40.555 J0.318
G1 Y40.873
G19 G3 Y41.19 Z-2.933 K0.318
G1 X471.13
Z-3.112
G2 Y40.873 Z-3.429 J-0.317
G1 Y40.555
G17 G3 X471.448 Y40.237 I0.318
G1 X473.443
G2 X474.787 Y39.494 J-1.587
G3 X492.318 I8.765 J5.506
G2 X493.662 Y40.237 I1.344 J-0.844
G1 X495.998
G3 Y49.763 J4.763
G1 X493.662
G2 X492.318 Y50.506 J1.587
G3 X474.787 I-8.765 J-5.506
G2 X473.443 Y49.763 I-1.344 J0.844
G1 X471.106
G3 Y40.237 J-4.763
G1 X471.448
G3 X471.765 Y40.555 J0.318
G1 Y40.873
G19 G3 Y41.19 Z-3.112 K0.317
G0 Z5
X478.257 Y66.082
G1 Z1.25 F200
Z0.067
G2 Y65.765 Z-0.25 J-0.317
G1 Y65.447
G17 G3 X478.575 Y65.13 I0.318
G1 X488.632
G3 Y67.035 J0.952
G1 X478.472
G3 Y65.13 J-0.952
G1 X478.575
G3 X478.892 Y65.447 J0.317
G1 Y65.765
G19 G3 Y66.082 Z0.067 K0.318
G1 X478.257
Z-0.183
G2 Y65.765 Z-0.5 J-0.317
G1 Y65.447
G17 G3 X478.575 Y65.13 I0.318
G1 X488.632
G3 Y67.035 J0.952
G1 X478.472
G3 Y65.13 J-0.952
G1 X478.575
G3 X478.892 Y65.447 J0.317
G1 Y65.765
G19 G3 Y66.082 Z-0.183 K0.317
G1 X478.257
Z-0.433
G2 Y65.765 Z-0.75 J-0.317
G1 Y65.447
G17 G3 X478.575 Y65.13 I0.318
G1 X488.632
G3 Y67.035 J0.952
G1 X478.472
G3 Y65.13 J-0.952
G1 X478.575
G3 X478.892 Y65.447 J0.317
G1 Y65.765
G19 G3 Y66.082 Z-0.433 K0.317
G1 X478.257
Z-0.683
G2 Y65.765 Z-1 J-0.317
G1 Y65.447
G17 G3 X478.575 Y65.13 I0.318
G1 X488.632
G3 Y67.035 J0.952
G1 X478.472
G3 Y65.13 J-0.952
G1 X478.575
G3 X478.892 Y65.447 J0.317
G1 Y65.765
G19 G3 Y66.082 Z-0.683 K0.317
G1 X478.257
Z-0.933
G2 Y65.765 Z-1.25 J-0.317
G1 Y65.447
G17 G3 X478.575 Y65.13 I0.318
G1 X488.632
G3 Y67.035 J0.952
G1 X478.472
G3 Y65.13 J-0.952
G1 X478.575
G3 X478.892 Y65.447 J0.317
G1 Y65.765
G19 G3 Y66.082 Z-0.933 K0.317
G1 X478.257
Z-1.183
G2 Y65.765 Z-1.5 J-0.317
G1 Y65.447
G17 G3 X478.575 Y65.13 I0.318
G1 X488.632
G3 Y67.035 J0.952
G1 X478.472
G3 Y65.13 J-0.952
G1 X478.575
G3 X478.892 Y65.447 J0.317
G1 Y65.765
G19 G3 Y66.082 Z-1.183 K0.317
G1 X478.257
Z-1.433
G2 Y65.765 Z-1.75 J-0.317
G1 Y65.447
G17 G3 X478.575 Y65.13 I0.318
G1 X488.632
G3 Y67.035 J0.952
G1 X478.472
G3 Y65.13 J-0.952
G1 X478.575
G3 X478.892 Y65.447 J0.317
G1 Y65.765
G19 G3 Y66.082 Z-1.433 K0.317
G1 X478.257
Z-1.683
G2 Y65.765 Z-2 J-0.317
G1 Y65.447
G17 G3 X478.575 Y65.13 I0.318
G1 X488.632
G3 Y67.035 J0.952
G1 X478.472
G3 Y65.13 J-0.952
G1 X478.575
G3 X478.892 Y65.447 J0.317
G1 Y65.765
G19 G3 Y66.082 Z-1.683 K0.317
G1 X478.257
Z-1.933
G2 Y65.765 Z-2.25 J-0.317
G1 Y65.447
G17 G3 X478.575 Y65.13 I0.318
G1 X488.632
G3 Y67.035 J0.952
G1 X478.472
G3 Y65.13 J-0.952
G1 X478.575
G3 X478.892 Y65.447 J0.317
G1 Y65.765
G19 G3 Y66.082 Z-1.933 K0.317
G1 X478.257
Z-2.183
G2 Y65.765 Z-2.5 J-0.317
G1 Y65.447
G17 G3 X478.575 Y65.13 I0.318
G1 X488.632
G3 Y67.035 J0.952
G1 X478.472
G3 Y65.13 J-0.952
G1 X478.575
G3 X478.892 Y65.447 J0.317
G1 Y65.765
G19 G3 Y66.082 Z-2.183 K0.318
G1 X478.257
Z-2.433
G2 Y65.765 Z-2.75 J-0.317
G1 Y65.447
G17 G3 X478.575 Y65.13 I0.318
G1 X488.632
G3 Y67.035 J0.952
G1 X478.472
G3 Y65.13 J-0.952
G1 X478.575
G3 X478.892 Y65.447 J0.317
G1 Y65.765
G19 G3 Y66.082 Z-2.433 K0.318
G1 X478.257
Z-2.683
G2 Y65.765 Z-3 J-0.317
G1 Y65.447
G17 G3 X478.575 Y65.13 I0.318
G1 X488.632
G3 Y67.035 J0.952
G1 X478.472
G3 Y65.13 J-0.952
G1 X478.575
G3 X478.892 Y65.447 J0.317
G1 Y65.765
G19 G3 Y66.082 Z-2.683 K0.318
G1 X478.257
Z-2.933
G2 Y65.765 Z-3.25 J-0.317
G1 Y65.447
G17 G3 X478.575 Y65.13 I0.318
G1 X488.632
G3 Y67.035 J0.952
G1 X478.472
G3 Y65.13 J-0.952
G1 X478.575
G3 X478.892 Y65.447 J0.317
G1 Y65.765
G19 G3 Y66.082 Z-2.933 K0.318
G1 X478.257
Z-3.112
G2 Y65.765 Z-3.429 J-0.317
G1 Y65.447
G17 G3 X478.575 Y65.13 I0.318
G1 X488.632
G3 Y67.035 J0.952
G1 X478.472
G3 Y65.13 J-0.952
G1 X478.575
G3 X478.892 Y65.447 J0.317
G1 Y65.765
G19 G3 Y66.082 Z-3.112 K0.317
G0 Z5
X496.564 Y34.726
G1 Z1.25 F200
Z0.067
G2 Y34.408 Z-0.25 J-0.318
G1 Y34.091
G17 G3 X496.881 Y33.773 I0.318
G1 X507.041
G3 Y35.678 J0.952
G1 X496.881
G3 Y33.773 J-0.952
X497.198 Y34.091 J0.317
G1 Y34.408
G19 G3 Y34.726 Z0.067 K0.318
G1 X496.564
Z-0.183
G2 Y34.408 Z-0.5 J-0.318
G1 Y34.091
G17 G3 X496.881 Y33.773 I0.318
G1 X507.041
G3 Y35.678 J0.952
G1 X496.881
G3 Y33.773 J-0.952
X497.198 Y34.091 J0.317
G1 Y34.408
G19 G3 Y34.726 Z-0.183 K0.317
G1 X496.564
Z-0.433
G2 Y34.408 Z-0.75 J-0.318
G1 Y34.091
G17 G3 X496.881 Y33.773 I0.318
G1 X507.041
G3 Y35.678 J0.952
G1 X496.881
G3 Y33.773 J-0.952
X497.198 Y34.091 J0.317
G1 Y34.408
G19 G3 Y34.726 Z-0.433 K0.317
G1 X496.564
Z-0.683
G2 Y34.408 Z-1 J-0.318
G1 Y34.091
G17 G3 X496.881 Y33.773 I0.318
G1 X507.041
G3 Y35.678 J0.952
G1 X496.881
G3 Y33.773 J-0.952
X497.198 Y34.091 J0.317
G1 Y34.408
G19 G3 Y34.726 Z-0.683 K0.317
G1 X496.564
Z-0.933
G2 Y34.408 Z-1.25 J-0.318
G1 Y34.091
G17 G3 X496.881 Y33.773 I0.318
G1 X507.041
G3 Y35.678 J0.952
G1 X496.881
G3 Y33.773 J-0.952
X497.198 Y34.091 J0.317
G1 Y34.408
G19 G3 Y34.726 Z-0.933 K0.317
G1 X496.564
Z-1.183
G2 Y34.408 Z-1.5 J-0.318
G1 Y34.091
G17 G3 X496.881 Y33.773 I0.318
G1 X507.041
G3 Y35.678 J0.952
G1 X496.881
G3 Y33.773 J-0.952
X497.198 Y34.091 J0.317
G1 Y34.408
G19 G3 Y34.726 Z-1.183 K0.317
G1 X496.564
Z-1.433
G2 Y34.408 Z-1.75 J-0.318
G1 Y34.091
G17 G3 X496.881 Y33.773 I0.318
G1 X507.041
G3 Y35.678 J0.952
G1 X496.881
G3 Y33.773 J-0.952
X497.198 Y34.091 J0.317
G1 Y34.408
G19 G3 Y34.726 Z-1.433 K0.317
G1 X496.564
Z-1.683
G2 Y34.408 Z-2 J-0.318
G1 Y34.091
G17 G3 X496.881 Y33.773 I0.318
G1 X507.041
G3 Y35.678 J0.952
G1 X496.881
G3 Y33.773 J-0.952
X497.198 Y34.091 J0.317
G1 Y34.408
G19 G3 Y34.726 Z-1.683 K0.317
G1 X496.564
Z-1.933
G2 Y34.408 Z-2.25 J-0.318
G1 Y34.091
G17 G3 X496.881 Y33.773 I0.318
G1 X507.041
G3 Y35.678 J0.952
G1 X496.881
G3 Y33.773 J-0.952
X497.198 Y34.091 J0.317
G1 Y34.408
G19 G3 Y34.726 Z-1.933 K0.317
G1 X496.564
Z-2.183
G2 Y34.408 Z-2.5 J-0.318
G1 Y34.091
G17 G3 X496.881 Y33.773 I0.318
G1 X507.041
G3 Y35.678 J0.952
G1 X496.881
G3 Y33.773 J-0.952
X497.198 Y34.091 J0.317
G1 Y34.408
G19 G3 Y34.726 Z-2.183 K0.318
G1 X496.564
Z-2.433
G2 Y34.408 Z-2.75 J-0.318
G1 Y34.091
G17 G3 X496.881 Y33.773 I0.318
G1 X507.041
G3 Y35.678 J0.952
G1 X496.881
G3 Y33.773 J-0.952
X497.198 Y34.091 J0.317
G1 Y34.408
G19 G3 Y34.726 Z-2.433 K0.318
G1 X496.564
Z-2.683
G2 Y34.408 Z-3 J-0.318
G1 Y34.091
G17 G3 X496.881 Y33.773 I0.318
G1 X507.041
G3 Y35.678 J0.952
G1 X496.881
G3 Y33.773 J-0.952
X497.198 Y34.091 J0.317
G1 Y34.408
G19 G3 Y34.726 Z-2.683 K0.318
G1 X496.564
Z-2.933
G2 Y34.408 Z-3.25 J-0.318
G1 Y34.091
G17 G3 X496.881 Y33.773 I0.318
G1 X507.041
G3 Y35.678 J0.952
G1 X496.881
G3 Y33.773 J-0.952
X497.198 Y34.091 J0.317
G1 Y34.408
G19 G3 Y34.726 Z-2.933 K0.318
G1 X496.564
Z-3.112
G2 Y34.408 Z-3.429 J-0.318
G1 Y34.091
G17 G3 X496.881 Y33.773 I0.318
G1 X507.041
G3 Y35.678 J0.952
G1 X496.881
G3 Y33.773 J-0.952
X497.198 Y34.091 J0.317
G1 Y34.408
G19 G3 Y34.726 Z-3.112 K0.317
G0 Z5
X564.885 Y29.683
G1 Z1.25 F200
Z0.067
G18 G2 X565.203 Z-0.25 I0.318
G1 X565.52
G17 G3 X565.838 Y30 J0.317
X563.513 I-1.163
X565.838 I1.162
X565.52 Y30.317 I-0.318
G1 X565.203
G18 G3 X564.885 Z0.067 K0.318
G1 Y29.683
Z-0.183
G2 X565.203 Z-0.5 I0.318
G1 X565.52
G17 G3 X565.838 Y30 J0.317
X563.513 I-1.163
X565.838 I1.162
X565.52 Y30.317 I-0.318
G1 X565.203
G18 G3 X564.885 Z-0.183 K0.317
G1 Y29.683
Z-0.433
G2 X565.203 Z-0.75 I0.318
G1 X565.52
G17 G3 X565.838 Y30 J0.317
X563.513 I-1.163
X565.838 I1.162
X565.52 Y30.317 I-0.318
G1 X565.203
G18 G3 X564.885 Z-0.433 K0.317
G1 Y29.683
Z-0.683
G2 X565.203 Z-1 I0.318
G1 X565.52
G17 G3 X565.838 Y30 J0.317
X563.513 I-1.163
X565.838 I1.162
X565.52 Y30.317 I-0.318
G1 X565.203
G18 G3 X564.885 Z-0.683 K0.317
G1 Y29.683
Z-0.933
G2 X565.203 Z-1.25 I0.318
G1 X565.52
G17 G3 X565.838 Y30 J0.317
X563.513 I-1.163
X565.838 I1.162
X565.52 Y30.317 I-0.318
G1 X565.203
G18 G3 X564.885 Z-0.933 K0.317
G1 Y29.683
Z-1.183
G2 X565.203 Z-1.5 I0.318
G1 X565.52
G17 G3 X565.838 Y30 J0.317
X563.513 I-1.163
X565.838 I1.162
X565.52 Y30.317 I-0.318
G1 X565.203
G18 G3 X564.885 Z-1.183 K0.317
G1 Y29.683
Z-1.433
G2 X565.203 Z-1.75 I0.318
G1 X565.52
G17 G3 X565.838 Y30 J0.317
X563.513 I-1.163
X565.838 I1.162
X565.52 Y30.317 I-0.318
G1 X565.203
G18 G3 X564.885 Z-1.433 K0.317
G1 Y29.683
Z-1.683
G2 X565.203 Z-2 I0.318
G1 X565.52
G17 G3 X565.838 Y30 J0.317
X563.513 I-1.163
X565.838 I1.162
X565.52 Y30.317 I-0.318
G1 X565.203
G18 G3 X564.885 Z-1.683 K0.317
G1 Y29.683
Z-1.933
G2 X565.203 Z-2.25 I0.318
G1 X565.52
G17 G3 X565.838 Y30 J0.317
X563.513 I-1.163
X565.838 I1.162
X565.52 Y30.317 I-0.318
G1 X565.203
G18 G3 X564.885 Z-1.933 K0.317
G1 Y29.683
Z-2.183
G2 X565.203 Z-2.5 I0.318
G1 X565.52
G17 G3 X565.838 Y30 J0.317
X563.513 I-1.163
X565.838 I1.162
X565.52 Y30.317 I-0.318
G1 X565.203
G18 G3 X564.885 Z-2.183 K0.318
G1 Y29.683
Z-2.433
G2 X565.203 Z-2.75 I0.318
G1 X565.52
G17 G3 X565.838 Y30 J0.317
X563.513 I-1.163
X565.838 I1.162
X565.52 Y30.317 I-0.318
G1 X565.203
G18 G3 X564.885 Z-2.433 K0.318
G1 Y29.683
Z-2.683
G2 X565.203 Z-3 I0.318
G1 X565.52
G17 G3 X565.838 Y30 J0.317
X563.513 I-1.163
X565.838 I1.162
X565.52 Y30.317 I-0.318
G1 X565.203
G18 G3 X564.885 Z-2.683 K0.318
G1 Y29.683
Z-2.933
G2 X565.203 Z-3.25 I0.318
G1 X565.52
G17 G3 X565.838 Y30 J0.317
X563.513 I-1.163
X565.838 I1.162
X565.52 Y30.317 I-0.318
G1 X565.203
G18 G3 X564.885 Z-2.933 K0.318
G1 Y29.683
Z-3.112
G2 X565.203 Z-3.429 I0.318
G1 X565.52
G17 G3 X565.838 Y30 J0.317
X563.513 I-1.163
X565.838 I1.162
X565.52 Y30.317 I-0.318
G1 X565.203
G18 G3 X564.885 Z-3.112 K0.317
G0 Z5
Y9.682
G1 Z1.25 F200
Z0.067
G2 X565.203 Z-0.25 I0.318
G1 X565.52
G17 G3 X565.838 Y10 J0.318
X563.513 I-1.163
X565.838 I1.162
X565.52 Y10.318 I-0.318
G1 X565.203
G18 G3 X564.885 Z0.067 K0.318
G1 Y9.682
Z-0.183
G2 X565.203 Z-0.5 I0.318
G1 X565.52
G17 G3 X565.838 Y10 J0.318
X563.513 I-1.163
X565.838 I1.162
X565.52 Y10.318 I-0.318
G1 X565.203
G18 G3 X564.885 Z-0.183 K0.317
G1 Y9.682
Z-0.433
G2 X565.203 Z-0.75 I0.318
G1 X565.52
G17 G3 X565.838 Y10 J0.318
X563.513 I-1.163
X565.838 I1.162
X565.52 Y10.318 I-0.318
G1 X565.203
G18 G3 X564.885 Z-0.433 K0.317
G1 Y9.682
Z-0.683
G2 X565.203 Z-1 I0.318
G1 X565.52
G17 G3 X565.838 Y10 J0.318
X563.513 I-1.163
X565.838 I1.162
X565.52 Y10.318 I-0.318
G1 X565.203
G18 G3 X564.885 Z-0.683 K0.317
G1 Y9.682
Z-0.933
G2 X565.203 Z-1.25 I0.318
G1 X565.52
G17 G3 X565.838 Y10 J0.318
X563.513 I-1.163
X565.838 I1.162
X565.52 Y10.318 I-0.318
G1 X565.203
G18 G3 X564.885 Z-0.933 K0.317
G1 Y9.682
Z-1.183
G2 X565.203 Z-1.5 I0.318
G1 X565.52
G17 G3 X565.838 Y10 J0.318
X563.513 I-1.163
X565.838 I1.162
X565.52 Y10.318 I-0.318
G1 X565.203
G18 G3 X564.885 Z-1.183 K0.317
G1 Y9.682
Z-1.433
G2 X565.203 Z-1.75 I0.318
G1 X565.52
G17 G3 X565.838 Y10 J0.318
X563.513 I-1.163
X565.838 I1.162
X565.52 Y10.318 I-0.318
G1 X565.203
G18 G3 X564.885 Z-1.433 K0.317
G1 Y9.682
Z-1.683
G2 X565.203 Z-2 I0.318
G1 X565.52
G17 G3 X565.838 Y10 J0.318
X563.513 I-1.163
X565.838 I1.162
X565.52 Y10.318 I-0.318
G1 X565.203
G18 G3 X564.885 Z-1.683 K0.317
G1 Y9.682
Z-1.933
G2 X565.203 Z-2.25 I0.318
G1 X565.52
G17 G3 X565.838 Y10 J0.318
X563.513 I-1.163
X565.838 I1.162
X565.52 Y10.318 I-0.318
G1 X565.203
G18 G3 X564.885 Z-1.933 K0.317
G1 Y9.682
Z-2.183
G2 X565.203 Z-2.5 I0.318
G1 X565.52
G17 G3 X565.838 Y10 J0.318
X563.513 I-1.163
X565.838 I1.162
X565.52 Y10.318 I-0.318
G1 X565.203
G18 G3 X564.885 Z-2.183 K0.318
G1 Y9.682
Z-2.433
G2 X565.203 Z-2.75 I0.318
G1 X565.52
G17 G3 X565.838 Y10 J0.318
X563.513 I-1.163
X565.838 I1.162
X565.52 Y10.318 I-0.318
G1 X565.203
G18 G3 X564.885 Z-2.433 K0.318
G1 Y9.682
Z-2.683
G2 X565.203 Z-3 I0.318
G1 X565.52
G17 G3 X565.838 Y10 J0.318
X563.513 I-1.163
X565.838 I1.162
X565.52 Y10.318 I-0.318
G1 X565.203
G18 G3 X564.885 Z-2.683 K0.318
G1 Y9.682
Z-2.933
G2 X565.203 Z-3.25 I0.318
G1 X565.52
G17 G3 X565.838 Y10 J0.318
X563.513 I-1.163
X565.838 I1.162
X565.52 Y10.318 I-0.318
G1 X565.203
G18 G3 X564.885 Z-2.933 K0.318
G1 Y9.682
Z-3.112
G2 X565.203 Z-3.429 I0.318
G1 X565.52
G17 G3 X565.838 Y10 J0.318
X563.513 I-1.163
X565.838 I1.162
X565.52 Y10.318 I-0.318
G1 X565.203
G18 G3 X564.885 Z-3.112 K0.317
G0 Z5
X10.21 Y9.682
G1 Z1.25 F200
Z0.067
G2 X10.528 Z-0.25 I0.318
G1 X10.845
G17 G3 X11.163 Y10 J0.318
X8.837 I-1.163
X11.163 I1.163
X10.845 Y10.318 I-0.318
G1 X10.528
G18 G3 X10.21 Z0.067 K0.318
G1 Y9.682
Z-0.183
G2 X10.528 Z-0.5 I0.318
G1 X10.845
G17 G3 X11.163 Y10 J0.318
X8.837 I-1.163
X11.163 I1.163
X10.845 Y10.318 I-0.318
G1 X10.528
G18 G3 X10.21 Z-0.183 K0.317
G1 Y9.682
Z-0.433
G2 X10.528 Z-0.75 I0.318
G1 X10.845
G17 G3 X11.163 Y10 J0.318
X8.837 I-1.163
X11.163 I1.163
X10.845 Y10.318 I-0.318
G1 X10.528
G18 G3 X10.21 Z-0.433 K0.317
G1 Y9.682
Z-0.683
G2 X10.528 Z-1 I0.318
G1 X10.845
G17 G3 X11.163 Y10 J0.318
X8.837 I-1.163
X11.163 I1.163
X10.845 Y10.318 I-0.318
G1 X10.528
G18 G3 X10.21 Z-0.683 K0.317
G1 Y9.682
Z-0.933
G2 X10.528 Z-1.25 I0.318
G1 X10.845
G17 G3 X11.163 Y10 J0.318
X8.837 I-1.163
X11.163 I1.163
X10.845 Y10.318 I-0.318
G1 X10.528
G18 G3 X10.21 Z-0.933 K0.317
G1 Y9.682
Z-1.183
G2 X10.528 Z-1.5 I0.318
G1 X10.845
G17 G3 X11.163 Y10 J0.318
X8.837 I-1.163
X11.163 I1.163
X10.845 Y10.318 I-0.318
G1 X10.528
G18 G3 X10.21 Z-1.183 K0.317
G1 Y9.682
Z-1.433
G2 X10.528 Z-1.75 I0.318
G1 X10.845
G17 G3 X11.163 Y10 J0.318
X8.837 I-1.163
X11.163 I1.163
X10.845 Y10.318 I-0.318
G1 X10.528
G18 G3 X10.21 Z-1.433 K0.317
G1 Y9.682
Z-1.683
G2 X10.528 Z-2 I0.318
G1 X10.845
G17 G3 X11.163 Y10 J0.318
X8.837 I-1.163
X11.163 I1.163
X10.845 Y10.318 I-0.318
G1 X10.528
G18 G3 X10.21 Z-1.683 K0.317
G1 Y9.682
Z-1.933
G2 X10.528 Z-2.25 I0.318
G1 X10.845
G17 G3 X11.163 Y10 J0.318
X8.837 I-1.163
X11.163 I1.163
X10.845 Y10.318 I-0.318
G1 X10.528
G18 G3 X10.21 Z-1.933 K0.317
G1 Y9.682
Z-2.183
G2 X10.528 Z-2.5 I0.318
G1 X10.845
G17 G3 X11.163 Y10 J0.318
X8.837 I-1.163
X11.163 I1.163
X10.845 Y10.318 I-0.318
G1 X10.528
G18 G3 X10.21 Z-2.183 K0.318
G1 Y9.682
Z-2.433
G2 X10.528 Z-2.75 I0.318
G1 X10.845
G17 G3 X11.163 Y10 J0.318
X8.837 I-1.163
X11.163 I1.163
X10.845 Y10.318 I-0.318
G1 X10.528
G18 G3 X10.21 Z-2.433 K0.318
G1 Y9.682
Z-2.683
G2 X10.528 Z-3 I0.318
G1 X10.845
G17 G3 X11.163 Y10 J0.318
X8.837 I-1.163
X11.163 I1.163
X10.845 Y10.318 I-0.318
G1 X10.528
G18 G3 X10.21 Z-2.683 K0.318
G1 Y9.682
Z-2.933
G2 X10.528 Z-3.25 I0.318
G1 X10.845
G17 G3 X11.163 Y10 J0.318
X8.837 I-1.163
X11.163 I1.163
X10.845 Y10.318 I-0.318
G1 X10.528
G18 G3 X10.21 Z-2.933 K0.318
G1 Y9.682
Z-3.112
G2 X10.528 Z-3.429 I0.318
G1 X10.845
G17 G3 X11.163 Y10 J0.318
X8.837 I-1.163
X11.163 I1.163
X10.845 Y10.318 I-0.318
G1 X10.528
G18 G3 X10.21 Z-3.112 K0.317
G0 Z5
X10.218 Y29.688
G1 Z1.25 F200
Z0.067
X10.226 Z-0.003
X10.249 Y29.689 Z-0.07
X10.287 Z-0.13
X10.337 Y29.691 Z-0.181
X10.397 Y29.692 Z-0.219
X10.465 Y29.694 Z-0.242
X10.535 Y29.696 Z-0.25
X10.853 Y29.703
G17 G3 X11.162 Y30.029 I-0.008 J0.317
X8.838 Y29.971 I-1.162 J-0.029
X11.163 Y30 I1.162 J0.029
X11.162 Y30.029 I-1.163
X10.837 Y30.338 I-0.317 J-0.008
G1 X10.52 Y30.33
X10.449 Y30.329 Z-0.242
X10.382 Y30.327 Z-0.219
X10.322 Y30.325 Z-0.181
X10.271 Y30.324 Z-0.13
X10.234 Y30.323 Z-0.07
X10.21 Z-0.003
X10.202 Z0.067
X10.218 Y29.688
Z-0.183
X10.226 Z-0.253
X10.249 Y29.689 Z-0.32
X10.287 Z-0.38
X10.337 Y29.691 Z-0.431
X10.397 Y29.692 Z-0.469
X10.465 Y29.694 Z-0.492
X10.535 Y29.696 Z-0.5
X10.853 Y29.703
G3 X11.162 Y30.029 I-0.008 J0.317
X8.838 Y29.971 I-1.162 J-0.029
X11.163 Y30 I1.162 J0.029
X11.162 Y30.029 I-1.163
X10.837 Y30.338 I-0.317 J-0.008
G1 X10.52 Y30.33
X10.449 Y30.329 Z-0.492
X10.382 Y30.327 Z-0.469
X10.322 Y30.325 Z-0.431
X10.271 Y30.324 Z-0.38
X10.234 Y30.323 Z-0.32
X10.21 Z-0.253
X10.202 Z-0.183
X10.218 Y29.688
Z-0.433
X10.226 Z-0.503
X10.249 Y29.689 Z-0.57
X10.287 Z-0.63
X10.337 Y29.691 Z-0.681
X10.397 Y29.692 Z-0.719
X10.465 Y29.694 Z-0.742
X10.535 Y29.696 Z-0.75
X10.853 Y29.703
G3 X11.162 Y30.029 I-0.008 J0.317
X8.838 Y29.971 I-1.162 J-0.029
X11.163 Y30 I1.162 J0.029
X11.162 Y30.029 I-1.163
X10.837 Y30.338 I-0.317 J-0.008
G1 X10.52 Y30.33
X10.449 Y30.329 Z-0.742
X10.382 Y30.327 Z-0.719
X10.322 Y30.325 Z-0.681
X10.271 Y30.324 Z-0.63
X10.234 Y30.323 Z-0.57
X10.21 Z-0.503
X10.202 Z-0.433
X10.218 Y29.688
Z-0.683
X10.226 Z-0.753
X10.249 Y29.689 Z-0.82
X10.287 Z-0.88
X10.337 Y29.691 Z-0.931
X10.397 Y29.692 Z-0.969
X10.465 Y29.694 Z-0.992
X10.535 Y29.696 Z-1
X10.853 Y29.703
G3 X11.162 Y30.029 I-0.008 J0.317
X8.838 Y29.971 I-1.162 J-0.029
X11.163 Y30 I1.162 J0.029
X11.162 Y30.029 I-1.163
X10.837 Y30.338 I-0.317 J-0.008
G1 X10.52 Y30.33
X10.449 Y30.329 Z-0.992
X10.382 Y30.327 Z-0.969
X10.322 Y30.325 Z-0.931
X10.271 Y30.324 Z-0.88
X10.234 Y30.323 Z-0.82
X10.21 Z-0.753
X10.202 Z-0.683
X10.218 Y29.688
Z-0.933
X10.226 Z-1.003
X10.249 Y29.689 Z-1.07
X10.287 Z-1.13
X10.337 Y29.691 Z-1.181
X10.397 Y29.692 Z-1.219
X10.465 Y29.694 Z-1.242
X10.535 Y29.696 Z-1.25
X10.853 Y29.703
G3 X11.162 Y30.029 I-0.008 J0.317
X8.838 Y29.971 I-1.162 J-0.029
X11.163 Y30 I1.162 J0.029
X11.162 Y30.029 I-1.163
X10.837 Y30.338 I-0.317 J-0.008
G1 X10.52 Y30.33
X10.449 Y30.329 Z-1.242
X10.382 Y30.327 Z-1.219
X10.322 Y30.325 Z-1.181
X10.271 Y30.324 Z-1.13
X10.234 Y30.323 Z-1.07
X10.21 Z-1.003
X10.202 Z-0.933
X10.218 Y29.688
Z-1.183
X10.226 Z-1.253
X10.249 Y29.689 Z-1.32
X10.287 Z-1.38
X10.337 Y29.691 Z-1.431
X10.397 Y29.692 Z-1.469
X10.465 Y29.694 Z-1.492
X10.535 Y29.696 Z-1.5
X10.853 Y29.703
G3 X11.162 Y30.029 I-0.008 J0.317
X8.838 Y29.971 I-1.162 J-0.029
X11.163 Y30 I1.162 J0.029
X11.162 Y30.029 I-1.163
X10.837 Y30.338 I-0.317 J-0.008
G1 X10.52 Y30.33
X10.449 Y30.329 Z-1.492
X10.382 Y30.327 Z-1.469
X10.322 Y30.325 Z-1.431
X10.271 Y30.324 Z-1.38
X10.234 Y30.323 Z-1.32
X10.21 Z-1.253
X10.202 Z-1.183
X10.218 Y29.688
Z-1.433
X10.226 Z-1.503
X10.249 Y29.689 Z-1.57
X10.287 Z-1.63
X10.337 Y29.691 Z-1.681
X10.397 Y29.692 Z-1.719
X10.465 Y29.694 Z-1.742
X10.535 Y29.696 Z-1.75
X10.853 Y29.703
G3 X11.162 Y30.029 I-0.008 J0.317
X8.838 Y29.971 I-1.162 J-0.029
X11.163 Y30 I1.162 J0.029
X11.162 Y30.029 I-1.163
X10.837 Y30.338 I-0.317 J-0.008
G1 X10.52 Y30.33
X10.449 Y30.329 Z-1.742
X10.382 Y30.327 Z-1.719
X10.322 Y30.325 Z-1.681
X10.271 Y30.324 Z-1.63
X10.234 Y30.323 Z-1.57
X10.21 Z-1.503
X10.202 Z-1.433
X10.218 Y29.688
Z-1.683
X10.226 Z-1.753
X10.249 Y29.689 Z-1.82
X10.287 Z-1.88
X10.337 Y29.691 Z-1.931
X10.397 Y29.692 Z-1.969
X10.465 Y29.694 Z-1.992
X10.535 Y29.696 Z-2
X10.853 Y29.703
G3 X11.162 Y30.029 I-0.008 J0.317
X8.838 Y29.971 I-1.162 J-0.029
X11.163 Y30 I1.162 J0.029
X11.162 Y30.029 I-1.163
X10.837 Y30.338 I-0.317 J-0.008
G1 X10.52 Y30.33
X10.449 Y30.329 Z-1.992
X10.382 Y30.327 Z-1.969
X10.322 Y30.325 Z-1.931
X10.271 Y30.324 Z-1.88
X10.234 Y30.323 Z-1.82
X10.21 Z-1.753
X10.202 Z-1.683
X10.218 Y29.688
Z-1.933
X10.226 Z-2.003
X10.249 Y29.689 Z-2.07
X10.287 Z-2.13
X10.337 Y29.691 Z-2.181
X10.397 Y29.692 Z-2.219
X10.465 Y29.694 Z-2.242
X10.535 Y29.696 Z-2.25
X10.853 Y29.703
G3 X11.162 Y30.029 I-0.008 J0.317
X8.838 Y29.971 I-1.162 J-0.029
X11.163 Y30 I1.162 J0.029
X11.162 Y30.029 I-1.163
X10.837 Y30.338 I-0.317 J-0.008
G1 X10.52 Y30.33
X10.449 Y30.329 Z-2.242
X10.382 Y30.327 Z-2.219
X10.322 Y30.325 Z-2.181
X10.271 Y30.324 Z-2.13
X10.234 Y30.323 Z-2.07
X10.21 Z-2.003
X10.202 Z-1.933
X10.218 Y29.688
Z-2.183
X10.226 Z-2.253
X10.249 Y29.689 Z-2.32
X10.287 Z-2.38
X10.337 Y29.691 Z-2.431
X10.397 Y29.692 Z-2.469
X10.465 Y29.694 Z-2.492
X10.535 Y29.696 Z-2.5
X10.853 Y29.703
G3 X11.162 Y30.029 I-0.008 J0.317
X8.838 Y29.971 I-1.162 J-0.029
X11.163 Y30 I1.162 J0.029
X11.162 Y30.029 I-1.163
X10.837 Y30.338 I-0.317 J-0.008
G1 X10.52 Y30.33
X10.449 Y30.329 Z-2.492
X10.382 Y30.327 Z-2.469
X10.322 Y30.325 Z-2.431
X10.271 Y30.324 Z-2.38
X10.234 Y30.323 Z-2.32
X10.21 Z-2.253
X10.202 Z-2.183
X10.218 Y29.688
Z-2.433
X10.226 Z-2.503
X10.249 Y29.689 Z-2.57
X10.287 Z-2.63
X10.337 Y29.691 Z-2.681
X10.397 Y29.692 Z-2.719
X10.465 Y29.694 Z-2.742
X10.535 Y29.696 Z-2.75
X10.853 Y29.703
G3 X11.162 Y30.029 I-0.008 J0.317
X8.838 Y29.971 I-1.162 J-0.029
X11.163 Y30 I1.162 J0.029
X11.162 Y30.029 I-1.163
X10.837 Y30.338 I-0.317 J-0.008
G1 X10.52 Y30.33
X10.449 Y30.329 Z-2.742
X10.382 Y30.327 Z-2.719
X10.322 Y30.325 Z-2.681
X10.271 Y30.324 Z-2.63
X10.234 Y30.323 Z-2.57
X10.21 Z-2.503
X10.202 Z-2.433
X10.218 Y29.688
Z-2.683
X10.226 Z-2.753
X10.249 Y29.689 Z-2.82
X10.287 Z-2.88
X10.337 Y29.691 Z-2.931
X10.397 Y29.692 Z-2.969
X10.465 Y29.694 Z-2.992
X10.535 Y29.696 Z-3
X10.853 Y29.703
G3 X11.162 Y30.029 I-0.008 J0.317
X8.838 Y29.971 I-1.162 J-0.029
X11.163 Y30 I1.162 J0.029
X11.162 Y30.029 I-1.163
X10.837 Y30.338 I-0.317 J-0.008
G1 X10.52 Y30.33
X10.449 Y30.329 Z-2.992
X10.382 Y30.327 Z-2.969
X10.322 Y30.325 Z-2.931
X10.271 Y30.324 Z-2.88
X10.234 Y30.323 Z-2.82
X10.21 Z-2.753
X10.202 Z-2.683
X10.218 Y29.688
Z-2.933
X10.226 Z-3.003
X10.249 Y29.689 Z-3.07
X10.287 Z-3.13
X10.337 Y29.691 Z-3.181
X10.397 Y29.692 Z-3.219
X10.465 Y29.694 Z-3.242
X10.535 Y29.696 Z-3.25
X10.853 Y29.703
G3 X11.162 Y30.029 I-0.008 J0.317
X8.838 Y29.971 I-1.162 J-0.029
X11.163 Y30 I1.162 J0.029
X11.162 Y30.029 I-1.163
X10.837 Y30.338 I-0.317 J-0.008
G1 X10.52 Y30.33
X10.449 Y30.329 Z-3.242
X10.382 Y30.327 Z-3.219
X10.322 Y30.325 Z-3.181
X10.271 Y30.324 Z-3.13
X10.234 Y30.323 Z-3.07
X10.21 Z-3.003
X10.202 Z-2.933
X10.218 Y29.688
Z-3.112
X10.226 Z-3.182
X10.249 Y29.689 Z-3.249
X10.287 Z-3.309
X10.337 Y29.691 Z-3.36
X10.397 Y29.692 Z-3.398
X10.465 Y29.694 Z-3.421
X10.535 Y29.696 Z-3.429
X10.853 Y29.703
G3 X11.162 Y30.029 I-0.008 J0.317
X8.838 Y29.971 I-1.162 J-0.029
X11.163 Y30 I1.162 J0.029
X11.162 Y30.029 I-1.163
X10.837 Y30.338 I-0.317 J-0.008
G1 X10.52 Y30.33
X10.449 Y30.329 Z-3.421
X10.382 Y30.327 Z-3.398
X10.322 Y30.325 Z-3.36
X10.271 Y30.324 Z-3.309
X10.234 Y30.323 Z-3.249
X10.21 Z-3.182
X10.202 Z-3.112
G0 Z15
M9
M30
%
