%
(1001)
(Contour)
(T1  D=3.175 CR=0 - ZMIN=-3.429 - flat end mill)
G90 G94
G17
G21

(2D Contour2)
M9
T1 M6
S10000 M3
G54
M9
G0 X-0.566 Y42.496
Z15
Z5
G1 Z1.25 F200
Z0.067
X-0.565 Y42.489 Z-0.003
X-0.563 Y42.465 Z-0.07
X-0.559 Y42.428 Z-0.13
X-0.554 Y42.377 Z-0.181
X-0.548 Y42.318 Z-0.219
X-0.542 Y42.251 Z-0.242
X-0.535 Y42.18 Z-0.25
X-0.503 Y41.865
G3 X-0.156 Y41.58 I0.316 J0.031
G1 X252.68 Y66.58
G2 X252.836 Y66.588 I0.156 J-1.58
G1 X454.895
G2 X512.418 Y66.307 I28.657 J-21.587
G1 X575.258 Y41.476
G2 X576.263 Y40 I-0.583 J-1.476
G1 Y0
G2 X574.675 Y-1.587 I-1.588
G1 X0
G2 X-1.587 Y0 J1.587
G1 Y40
G2 X-0.156 Y41.58 I1.587
G3 X0.129 Y41.927 I-0.031 J0.316
G1 X0.097 Y42.243
X0.09 Y42.313 Z-0.242
X0.084 Y42.38 Z-0.219
X0.078 Y42.44 Z-0.181
X0.073 Y42.49 Z-0.13
X0.069 Y42.528 Z-0.07
X0.067 Y42.551 Z-0.003
X0.066 Y42.559 Z0.067
X-0.566 Y42.496
Z-0.183
X-0.565 Y42.489 Z-0.253
X-0.563 Y42.465 Z-0.32
X-0.559 Y42.428 Z-0.38
X-0.554 Y42.377 Z-0.431
X-0.548 Y42.318 Z-0.469
X-0.542 Y42.251 Z-0.492
X-0.535 Y42.18 Z-0.5
X-0.503 Y41.865
G3 X-0.156 Y41.58 I0.316 J0.031
G1 X252.68 Y66.58
G2 X252.836 Y66.588 I0.156 J-1.58
G1 X454.895
G2 X512.418 Y66.307 I28.657 J-21.587
G1 X575.258 Y41.476
G2 X576.263 Y40 I-0.583 J-1.476
G1 Y0
G2 X574.675 Y-1.587 I-1.588
G1 X0
G2 X-1.587 Y0 J1.587
G1 Y40
G2 X-0.156 Y41.58 I1.587
G3 X0.129 Y41.927 I-0.031 J0.316
G1 X0.097 Y42.243
X0.09 Y42.313 Z-0.492
X0.084 Y42.38 Z-0.469
X0.078 Y42.44 Z-0.431
X0.073 Y42.49 Z-0.38
X0.069 Y42.528 Z-0.32
X0.067 Y42.551 Z-0.253
X0.066 Y42.559 Z-0.183
X-0.566 Y42.496
Z-0.433
X-0.565 Y42.489 Z-0.503
X-0.563 Y42.465 Z-0.57
X-0.559 Y42.428 Z-0.63
X-0.554 Y42.377 Z-0.681
X-0.548 Y42.318 Z-0.719
X-0.542 Y42.251 Z-0.742
X-0.535 Y42.18 Z-0.75
X-0.503 Y41.865
G3 X-0.156 Y41.58 I0.316 J0.031
G1 X252.68 Y66.58
G2 X252.836 Y66.588 I0.156 J-1.58
G1 X454.895
G2 X512.418 Y66.307 I28.657 J-21.587
G1 X575.258 Y41.476
G2 X576.263 Y40 I-0.583 J-1.476
G1 Y0
G2 X574.675 Y-1.587 I-1.588
G1 X0
G2 X-1.587 Y0 J1.587
G1 Y40
G2 X-0.156 Y41.58 I1.587
G3 X0.129 Y41.927 I-0.031 J0.316
G1 X0.097 Y42.243
X0.09 Y42.313 Z-0.742
X0.084 Y42.38 Z-0.719
X0.078 Y42.44 Z-0.681
X0.073 Y42.49 Z-0.63
X0.069 Y42.528 Z-0.57
X0.067 Y42.551 Z-0.503
X0.066 Y42.559 Z-0.433
X-0.566 Y42.496
Z-0.683
X-0.565 Y42.489 Z-0.753
X-0.563 Y42.465 Z-0.82
X-0.559 Y42.428 Z-0.88
X-0.554 Y42.377 Z-0.931
X-0.548 Y42.318 Z-0.969
X-0.542 Y42.251 Z-0.992
X-0.535 Y42.18 Z-1
X-0.503 Y41.865
G3 X-0.156 Y41.58 I0.316 J0.031
G1 X252.68 Y66.58
G2 X252.836 Y66.588 I0.156 J-1.58
G1 X454.895
G2 X512.418 Y66.307 I28.657 J-21.587
G1 X575.258 Y41.476
G2 X576.263 Y40 I-0.583 J-1.476
G1 Y0
G2 X574.675 Y-1.587 I-1.588
G1 X0
G2 X-1.587 Y0 J1.587
G1 Y40
G2 X-0.156 Y41.58 I1.587
G3 X0.129 Y41.927 I-0.031 J0.316
G1 X0.097 Y42.243
X0.09 Y42.313 Z-0.992
X0.084 Y42.38 Z-0.969
X0.078 Y42.44 Z-0.931
X0.073 Y42.49 Z-0.88
X0.069 Y42.528 Z-0.82
X0.067 Y42.551 Z-0.753
X0.066 Y42.559 Z-0.683
X-0.566 Y42.496
Z-0.933
X-0.565 Y42.489 Z-1.003
X-0.563 Y42.465 Z-1.07
X-0.559 Y42.428 Z-1.13
X-0.554 Y42.377 Z-1.181
X-0.548 Y42.318 Z-1.219
X-0.542 Y42.251 Z-1.242
X-0.535 Y42.18 Z-1.25
X-0.503 Y41.865
G3 X-0.156 Y41.58 I0.316 J0.031
G1 X252.68 Y66.58
G2 X252.836 Y66.588 I0.156 J-1.58
G1 X454.895
G2 X512.418 Y66.307 I28.657 J-21.587
G1 X575.258 Y41.476
G2 X576.263 Y40 I-0.583 J-1.476
G1 Y0
G2 X574.675 Y-1.587 I-1.588
G1 X0
G2 X-1.587 Y0 J1.587
G1 Y40
G2 X-0.156 Y41.58 I1.587
G3 X0.129 Y41.927 I-0.031 J0.316
G1 X0.097 Y42.243
X0.09 Y42.313 Z-1.242
X0.084 Y42.38 Z-1.219
X0.078 Y42.44 Z-1.181
X0.073 Y42.49 Z-1.13
X0.069 Y42.528 Z-1.07
X0.067 Y42.551 Z-1.003
X0.066 Y42.559 Z-0.933
X-0.566 Y42.496
Z-1.183
X-0.565 Y42.489 Z-1.253
X-0.563 Y42.465 Z-1.32
X-0.559 Y42.428 Z-1.38
X-0.554 Y42.377 Z-1.431
X-0.548 Y42.318 Z-1.469
X-0.542 Y42.251 Z-1.492
X-0.535 Y42.18 Z-1.5
X-0.503 Y41.865
G3 X-0.156 Y41.58 I0.316 J0.031
G1 X252.68 Y66.58
G2 X252.836 Y66.588 I0.156 J-1.58
G1 X454.895
G2 X512.418 Y66.307 I28.657 J-21.587
G1 X575.258 Y41.476
G2 X576.263 Y40 I-0.583 J-1.476
G1 Y0
G2 X574.675 Y-1.587 I-1.588
G1 X0
G2 X-1.587 Y0 J1.587
G1 Y40
G2 X-0.156 Y41.58 I1.587
G3 X0.129 Y41.927 I-0.031 J0.316
G1 X0.097 Y42.243
X0.09 Y42.313 Z-1.492
X0.084 Y42.38 Z-1.469
X0.078 Y42.44 Z-1.431
X0.073 Y42.49 Z-1.38
X0.069 Y42.528 Z-1.32
X0.067 Y42.551 Z-1.253
X0.066 Y42.559 Z-1.183
X-0.566 Y42.496
Z-1.433
X-0.565 Y42.489 Z-1.503
X-0.563 Y42.465 Z-1.57
X-0.559 Y42.428 Z-1.63
X-0.554 Y42.377 Z-1.681
X-0.548 Y42.318 Z-1.719
X-0.542 Y42.251 Z-1.742
X-0.535 Y42.18 Z-1.75
X-0.503 Y41.865
G3 X-0.156 Y41.58 I0.316 J0.031
G1 X252.68 Y66.58
G2 X252.836 Y66.588 I0.156 J-1.58
G1 X454.895
G2 X512.418 Y66.307 I28.657 J-21.587
G1 X575.258 Y41.476
G2 X576.263 Y40 I-0.583 J-1.476
G1 Y0
G2 X574.675 Y-1.587 I-1.588
G1 X0
G2 X-1.587 Y0 J1.587
G1 Y40
G2 X-0.156 Y41.58 I1.587
G3 X0.129 Y41.927 I-0.031 J0.316
G1 X0.097 Y42.243
X0.09 Y42.313 Z-1.742
X0.084 Y42.38 Z-1.719
X0.078 Y42.44 Z-1.681
X0.073 Y42.49 Z-1.63
X0.069 Y42.528 Z-1.57
X0.067 Y42.551 Z-1.503
X0.066 Y42.559 Z-1.433
X-0.566 Y42.496
Z-1.683
X-0.565 Y42.489 Z-1.753
X-0.563 Y42.465 Z-1.82
X-0.559 Y42.428 Z-1.88
X-0.554 Y42.377 Z-1.931
X-0.548 Y42.318 Z-1.969
X-0.542 Y42.251 Z-1.992
X-0.535 Y42.18 Z-2
X-0.503 Y41.865
G3 X-0.156 Y41.58 I0.316 J0.031
G1 X252.68 Y66.58
G2 X252.836 Y66.588 I0.156 J-1.58
G1 X454.895
G2 X512.418 Y66.307 I28.657 J-21.587
G1 X575.258 Y41.476
G2 X576.263 Y40 I-0.583 J-1.476
G1 Y0
G2 X574.675 Y-1.587 I-1.588
G1 X0
G2 X-1.587 Y0 J1.587
G1 Y40
G2 X-0.156 Y41.58 I1.587
G3 X0.129 Y41.927 I-0.031 J0.316
G1 X0.097 Y42.243
X0.09 Y42.313 Z-1.992
X0.084 Y42.38 Z-1.969
X0.078 Y42.44 Z-1.931
X0.073 Y42.49 Z-1.88
X0.069 Y42.528 Z-1.82
X0.067 Y42.551 Z-1.753
X0.066 Y42.559 Z-1.683
X-0.566 Y42.496
Z-1.933
X-0.565 Y42.489 Z-2.003
X-0.563 Y42.465 Z-2.07
X-0.559 Y42.428 Z-2.13
X-0.554 Y42.377 Z-2.181
X-0.548 Y42.318 Z-2.219
X-0.542 Y42.251 Z-2.242
X-0.535 Y42.18 Z-2.25
X-0.503 Y41.865
G3 X-0.156 Y41.58 I0.316 J0.031
G1 X252.68 Y66.58
G2 X252.836 Y66.588 I0.156 J-1.58
G1 X454.895
G2 X512.418 Y66.307 I28.657 J-21.587
G1 X575.258 Y41.476
G2 X576.263 Y40 I-0.583 J-1.476
G1 Y0
G2 X574.675 Y-1.587 I-1.588
G1 X0
G2 X-1.587 Y0 J1.587
G1 Y40
G2 X-0.156 Y41.58 I1.587
G3 X0.129 Y41.927 I-0.031 J0.316
G1 X0.097 Y42.243
X0.09 Y42.313 Z-2.242
X0.084 Y42.38 Z-2.219
X0.078 Y42.44 Z-2.181
X0.073 Y42.49 Z-2.13
X0.069 Y42.528 Z-2.07
X0.067 Y42.551 Z-2.003
X0.066 Y42.559 Z-1.933
X-0.566 Y42.496
Z-2.183
X-0.565 Y42.489 Z-2.253
X-0.563 Y42.465 Z-2.32
X-0.559 Y42.428 Z-2.38
X-0.554 Y42.377 Z-2.431
X-0.548 Y42.318 Z-2.469
X-0.542 Y42.251 Z-2.492
X-0.535 Y42.18 Z-2.5
X-0.503 Y41.865
G3 X-0.156 Y41.58 I0.316 J0.031
G1 X252.68 Y66.58
G2 X252.836 Y66.588 I0.156 J-1.58
G1 X454.895
G2 X512.418 Y66.307 I28.657 J-21.587
G1 X575.258 Y41.476
G2 X576.263 Y40 I-0.583 J-1.476
G1 Y0
G2 X574.675 Y-1.587 I-1.588
G1 X0
G2 X-1.587 Y0 J1.587
G1 Y40
G2 X-0.156 Y41.58 I1.587
G3 X0.129 Y41.927 I-0.031 J0.316
G1 X0.097 Y42.243
X0.09 Y42.313 Z-2.492
X0.084 Y42.38 Z-2.469
X0.078 Y42.44 Z-2.431
X0.073 Y42.49 Z-2.38
X0.069 Y42.528 Z-2.32
X0.067 Y42.551 Z-2.253
X0.066 Y42.559 Z-2.183
X-0.566 Y42.496
Z-2.433
X-0.565 Y42.489 Z-2.503
X-0.563 Y42.465 Z-2.57
X-0.559 Y42.428 Z-2.63
X-0.554 Y42.377 Z-2.681
X-0.548 Y42.318 Z-2.719
X-0.542 Y42.251 Z-2.742
X-0.535 Y42.18 Z-2.75
X-0.503 Y41.865
G3 X-0.156 Y41.58 I0.316 J0.031
G1 X252.68 Y66.58
G2 X252.836 Y66.588 I0.156 J-1.58
G1 X454.895
G2 X512.418 Y66.307 I28.657 J-21.587
G1 X575.258 Y41.476
G2 X576.263 Y40 I-0.583 J-1.476
G1 Y0
G2 X574.675 Y-1.587 I-1.588
G1 X0
G2 X-1.587 Y0 J1.587
G1 Y40
G2 X-0.156 Y41.58 I1.587
G3 X0.129 Y41.927 I-0.031 J0.316
G1 X0.097 Y42.243
X0.09 Y42.313 Z-2.742
X0.084 Y42.38 Z-2.719
X0.078 Y42.44 Z-2.681
X0.073 Y42.49 Z-2.63
X0.069 Y42.528 Z-2.57
X0.067 Y42.551 Z-2.503
X0.066 Y42.559 Z-2.433
X-0.566 Y42.496
Z-2.683
X-0.565 Y42.489 Z-2.753
X-0.563 Y42.465 Z-2.82
X-0.559 Y42.428 Z-2.88
X-0.554 Y42.377 Z-2.931
X-0.548 Y42.318 Z-2.969
X-0.542 Y42.251 Z-2.992
X-0.535 Y42.18 Z-3
X-0.503 Y41.865
G3 X-0.156 Y41.58 I0.316 J0.031
G1 X252.68 Y66.58
G2 X252.836 Y66.588 I0.156 J-1.58
G1 X454.895
G2 X512.418 Y66.307 I28.657 J-21.587
G1 X575.258 Y41.476
G2 X576.263 Y40 I-0.583 J-1.476
G1 Y0
G2 X574.675 Y-1.587 I-1.588
G1 X0
G2 X-1.587 Y0 J1.587
G1 Y40
G2 X-0.156 Y41.58 I1.587
G3 X0.129 Y41.927 I-0.031 J0.316
G1 X0.097 Y42.243
X0.09 Y42.313 Z-2.992
X0.084 Y42.38 Z-2.969
X0.078 Y42.44 Z-2.931
X0.073 Y42.49 Z-2.88
X0.069 Y42.528 Z-2.82
X0.067 Y42.551 Z-2.753
X0.066 Y42.559 Z-2.683
X-0.566 Y42.496
Z-2.933
X-0.565 Y42.489 Z-3.003
X-0.563 Y42.465 Z-3.07
X-0.559 Y42.428 Z-3.13
X-0.554 Y42.377 Z-3.181
X-0.548 Y42.318 Z-3.219
X-0.542 Y42.251 Z-3.242
X-0.535 Y42.18 Z-3.25
X-0.503 Y41.865
G3 X-0.156 Y41.58 I0.316 J0.031
G1 X252.68 Y66.58
G2 X252.836 Y66.588 I0.156 J-1.58
G1 X454.895
G2 X512.418 Y66.307 I28.657 J-21.587
G1 X575.258 Y41.476
G2 X576.263 Y40 I-0.583 J-1.476
G1 Y0
G2 X574.675 Y-1.587 I-1.588
G1 X0
G2 X-1.587 Y0 J1.587
G1 Y40
G2 X-0.156 Y41.58 I1.587
G3 X0.129 Y41.927 I-0.031 J0.316
G1 X0.097 Y42.243
X0.09 Y42.313 Z-3.242
X0.084 Y42.38 Z-3.219
X0.078 Y42.44 Z-3.181
X0.073 Y42.49 Z-3.13
X0.069 Y42.528 Z-3.07
X0.067 Y42.551 Z-3.003
X0.066 Y42.559 Z-2.933
X-0.566 Y42.496
Z-3.112
X-0.565 Y42.489 Z-3.182
X-0.563 Y42.465 Z-3.249
X-0.559 Y42.428 Z-3.309
X-0.554 Y42.377 Z-3.36
X-0.548 Y42.318 Z-3.398
X-0.542 Y42.251 Z-3.421
X-0.535 Y42.18 Z-3.429
X-0.503 Y41.865
G3 X-0.156 Y41.58 I0.316 J0.031
G1 X252.68 Y66.58
G2 X252.836 Y66.588 I0.156 J-1.58
G1 X454.895
G2 X512.418 Y66.307 I28.657 J-21.587
G1 X575.258 Y41.476
G2 X576.263 Y40 I-0.583 J-1.476
G1 Y0
G2 X574.675 Y-1.587 I-1.588
G1 X0
G2 X-1.587 Y0 J1.587
G1 Y40
G2 X-0.156 Y41.58 I1.587
G3 X0.129 Y41.927 I-0.031 J0.316
G1 X0.097 Y42.243
X0.09 Y42.313 Z-3.421
X0.084 Y42.38 Z-3.398
X0.078 Y42.44 Z-3.36
X0.073 Y42.49 Z-3.309
X0.069 Y42.528 Z-3.249
X0.067 Y42.551 Z-3.182
X0.066 Y42.559 Z-3.112
G0 Z15
M9
M30
%
