%
(1)
(Contour)
(T1  D=3.17 CR=0 TAPER=30deg - ZMIN=-2.055 - chamfer mill)
G90 G94
G17
G21

(Engrave1)
M9
T1 M6
S12000 M3
G54
M9
G0 X85.246 Y43.781
Z15
Z5
G1 Z-0.208 F300
X85.265 Y43.786 Z-0.241
X85.325 Y43.806 Z-0.346
X85.327 Y43.797 Z-0.337
X85.329 Y43.793 Z-0.331
X85.345 Y43.758 Z-0.286
X85.364 Y43.736 Z-0.244
X85.386 Y43.715 Z-0.195
X85.364 Y43.736 Z-0.244
X85.345 Y43.758 Z-0.286
X85.329 Y43.793 Z-0.331
X85.327 Y43.797 Z-0.337
X85.325 Y43.806 Z-0.346
X85.327 Y43.812 Z-0.348
X85.334 Y43.836 Z-0.358
X85.398 Y43.923 Z-0.361
X85.477 Y44.015 Z-0.363
X85.578 Y44.123 Z-0.365
X85.697 Y44.242 Z-0.367
X85.835 Y44.372 Z-0.369
X85.989 Y44.51 Z-0.37
X86.159 Y44.654 Z-0.371
X86.338 Y44.8 Z-0.372
X86.531 Y44.949
X86.737 Y45.1
X86.954 Y45.252 Z-0.371
X87.182 Y45.403 Z-0.37
X87.42 Y45.552 Z-0.369
X87.667 Y45.698 Z-0.368
X87.922 Y45.838 Z-0.367
X88.185 Y45.971 Z-0.366
X88.454 Y46.096 Z-0.365
X88.729 Y46.211 Z-0.364
X89.009 Y46.315 Z-0.363
X89.293 Y46.407
X89.58 Y46.483 Z-0.364
X89.87 Y46.544 Z-0.365
X90.161 Y46.587 Z-0.367
X90.454 Y46.611 Z-0.37
X90.47 Y46.612 Z-0.371
X90.486 Y46.57 Z-0.296
X90.47 Y46.612 Z-0.371
X90.476 Y46.615 Z-0.367
X90.489 Y46.61 Z-0.345
X90.476 Y46.615 Z-0.367
X90.479 Y46.618 Z-0.361
X90.499 Y46.638 Z-0.319
X90.502 Y46.641 Z-0.313
G0 Z5
X85.416 Y39.624
G1 Z-0.273 F300
X85.424 Y39.645 Z-0.311
X85.434 Y39.664 Z-0.344
X85.45 Y39.684 Z-0.377
X85.451 Z-0.378
X85.456 Y39.695 Z-0.384
X85.457 Y39.698 Z-0.385
X85.596 Y39.929
X85.749 Y40.167 Z-0.386
X85.908 Y40.397
X85.912 Y40.401
X86.004 Y40.527 Z-0.388
X86.082 Y40.632 Z-0.386
X86.161 Y40.733 Z-0.388
X86.261 Y40.859 Z-0.387
X86.325 Y40.936 Z-0.388
X86.495 Y41.135
X86.672 Y41.332
X86.854 Y41.524
X87.051 Y41.721
X87.266 Y41.924
X87.488 Y42.122
X87.716 Y42.315 Z-0.387
X87.852 Y42.425 Z-0.389
X87.95 Y42.502 Z-0.387
X88.067 Y42.591 Z-0.388
X88.189 Y42.683 Z-0.387
X88.286 Y42.753 Z-0.388
X88.51 Y42.91
X88.738 Y43.062 Z-0.387
X88.971 Y43.208
X89.207 Y43.348 Z-0.386
X89.46 Y43.49 Z-0.385
X89.728 Y43.631 Z-0.384
X89.999 Y43.764 Z-0.383
X90.274 Y43.889
X90.49 Y43.981 Z-0.384
X90.551 Y44.007 Z-0.383
X90.792 Y44.101
X90.849 Y44.122
X91.07 Y44.191 Z-0.399
X91.112 Y44.2 Z-0.409
X91.16 Y44.205 Z-0.426
X91.209 Y44.207 Z-0.45
X91.259 Y44.205 Z-0.482
X91.306 Y44.199 Z-0.516
X91.318 Y44.197 Z-0.525
X91.324 Y44.171 Z-0.496
X91.333 Y44.121 Z-0.444
X91.339 Y44.082 Z-0.409
X91.346 Y44.034 Z-0.376
X91.35 Y43.995 Z-0.355
Y43.955 Z-0.339
X91.348 Y43.917 Z-0.328
X91.342 Y43.879 Z-0.323
X91.289 Y43.668 Z-0.331
X91.201 Y43.289 Z-0.332
X91.159 Y43.1 Z-0.333
X91.039 Y42.547
X91.001 Y42.367
X90.895 Y41.839 Z-0.332
X90.861 Y41.668 Z-0.331
X90.768 Y41.166 Z-0.33
X90.712 Y40.841 Z-0.329
X90.646 Y40.446 Z-0.327
X90.566 Y39.915 Z-0.326
X90.525 Y39.623 Z-0.328
X90.491 Y39.351 Z-0.324
X90.455 Y39.013 Z-0.323
X90.44 Y38.87 Z-0.321
X90.405 Y38.451 Z-0.319
X90.389 Y38.188 Z-0.318
X90.381 Y38.031 Z-0.316
X90.371 Y37.697 Z-0.315
Y37.47 Z-0.314
X90.372 Y37.342 Z-0.312
X90.384 Y37.052 Z-0.311
X90.399 Y36.86 Z-0.31
X90.406 Y36.787 Z-0.308
X90.419 Y36.681 Z-0.309
X90.436 Y36.554 Z-0.306
X90.472 Y36.357 Z-0.305
X90.506 Y36.213 Z-0.304
X90.518 Y36.169 Z-0.302
X90.545 Y36.081 Z-0.303
X90.568 Y36.012 Z-0.3
X90.573 Y35.999
X90.623 Y35.876 Z-0.299
X90.682 Y35.759
X90.74 Y35.668
X90.797 Y35.593
X90.811 Y35.576 Z-0.298
X90.858 Y35.528 Z-0.299
X90.88 Y35.508 Z-0.298
X90.922 Y35.472 Z-0.301
X90.949 Y35.453 Z-0.3
X92.864 Y34.245 Z-0.314
X92.891 Y34.229 Z-0.316
X92.919 Y34.215 Z-0.322
X92.948 Y34.203 Z-0.331
X92.979 Y34.193 Z-0.344
X93.01 Y34.184 Z-0.361
X93.043 Y34.177 Z-0.381
X93.076 Y34.172 Z-0.405
X93.111 Y34.169 Z-0.432
X93.184 Y34.168 Z-0.498
X93.2 Y34.169 Z-0.512
X93.22 Y34.223 Z-0.467
X93.232 Y34.266 Z-0.437
X93.24 Y34.297 Z-0.418
X93.246 Y34.332 Z-0.4
X93.25 Y34.367 Z-0.387
X93.252 Y34.402 Z-0.377
X93.251 Y34.436 Z-0.371
X93.248 Y34.474 Z-0.369
X93.215 Y34.779 Z-0.373
X93.173 Y35.234 Z-0.375
X93.146 Y35.535 Z-0.376
X93.143 Y35.546 Z-0.372
Y35.563 Z-0.347
X93.14 Y35.608 Z-0.273
X93.13 Y35.706 Z-0.105
X93.14 Y35.608 Z-0.273
X93.143 Y35.563 Z-0.347
Y35.546 Z-0.372
X93.126 Y35.554 Z-0.342
X93.143 Y35.546 Z-0.372
X93.146 Y35.535 Z-0.376
X93.173 Y35.234 Z-0.375
X93.215 Y34.779 Z-0.373
X93.248 Y34.474 Z-0.369
X93.251 Y34.436 Z-0.371
X93.252 Y34.402 Z-0.377
X93.25 Y34.367 Z-0.387
X93.246 Y34.332 Z-0.4
X93.24 Y34.297 Z-0.418
X93.232 Y34.266 Z-0.437
X93.22 Y34.223 Z-0.467
X93.2 Y34.169 Z-0.512
X93.23 Y34.125 Z-0.47
X93.237 Y34.115 Z-0.461
X93.295 Y34.03 Z-0.38
X93.314 Y33.997 Z-0.355
X93.33 Y33.964 Z-0.335
X93.345 Y33.928 Z-0.318
X93.356 Y33.895 Z-0.309
X93.364 Y33.862 Z-0.303
X93.37 Y33.823
X93.372 Y33.792 Z-0.306
X93.374 Y33.773 Z-0.309
X93.41 Y33.566 Z-0.308
X93.453 Y33.358 Z-0.306
X93.476 Y33.259
X93.5 Y33.165
X93.55 Y32.987
X93.577 Y32.904
X93.61 Y32.809
X93.663 Y32.678 Z-0.308
X93.725 Y32.546 Z-0.31
X93.768 Y32.468 Z-0.311
X93.828 Y32.37 Z-0.314
X93.898 Y32.275 Z-0.317
X93.971 Y32.192 Z-0.321
X94.009 Y32.156 Z-0.323
X94.054 Y32.115 Z-0.324
X94.092 Y32.084 Z-0.325
X95.056 Y31.29 Z-0.334
X95.086 Y31.267 Z-0.337
X95.118 Y31.246 Z-0.345
X95.152 Y31.228 Z-0.358
X95.188 Y31.212 Z-0.377
X95.226 Y31.198 Z-0.4
X95.266 Y31.186 Z-0.429
X95.308 Y31.177 Z-0.462
X95.351 Y31.17 Z-0.501
X95.397 Y31.165 Z-0.546
X95.444 Y31.163 Z-0.595
X95.453 Y31.194 Z-0.562
X95.468 Y31.255 Z-0.506
X95.478 Y31.314 Z-0.459
X95.483 Y31.372 Z-0.422
X95.482 Y31.428 Z-0.394
X95.476 Y31.484 Z-0.376
X95.471 Y31.514 Z-0.371
X95.469 Y31.525 Z-0.37
X95.405 Y31.822 Z-0.354
X95.394 Y31.868 Z-0.357
X95.382 Y31.932 Z-0.356
X95.362 Y32.03
X95.357 Y32.053 Z-0.357
X95.359 Y32.068 Z-0.348
X95.351 Y32.095 Z-0.306
X95.338 Y32.147 Z-0.219
X95.329 Y32.204 Z-0.122
X95.326 Y32.225 Z-0.085
X95.329 Y32.204 Z-0.122
X95.338 Y32.147 Z-0.219
X95.351 Y32.095 Z-0.306
X95.359 Y32.068 Z-0.348
X95.371 Y32.078 Z-0.321
X95.359 Y32.068 Z-0.348
X95.357 Y32.053 Z-0.357
X95.362 Y32.03 Z-0.356
X95.382 Y31.932
X95.394 Y31.868 Z-0.357
X95.405 Y31.822 Z-0.354
X95.469 Y31.525 Z-0.37
X95.471 Y31.514 Z-0.371
X95.476 Y31.484 Z-0.376
X95.482 Y31.428 Z-0.394
X95.483 Y31.372 Z-0.422
X95.478 Y31.314 Z-0.459
X95.468 Y31.255 Z-0.506
X95.453 Y31.194 Z-0.562
X95.444 Y31.163 Z-0.595
X95.606 Y30.934 Z-0.469
X95.77 Y30.714 Z-0.358
X95.831 Y30.636 Z-0.323
X95.851 Y30.603 Z-0.315
X95.864 Y30.579 Z-0.313
X95.907 Y30.494 Z-0.312
X95.965 Y30.385 Z-0.314
X96.026 Y30.274 Z-0.313
X96.067 Y30.204 Z-0.315
X96.174 Y30.03 Z-0.316
X96.284 Y29.865 Z-0.318
X96.416 Y29.683 Z-0.32
X96.553 Y29.509 Z-0.322
X96.687 Y29.351 Z-0.325
X96.692 Y29.345
X96.748 Y29.283 Z-0.328
X96.866 Y29.156 Z-0.33
X96.985 Y29.037 Z-0.333
X97.108 Y28.919 Z-0.335
X97.243 Y28.798 Z-0.338
X97.375 Y28.687 Z-0.341
X97.502 Y28.587 Z-0.344
X97.658 Y28.47 Z-0.348
X97.758 Y28.4 Z-0.35
X97.94 Y28.28 Z-0.354
X98.028 Y28.227 Z-0.356
X98.069 Y28.203 Z-0.357
X98.078 Y28.197 Z-0.355
X98.108 Y28.176 Z-0.35
X98.141 Y28.156
X98.179 Y28.138 Z-0.355
X98.219 Y28.124 Z-0.366
X98.258 Y28.113 Z-0.381
X98.302 Y28.105 Z-0.403
X98.336 Y28.099 Z-0.425
X98.597 Y28.039 Z-0.657
X98.761 Y28.002 Z-0.8
X98.947 Y27.963 Z-0.957
X99.151 Y27.927 Z-1.119
X99.366 Y27.895 Z-1.28
X99.477 Y27.881 Z-1.359
X99.59 Y27.869 Z-1.435
X99.704 Y27.859 Z-1.509
X99.818 Y27.851 Z-1.58
X99.934 Y27.845 Z-1.648
X100.05 Y27.842 Z-1.712
X100.167 Y27.841 Z-1.772
X100.283 Y27.842 Z-1.828
X100.403 Y27.847 Z-1.88
X100.523 Y27.854 Z-1.928
X100.645 Y27.864 Z-1.972
X100.77 Y27.878 Z-2.012
X100.845 Y27.888 Z-2.033
X100.844 Y28.231 Z-1.469
Y28.388 Z-1.217
Y28.546 Z-0.976
Y28.651 Z-0.825
Y28.756 Z-0.688
Y28.808 Z-0.627
Y28.861 Z-0.573
Y28.913 Z-0.527
Y28.966 Z-0.493
Y29.018 Z-0.471
Y29.07 Z-0.463
Y30.288
Y30.335 Z-0.469
Y30.383 Z-0.487
Y30.43 Z-0.516
Y30.478 Z-0.554
Y30.525 Z-0.6
Y30.573 Z-0.652
Y30.668 Z-0.771
Y30.763 Z-0.903
Y30.858 Z-1.044
Y31 Z-1.265
Y31.19 Z-1.571
X100.845 Y31.485 Z-2.055
X100.933 Y31.498 Z-2.033
X101.078 Y31.514 Z-2.002
X101.225 Y31.523 Z-1.971
X101.353 Y31.526 Z-1.945
X101.456 Y31.524 Z-1.926
X101.573 Y31.517 Z-1.905
X101.68 Y31.505 Z-1.888
X101.794 Y31.487 Z-1.871
X101.906 Y31.464 Z-1.854
X101.988 Y31.444 Z-1.841
X102.114 Y31.405 Z-1.821
X102.209 Y31.368 Z-1.802
X102.292 Y31.332 Z-1.784
X102.307 Y31.325 Z-1.781
X102.397 Y31.276 Z-1.756
X102.486 Y31.217 Z-1.723
X102.491 Y31.214 Z-1.721
X102.493 Y31.213 Z-1.72
X102.504 Y31.171 Z-1.664
X102.53 Y31.056 Z-1.505
X102.549 Y30.931 Z-1.333
X102.564 Y30.788 Z-1.136
X102.568 Y30.726 Z-1.051
X102.57 Y30.628 Z-0.919
X102.569 Y30.534 Z-0.792
X102.56 Y30.412 Z-0.63
X102.55 Y30.329 Z-0.523
X102.537 Y30.259 Z-0.434
X102.525 Y30.209 Z-0.372
X102.493 Y30.161 Z-0.288
X102.489 Y30.156 Z-0.276
X102.477 Y30.143 Z-0.25
X102.468 Y30.136 Z-0.231
X102.441 Y30.116 Z-0.175
X102.468 Y30.136 Z-0.231
X102.477 Y30.143 Z-0.25
X102.489 Y30.156 Z-0.276
X102.493 Y30.161 Z-0.288
X102.525 Y30.209 Z-0.372
X102.537 Y30.259 Z-0.434
X102.55 Y30.329 Z-0.523
X102.56 Y30.412 Z-0.63
X102.569 Y30.534 Z-0.792
X102.57 Y30.628 Z-0.919
X102.568 Y30.726 Z-1.051
X102.564 Y30.788 Z-1.136
X102.549 Y30.931 Z-1.333
X102.53 Y31.056 Z-1.505
X102.504 Y31.171 Z-1.664
X102.493 Y31.213 Z-1.72
X102.564 Y31.217 Z-1.615
X102.591 Z-1.573
X102.63 Y31.216 Z-1.508
X102.591 Y31.217 Z-1.573
X102.564 Z-1.615
X102.493 Y31.213 Z-1.72
X102.491 Y31.214 Z-1.721
X102.486 Y31.217 Z-1.723
X102.397 Y31.276 Z-1.756
X102.307 Y31.325 Z-1.781
X102.292 Y31.332 Z-1.784
X102.209 Y31.368 Z-1.802
X102.114 Y31.405 Z-1.821
X101.988 Y31.444 Z-1.841
X101.906 Y31.464 Z-1.854
X101.794 Y31.487 Z-1.871
X101.68 Y31.505 Z-1.888
X101.573 Y31.517 Z-1.905
X101.456 Y31.524 Z-1.926
X101.353 Y31.526 Z-1.945
X101.225 Y31.523 Z-1.971
X101.078 Y31.514 Z-2.002
X100.933 Y31.498 Z-2.033
X100.845 Y31.485 Z-2.055
X100.758 Y31.498 Z-2.033
X100.623 Y31.514 Z-2.006
X100.49 Y31.525 Z-1.982
X100.358 Y31.532 Z-1.959
X100.237 Z-1.939
X100.118 Y31.527 Z-1.922
X100.014 Y31.517 Z-1.909
X99.903 Y31.503 Z-1.896
X99.807 Y31.486 Z-1.885
X99.704 Y31.463 Z-1.874
X99.606 Y31.437 Z-1.863
X99.48 Y31.395 Z-1.846
X99.413 Y31.369 Z-1.836
X99.318 Y31.326 Z-1.818
X99.251 Y31.292 Z-1.803
X99.206 Y31.265 Z-1.791
X99.181 Y31.25 Z-1.783
X99.122 Y31.21 Z-1.762
X99.103 Y31.131 Z-1.653
X99.084 Y31.026 Z-1.507
X99.066 Y30.902 Z-1.335
X99.051 Y30.741 Z-1.11
X99.045 Y30.59 Z-0.9
X99.046 Y30.455 Z-0.714
X99.049 Y30.376 Z-0.605
X99.059 Y30.21 Z-0.375
X99.049 Y30.376 Z-0.605
X99.046 Y30.455 Z-0.714
X99.045 Y30.59 Z-0.9
X99.051 Y30.741 Z-1.11
X99.066 Y30.902 Z-1.335
X99.084 Y31.026 Z-1.507
X99.103 Y31.131 Z-1.653
X99.122 Y31.21 Z-1.762
X99.057 Y31.215 Z-1.67
X98.992 Y31.218 Z-1.571
X98.951 Y31.215 Z-1.504
X98.816 Y31.199 Z-1.27
X98.692 Y31.183 Z-1.054
X98.487 Y31.152 Z-0.695
X98.692 Y31.183 Z-1.054
X98.816 Y31.199 Z-1.27
X98.951 Y31.215 Z-1.504
X98.992 Y31.218 Z-1.571
X99.057 Y31.215 Z-1.67
X99.122 Y31.21 Z-1.762
X99.181 Y31.25 Z-1.783
X99.206 Y31.265 Z-1.791
X99.251 Y31.292 Z-1.803
X99.318 Y31.326 Z-1.818
X99.413 Y31.369 Z-1.836
X99.48 Y31.395 Z-1.846
X99.606 Y31.437 Z-1.863
X99.704 Y31.463 Z-1.874
X99.807 Y31.486 Z-1.885
X99.903 Y31.503 Z-1.896
X100.014 Y31.517 Z-1.909
X100.118 Y31.527 Z-1.922
X100.237 Y31.532 Z-1.939
X100.358 Z-1.959
X100.49 Y31.525 Z-1.982
X100.623 Y31.514 Z-2.006
X100.758 Y31.498 Z-2.033
X100.845 Y31.485 Z-2.055
X100.844 Y31.19 Z-1.571
Y31 Z-1.265
Y30.858 Z-1.044
Y30.763 Z-0.903
Y30.668 Z-0.771
Y30.573 Z-0.652
Y30.525 Z-0.6
Y30.478 Z-0.554
Y30.43 Z-0.516
Y30.383 Z-0.487
Y30.335 Z-0.469
Y30.288 Z-0.463
Y29.07
Y29.018 Z-0.471
Y28.966 Z-0.493
Y28.913 Z-0.527
Y28.861 Z-0.573
Y28.808 Z-0.627
Y28.756 Z-0.688
Y28.651 Z-0.825
Y28.546 Z-0.976
Y28.388 Z-1.217
Y28.231 Z-1.469
X100.845 Y27.888 Z-2.033
X100.898 Y27.88 Z-2.02
X101.022 Y27.863 Z-1.986
X101.145 Y27.849 Z-1.947
X101.265 Y27.839 Z-1.903
X101.384 Y27.832 Z-1.855
X101.501 Y27.828 Z-1.803
X101.617 Y27.827 Z-1.747
X101.734 Y27.828 Z-1.687
X101.85 Y27.832 Z-1.623
X101.964 Y27.838 Z-1.555
X102.079 Y27.846 Z-1.484
X102.194 Y27.857 Z-1.408
X102.305 Y27.869 Z-1.332
X102.415 Y27.884 Z-1.253
X102.632 Y27.918 Z-1.088
X102.835 Y27.957 Z-0.921
X103.017 Y27.997 Z-0.763
X103.176 Y28.038 Z-0.617
X103.306 Y28.075 Z-0.49
X103.392 Y28.103 Z-0.405
X103.428 Y28.115 Z-0.378
X103.457 Y28.124 Z-0.362
X103.489 Y28.135 Z-0.351
X103.523 Y28.148 Z-0.345
X103.557 Y28.166 Z-0.342
X103.587 Y28.183 Z-0.344
X103.618 Y28.205 Z-0.351
X103.621 Y28.208 Z-0.352
X103.76 Y28.292 Z-0.353
X103.932 Y28.406
X104.066 Y28.501 Z-0.352
X104.238 Y28.632 Z-0.353
X104.35 Y28.722 Z-0.352
X104.465 Y28.821 Z-0.351
X104.583 Y28.927
X104.721 Y29.058 Z-0.349
X104.862 Y29.2 Z-0.348
X105.003 Y29.354 Z-0.346
X105.069 Y29.43 Z-0.347
X105.144 Y29.518 Z-0.345
X105.191 Y29.576 Z-0.346
X105.311 Y29.731 Z-0.345
X105.429 Y29.894 Z-0.343
X105.551 Y30.077 Z-0.342
X105.678 Y30.286 Z-0.34
X105.799 Y30.508 Z-0.339
X105.878 Y30.665 Z-0.343
X105.9 Y30.699 Z-0.351
X105.925 Y30.733 Z-0.365
X106.093 Y30.955 Z-0.48
X106.251 Y31.174 Z-0.602
X106.237 Y31.228 Z-0.551
X106.226 Y31.288 Z-0.501
X106.22 Y31.346 Z-0.461
X106.219 Y31.402 Z-0.43
X106.222 Y31.457 Z-0.408
X106.227 Y31.49 Z-0.399
X106.287 Y31.767 Z-0.378
X106.297 Y31.817 Z-0.377
X106.308 Y31.865 Z-0.379
X106.312 Y31.884 Z-0.38
X106.313 Y31.889
X106.319 Y31.919 Z-0.379
X106.324 Y31.948 Z-0.378
X106.332 Y31.991 Z-0.377
X106.342 Y32.033 Z-0.378
X106.345 Y32.049 Z-0.379
X106.335 Y32.067 Z-0.355
X106.334 Y32.069 Z-0.353
Y32.07 Z-0.352
X106.331 Y32.073 Z-0.345
X106.334 Y32.07 Z-0.352
Y32.069 Z-0.353
X106.335 Y32.067 Z-0.355
X106.345 Y32.049 Z-0.379
X106.354 Y32.053 Z-0.365
X106.365 Y32.056 Z-0.349
X106.366 Y32.057 Z-0.346
X106.365 Y32.056 Z-0.349
X106.354 Y32.053 Z-0.365
X106.345 Y32.049 Z-0.379
X106.342 Y32.033 Z-0.378
X106.332 Y31.991 Z-0.377
X106.324 Y31.948 Z-0.378
X106.319 Y31.919 Z-0.379
X106.313 Y31.889 Z-0.38
X106.312 Y31.884
X106.308 Y31.865 Z-0.379
X106.297 Y31.817 Z-0.377
X106.287 Y31.767 Z-0.378
X106.227 Y31.49 Z-0.399
X106.222 Y31.457 Z-0.408
X106.219 Y31.402 Z-0.43
X106.22 Y31.346 Z-0.461
X106.226 Y31.288 Z-0.501
X106.237 Y31.228 Z-0.551
X106.251 Y31.174 Z-0.602
X106.3 Y31.175 Z-0.549
X106.348 Y31.178 Z-0.502
X106.394 Y31.184 Z-0.46
X106.437 Y31.192 Z-0.423
X106.479 Y31.203 Z-0.393
X106.518 Y31.216 Z-0.367
X106.556 Y31.232 Z-0.348
X106.591 Y31.251 Z-0.334
X106.625 Y31.271 Z-0.325
X106.656 Y31.295 Z-0.323
X107.67 Y32.121 Z-0.324
X107.753 Y32.2 Z-0.32
X107.821 Y32.278 Z-0.317
X107.856 Y32.326 Z-0.316
X107.896 Y32.382 Z-0.314
X107.959 Y32.486 Z-0.311
X108.023 Y32.61 Z-0.309
X108.083 Y32.75 Z-0.307
X108.112 Y32.825 Z-0.305
X108.167 Y32.987
X108.193 Y33.074
X108.241 Y33.258 Z-0.306
X108.263 Y33.357 Z-0.305
X108.306 Y33.567 Z-0.307
X108.343 Y33.773 Z-0.309
X108.349 Y33.836 Z-0.302
X108.355 Y33.871 Z-0.304
X108.363 Y33.903 Z-0.31
X108.374 Y33.934 Z-0.32
X108.389 Y33.97 Z-0.337
X108.407 Y34.005 Z-0.36
X108.428 Y34.039 Z-0.387
X108.443 Y34.062 Z-0.409
X108.48 Y34.114 Z-0.46
X108.554 Y33.988 Z-0.207
X108.611 Y33.891 Z-0.017
X108.621 Y33.872 Z0.019
X108.611 Y33.891 Z-0.017
X108.554 Y33.988 Z-0.207
X108.48 Y34.114 Z-0.46
X108.507 Y34.156 Z-0.498
X108.517 Y34.17 Z-0.512
X108.499 Y34.218 Z-0.47
X108.484 Y34.267 Z-0.435
X108.473 Y34.32 Z-0.406
X108.469 Y34.355 Z-0.391
X108.466 Y34.389 Z-0.379
Y34.423 Z-0.372
X108.469 Y34.469 Z-0.368
X108.486 Y34.618 Z-0.371
X108.499 Y34.751 Z-0.372
X108.523 Y35
X108.57 Y35.527 Z-0.37
X108.575 Y35.545 Z-0.366
X108.606 Y35.561 Z-0.314
X108.608 Z-0.311
X108.625 Y35.566 Z-0.284
X108.608 Y35.561 Z-0.311
X108.606 Z-0.314
X108.575 Y35.545 Z-0.366
X108.571 Y35.554 Z-0.355
X108.562 Y35.59 Z-0.301
X108.559 Y35.617 Z-0.258
X108.562 Y35.697 Z-0.121
X108.559 Y35.617 Z-0.258
X108.562 Y35.59 Z-0.301
X108.571 Y35.554 Z-0.355
X108.575 Y35.545 Z-0.366
X108.57 Y35.527 Z-0.37
X108.523 Y35 Z-0.372
X108.499 Y34.751
X108.486 Y34.618 Z-0.371
X108.469 Y34.469 Z-0.368
X108.466 Y34.423 Z-0.372
Y34.389 Z-0.379
X108.469 Y34.355 Z-0.391
X108.473 Y34.32 Z-0.406
X108.484 Y34.267 Z-0.435
X108.499 Y34.218 Z-0.47
X108.517 Y34.17 Z-0.512
X108.535 Y34.168 Z-0.496
X108.572 Y34.167 Z-0.462
X108.607 Y34.169 Z-0.431
X108.642 Y34.172 Z-0.404
X108.675 Y34.178 Z-0.38
X108.708 Y34.184 Z-0.36
X108.739 Y34.193 Z-0.344
X108.769 Y34.203 Z-0.331
X108.798 Y34.216 Z-0.322
X108.826 Y34.23 Z-0.316
X110.723 Y35.423 Z-0.302
X110.753 Y35.443 Z-0.301
X110.799 Y35.475 Z-0.302
X110.817 Y35.489 Z-0.301
X110.864 Y35.531 Z-0.303
X110.887 Y35.554 Z-0.301
X110.927 Y35.597 Z-0.304
X110.96 Y35.639
X110.967 Y35.649
X111.026 Y35.737 Z-0.305
X111.089 Y35.855 Z-0.308
X111.136 Y35.963 Z-0.311
X111.148 Y35.994 Z-0.31
X111.178 Y36.083 Z-0.313
X111.199 Y36.152 Z-0.312
X111.216 Y36.214 Z-0.314
X111.245 Y36.334
X111.279 Y36.513 Z-0.316
X111.303 Y36.681 Z-0.318
X111.314 Y36.775 Z-0.316
X111.322 Y36.859 Z-0.319
X111.335 Y37.039 Z-0.317
X111.345 Y37.254 Z-0.319
X111.347 Y37.333 Z-0.318
X111.349 Y37.469 Z-0.319
Y37.661 Z-0.318
X111.341 Y37.936 Z-0.32
X111.329 Y38.187 Z-0.321
X111.314 Y38.424 Z-0.32
X111.29 Y38.725 Z-0.323
X111.277 Y38.865 Z-0.322
X111.23 Y39.312 Z-0.325
X111.191 Y39.623 Z-0.327
X111.172 Y39.767
X111.081 Y40.371 Z-0.326
X111.056 Y40.527 Z-0.325
X110.973 Y41.009 Z-0.323
X110.944 Y41.173 Z-0.324
X110.849 Y41.679 Z-0.323
X110.78 Y42.025 Z-0.325
X110.708 Y42.379
X110.552 Y43.11 Z-0.328
X110.427 Y43.669 Z-0.331
X110.381 Y43.849 Z-0.323
X110.38 Y43.853
X110.371 Y43.898 Z-0.325
X110.367 Y43.936 Z-0.333
X110.366 Y43.975 Z-0.346
X110.368 Y44.014 Z-0.365
X110.372 Y44.055 Z-0.389
X110.378 Y44.092 Z-0.417
X110.387 Y44.144 Z-0.467
X110.398 Y44.199 Z-0.527
X110.42 Y44.203 Z-0.511
X110.469 Y44.208 Z-0.477
X110.519 Y44.209 Z-0.447
X110.568 Y44.206 Z-0.425
X110.615 Y44.2 Z-0.409
X110.647 Y44.193 Z-0.402
X110.868 Y44.123 Z-0.386
X110.932 Y44.099
X111.166 Y44.008 Z-0.384
X111.379 Y43.917 Z-0.385
X111.717 Y43.764 Z-0.383
X111.989 Y43.631 Z-0.384
X112.256 Y43.49 Z-0.385
X112.51 Y43.348 Z-0.386
X112.746 Y43.208 Z-0.387
X112.978 Y43.062
X113.206 Y42.91 Z-0.388
X113.283 Y42.857 Z-0.386
X113.43 Y42.753 Z-0.388
X113.527 Y42.682 Z-0.387
X113.65 Y42.591 Z-0.388
X113.767 Y42.502 Z-0.387
X113.865 Y42.424 Z-0.389
X114.001 Y42.315 Z-0.388
X114.228 Y42.122
X114.45 Y41.924
X114.665 Y41.721
X114.863 Y41.524
X115.045 Y41.332
X115.222 Y41.135
X115.392 Y40.936 Z-0.389
X115.456 Y40.858 Z-0.387
X115.555 Y40.733 Z-0.388
X115.634 Y40.632 Z-0.386
X115.713 Y40.528 Z-0.388
X115.805 Y40.401 Z-0.385
X115.967 Y40.167
X116.121 Y39.929
X116.26 Y39.697
X116.263 Y39.693 Z-0.384
X116.267 Y39.687 Z-0.383
X116.271 Y39.685 Z-0.38
X116.283 Y39.676 Z-0.365
X116.287 Y39.674 Z-0.36
X116.288 Z-0.358
X116.287 Z-0.36
X116.289 Y39.67 Z-0.354
X116.305 Y39.656 Z-0.321
X116.33 Y39.632 Z-0.266
X116.352 Y39.607 Z-0.212
X116.33 Y39.632 Z-0.266
X116.305 Y39.656 Z-0.321
X116.289 Y39.67 Z-0.354
X116.287 Y39.674 Z-0.36
X116.283 Y39.676 Z-0.365
X116.271 Y39.685 Z-0.38
X116.267 Y39.687 Z-0.383
X116.263 Y39.693 Z-0.384
X116.26 Y39.697 Z-0.385
X116.121 Y39.929
X115.967 Y40.167
X115.805 Y40.401
X115.713 Y40.528 Z-0.388
X115.634 Y40.632 Z-0.386
X115.555 Y40.733 Z-0.388
X115.456 Y40.858 Z-0.387
X115.392 Y40.936 Z-0.389
X115.222 Y41.135 Z-0.388
X115.045 Y41.332
X114.863 Y41.524
X114.665 Y41.721
X114.45 Y41.924
X114.228 Y42.122
X114.001 Y42.315
X113.865 Y42.424 Z-0.389
X113.767 Y42.502 Z-0.387
X113.65 Y42.591 Z-0.388
X113.527 Y42.682 Z-0.387
X113.43 Y42.753 Z-0.388
X113.283 Y42.857 Z-0.386
X113.206 Y42.91 Z-0.388
X112.978 Y43.062 Z-0.387
X112.746 Y43.208
X112.51 Y43.348 Z-0.386
X112.256 Y43.49 Z-0.385
X111.989 Y43.631 Z-0.384
X111.717 Y43.764 Z-0.383
X111.379 Y43.917 Z-0.385
X111.166 Y44.008 Z-0.384
X110.932 Y44.099 Z-0.386
X110.868 Y44.123
X110.647 Y44.193 Z-0.402
X110.615 Y44.2 Z-0.409
X110.568 Y44.206 Z-0.425
X110.519 Y44.209 Z-0.447
X110.469 Y44.208 Z-0.477
X110.42 Y44.203 Z-0.511
X110.398 Y44.199 Z-0.527
X110.374 Y44.22 Z-0.507
X110.337 Y44.247 Z-0.48
X110.301 Y44.27 Z-0.46
X110.268 Y44.288 Z-0.446
X110.235 Y44.304 Z-0.437
X110.152 Y44.337 Z-0.422
X110.115 Y44.35 Z-0.418
X109.886 Y44.41 Z-0.42
X109.66 Y44.463
X109.443 Y44.508 Z-0.421
X109.217 Y44.549 Z-0.42
X109.126 Y44.564
X108.864 Y44.6
X108.71 Y44.617 Z-0.419
X108.565 Y44.631
X108.339 Y44.645 Z-0.418
X108.164 Y44.652 Z-0.417
X107.991 Y44.654
X107.764 Y44.651
X107.539 Y44.64
X107.315 Y44.622 Z-0.416
X107.093 Y44.597 Z-0.415
X106.873 Y44.565
X106.654 Y44.525 Z-0.414
X106.439 Y44.477 Z-0.413
X106.227 Y44.422
X106.017 Y44.36
X105.811 Y44.289
X105.608 Y44.212 Z-0.414
X105.411 Y44.126 Z-0.416
X105.186 Y44.019 Z-0.415
X104.975 Y43.904 Z-0.414
X104.921 Y43.872 Z-0.411
X104.774 Y43.782 Z-0.412
X104.692 Y43.728 Z-0.409
X104.583 Y43.652 Z-0.411
X104.477 Y43.574 Z-0.407
X104.402 Y43.516 Z-0.409
X104.274 Y43.412 Z-0.405
X104.084 Y43.243 Z-0.404
X103.913 Y43.074 Z-0.403
X103.769 Y42.917 Z-0.401
X103.631 Y42.756 Z-0.4
X103.588 Y42.703 Z-0.398
X103.501 Y42.591 Z-0.399
X103.445 Y42.516 Z-0.397
X103.379 Y42.425
X103.312 Y42.327 Z-0.395
X103.189 Y42.137 Z-0.393
X103.075 Y41.947 Z-0.392
X102.971 Y41.757 Z-0.391
X102.875 Y41.571 Z-0.39
X102.789 Y41.395 Z-0.389
X102.713 Y41.224
X102.641 Y41.056 Z-0.387
X102.574 Y40.889
X102.511 Y40.726
X102.401 Y40.417 Z-0.386
X102.319 Y40.159 Z-0.377
X102.304 Y40.12 Z-0.379
X102.288 Y40.084 Z-0.385
X102.268 Y40.047 Z-0.397
X102.243 Y40.009 Z-0.416
X102.216 Y39.974 Z-0.44
X102.185 Y39.939 Z-0.47
X102.148 Y39.903 Z-0.509
X102.104 Y39.866 Z-0.558
X102.058 Y39.833 Z-0.612
Y39.745 Z-0.553
Y39.681 Z-0.504
X102.059 Y39.637 Z-0.464
Y39.621 Z-0.445
X102.057 Y39.614 Z-0.435
X102.053 Y39.594 Z-0.403
X102.057 Y39.614 Z-0.435
X102.059 Y39.621 Z-0.445
Y39.637 Z-0.464
X102.058 Y39.681 Z-0.504
Y39.745 Z-0.553
Y39.833 Z-0.612
X102.023 Y39.858 Z-0.571
X101.989 Y39.885 Z-0.535
X101.958 Y39.912 Z-0.503
X101.929 Y39.94 Z-0.475
X101.902 Y39.969 Z-0.452
X101.878 Y39.999 Z-0.433
X101.856 Y40.03 Z-0.418
X101.836 Y40.062 Z-0.407
X101.818 Y40.095 Z-0.401
X101.802 Y40.132 Z-0.399
X101.1 Y41.863 Z-0.421
X101.082 Y41.896 Z-0.428
X101.063 Y41.928 Z-0.438
X101.041 Y41.96 Z-0.453
X101.017 Y41.99 Z-0.472
X100.991 Y42.02 Z-0.495
X100.963 Y42.048 Z-0.522
X100.933 Y42.076 Z-0.553
X100.9 Y42.103 Z-0.588
X100.865 Y42.129 Z-0.628
X100.866 Y42.442 Z-0.426
X100.798 Y42.505 Z-0.276
X100.728 Y42.575 Z-0.113
X100.798 Y42.505 Z-0.276
X100.866 Y42.442 Z-0.426
X100.871 Y42.458 Z-0.405
Y42.527 Z-0.299
Y42.458 Z-0.405
X101.083 Y42.67 Z0.087
X100.871 Y42.458 Z-0.405
X100.866 Y42.442 Z-0.426
X100.865 Y42.129 Z-0.628
X100.826 Y42.103 Z-0.582
X100.79 Y42.076 Z-0.541
X100.756 Y42.048 Z-0.505
X100.725 Y42.018 Z-0.474
X100.696 Y41.988 Z-0.448
X100.67 Y41.956 Z-0.426
X100.646 Y41.924 Z-0.41
X100.625 Y41.89 Z-0.398
X100.607 Y41.856 Z-0.39
X100.591 Y41.82 Z-0.388
X99.912 Y40.132 Z-0.394
X99.896 Y40.097 Z-0.397
X99.879 Y40.064 Z-0.403
X99.859 Y40.032 Z-0.414
X99.837 Y40 Z-0.43
X99.812 Y39.97 Z-0.45
X99.785 Y39.94 Z-0.474
X99.756 Y39.911 Z-0.502
X99.725 Y39.884 Z-0.535
X99.691 Y39.857 Z-0.573
X99.654 Y39.831 Z-0.614
Y39.719 Z-0.541
X99.653 Y39.673 Z-0.506
X99.65 Y39.63 Z-0.465
Y39.627 Z-0.462
X99.665 Y39.587 Z-0.391
X99.65 Y39.627 Z-0.462
X99.619 Y39.572 Z-0.361
X99.614 Y39.562 Z-0.341
X99.619 Y39.572 Z-0.361
X99.65 Y39.627 Z-0.462
Y39.63 Z-0.465
X99.653 Y39.673 Z-0.506
X99.654 Y39.719 Z-0.541
Y39.831 Z-0.614
X99.635 Y39.845 Z-0.591
X99.59 Y39.881 Z-0.539
X99.55 Y39.918 Z-0.494
X99.515 Y39.954 Z-0.457
X99.486 Y39.99 Z-0.429
X99.463 Y40.023 Z-0.409
X99.441 Y40.058 Z-0.394
X99.422 Y40.096 Z-0.383
X99.408 Y40.129 Z-0.378
X99.322 Y40.397 Z-0.385
X99.262 Y40.572 Z-0.387
X99.156 Y40.859 Z-0.389
X99.089 Y41.028 Z-0.39
X99.016 Y41.202 Z-0.391
X98.935 Y41.382 Z-0.393
X98.848 Y41.565 Z-0.394
X98.753 Y41.75 Z-0.396
X98.658 Y41.922 Z-0.397
X98.557 Y42.093 Z-0.399
X98.45 Y42.264 Z-0.401
X98.413 Y42.319 Z-0.4
X98.335 Y42.432 Z-0.402
X98.281 Y42.508 Z-0.401
X98.213 Y42.598 Z-0.404
X98.138 Y42.695 Z-0.403
X98.084 Y42.762 Z-0.405
X97.985 Y42.879 Z-0.404
X97.82 Y43.059 Z-0.406
X97.649 Y43.23 Z-0.407
X97.486 Y43.376 Z-0.409
X97.314 Y43.517 Z-0.41
X97.253 Y43.565 Z-0.409
X97.133 Y43.653 Z-0.412
X97.038 Y43.719 Z-0.41
X96.943 Y43.782 Z-0.413
X96.81 Y43.864 Z-0.411
X96.742 Y43.904 Z-0.414
X96.569 Y43.999 Z-0.413
X96.313 Y44.123 Z-0.416
X96.114 Y44.209 Z-0.415
X95.911 Y44.288 Z-0.414
X95.708 Y44.358
X95.501 Y44.42
X95.291 Y44.475 Z-0.415
X95.078 Y44.523 Z-0.416
X94.862 Y44.563
X94.642 Y44.596 Z-0.417
X94.418 Y44.621
X94.192 Y44.64
X93.962 Y44.651
X93.73 Y44.654
X93.585 Y44.653 Z-0.418
X93.382 Y44.646
X93.207 Y44.635
X93.031 Y44.62 Z-0.419
X92.864 Y44.601
X92.719 Y44.582 Z-0.42
X92.501 Y44.549 Z-0.419
X92.282 Y44.509
X92.059 Y44.463 Z-0.418
X91.841 Y44.411 Z-0.417
X91.616 Y44.353 Z-0.415
X91.596 Y44.347 Z-0.416
X91.504 Y44.312 Z-0.429
X91.474 Y44.299 Z-0.436
X91.434 Y44.279 Z-0.449
X91.396 Y44.256 Z-0.468
X91.356 Y44.228 Z-0.494
X91.318 Y44.197 Z-0.525
G0 Z5
X85.915 Y35.671
G1 Z-0.182 F300
X85.923 Y35.678 Z-0.2
X85.959 Y35.711 Z-0.279
X85.971 Y35.729 Z-0.31
X85.999 Y35.772 Z-0.384
X86.005 Y35.776 Z-0.392
X86.024 Y35.757 Z-0.352
X86.044 Y35.743 Z-0.312
X86.024 Y35.757 Z-0.352
X86.005 Y35.776 Z-0.392
X86.064 Y35.967 Z-0.393
X86.087 Y36.034 Z-0.392
X86.135 Y36.172 Z-0.394
X86.209 Y36.363 Z-0.395
X86.245 Y36.45 Z-0.394
X86.307 Y36.59 Z-0.395
X86.382 Y36.751 Z-0.396
X86.479 Y36.941
X86.517 Y37.01 Z-0.395
X86.595 Y37.149
X86.691 Y37.306
X86.807 Y37.481
X86.858 Y37.552 Z-0.393
X86.953 Y37.682
X87.055 Y37.81
X87.188 Y37.962 Z-0.392
X87.269 Y38.048 Z-0.39
X87.326 Y38.106 Z-0.392
X87.383 Y38.161 Z-0.389
X87.501 Y38.269
X87.625 Y38.372
X87.768 Y38.478
X87.886 Y38.556 Z-0.387
X87.924 Y38.58 Z-0.388
X88.023 Y38.638 Z-0.385
X88.084 Y38.67 Z-0.387
X88.165 Y38.71 Z-0.384
X88.247 Y38.749 Z-0.385
X88.413 Y38.818 Z-0.375
X88.494 Y38.847 Z-0.367
X88.53 Y38.856 Z-0.37
X88.567 Y38.863 Z-0.377
X88.604 Y38.867 Z-0.387
X88.64 Z-0.399
X88.677 Y38.865 Z-0.416
X88.714 Y38.86 Z-0.437
X88.751 Y38.854 Z-0.462
X88.794 Y38.842 Z-0.493
X88.842 Y38.825 Z-0.533
X88.891 Y38.804 Z-0.579
X88.948 Y38.837 Z-0.535
X89.098 Y38.916 Z-0.41
X89.111 Y38.926 Z-0.394
X89.162 Y38.934 Z-0.31
X89.196 Y38.944 Z-0.251
X89.232 Y38.959 Z-0.184
X89.196 Y38.944 Z-0.251
X89.162 Y38.934 Z-0.31
X89.111 Y38.926 Z-0.394
X89.127 Y38.956 Z-0.343
X89.134 Y38.969 Z-0.318
X89.127 Y38.956 Z-0.343
X89.111 Y38.926 Z-0.394
X89.098 Y38.916 Z-0.41
X88.948 Y38.837 Z-0.535
X88.891 Y38.804 Z-0.579
Y38.797 Z-0.572
X88.886 Y38.731 Z-0.512
X88.878 Y38.675 Z-0.468
X88.867 Y38.623 Z-0.432
X88.851 Y38.572 Z-0.405
X88.832 Y38.525 Z-0.386
X88.82 Y38.501 Z-0.379
X88.689 Y38.274 Z-0.363
X88.561 Y38.043 Z-0.357
X88.438 Y37.809 Z-0.359
X88.401 Y37.735 Z-0.362
X88.326 Y37.568 Z-0.358
X88.202 Y37.275 Z-0.367
X88.126 Y37.075 Z-0.361
X88.031 Y36.798 Z-0.369
X87.958 Y36.559 Z-0.363
X87.89 Y36.306 Z-0.371
X87.823 Y36.027 Z-0.366
X87.777 Y35.801 Z-0.373
X87.72 Y35.481 Z-0.368
X87.691 Y35.285 Z-0.375
X87.648 Y34.924 Z-0.37
X87.633 Y34.761 Z-0.376
X87.606 Y34.36 Z-0.372
X87.601 Y34.23 Z-0.376
X87.593 Y33.789 Z-0.373
X87.594 Y33.695 Z-0.376
X87.609 Y33.216 Z-0.373
X87.652 Y32.642
X87.72 Y32.085
X87.808 Y31.555 Z-0.372
X87.918 Y31.032 Z-0.371
X87.939 Y30.946 Z-0.368
X88.049 Y30.518 Z-0.37
X88.083 Y30.398 Z-0.366
X88.201 Y30.015 Z-0.368
X88.251 Y29.862 Z-0.363
X88.371 Y29.526 Z-0.367
X88.442 Y29.342 Z-0.361
X88.56 Y29.053 Z-0.365
X88.654 Y28.84 Z-0.359
X88.766 Y28.598 Z-0.363
X88.886 Y28.358 Z-0.357
X88.989 Y28.164 Z-0.361
X89.139 Y27.899 Z-0.355
X89.228 Y27.752 Z-0.36
X89.412 Y27.466 Z-0.353
X89.481 Y27.365 Z-0.357
X89.704 Y27.061 Z-0.352
X89.747 Y27.005 Z-0.355
X90.014 Y26.687 Z-0.351
X90.017 Y26.683
X90.033 Y26.674 Z-0.342
Y26.673
X90.048 Y26.663 Z-0.326
X90.054 Y26.659 Z-0.319
X90.061 Y26.652 Z-0.306
X90.085 Y26.612 Z-0.229
X90.093 Y26.6 Z-0.204
G0 Z5
X87.283 Y49.232
G1 Z-0.345 F300
X87.298 Z-0.367
Y49.241 Z-0.355
X87.311 Y49.273 Z-0.299
X87.298 Y49.241 Z-0.355
X87.286 Y49.272 Z-0.301
X87.298 Y49.241 Z-0.355
Y49.232 Z-0.367
X87.383 Y49.15
X87.476 Y49.068
X87.57 Y48.991
X87.668 Y48.917 Z-0.368
X87.769 Y48.847
X87.874 Y48.78
X87.982 Y48.716
X88.094 Y48.655
X88.209 Y48.598
X88.327 Y48.545
X88.449 Y48.494
X88.574 Y48.448 Z-0.369
X88.702 Y48.404
X88.834 Y48.365
X88.968 Y48.329
X89.106 Y48.296
X89.247 Y48.267
X89.391 Y48.242
X89.535 Y48.222 Z-0.37
X89.681 Y48.205
X89.829 Y48.191
X89.979 Y48.182
X90.131 Y48.176 Z-0.371
X90.315 Y48.173 Z-0.372
X90.423 Y48.175 Z-0.368
X90.465 Y48.177 Z-0.367
X90.504 Y48.181 Z-0.369
X90.542 Y48.188 Z-0.377
X90.581 Y48.198 Z-0.389
X90.62 Y48.212 Z-0.407
X90.66 Y48.228 Z-0.432
X90.702 Y48.249 Z-0.463
X90.746 Y48.274 Z-0.504
X90.744 Y48.317 Z-0.469
X90.742 Y48.355 Z-0.445
X90.74 Y48.391 Z-0.428
X90.735 Y48.433 Z-0.413
X90.727 Y48.471 Z-0.401
X90.714 Y48.511 Z-0.393
X90.697 Y48.555 Z-0.39
X90.649 Y48.672 Z-0.389
X90.597 Y48.803
X90.521 Y49.005
X90.437 Y49.245
X90.342 Y49.537 Z-0.388
X90.274 Y49.761 Z-0.387
X90.164 Y50.146 Z-0.385
X90.058 Y50.548 Z-0.384
X89.991 Y50.82 Z-0.382
X89.904 Y51.2 Z-0.381
X89.83 Y51.546 Z-0.379
X89.761 Y51.894 Z-0.378
X89.684 Y52.313 Z-0.376
X89.633 Y52.622
X89.595 Y52.87
X89.559 Y53.121
X89.525 Y53.378
X89.493 Y53.648
X89.457 Y53.986 Z-0.375
X89.428 Y54.315 Z-0.374
X89.42 Y54.423 Z-0.375
X89.402 Y54.695
X89.388 Y54.969 Z-0.374
X89.379 Y55.25
X89.377 Y55.543
X89.381 Y55.827
X89.391 Y56.102 Z-0.375
X89.408 Y56.367
X89.432 Y56.622 Z-0.376
X89.463 Y56.867
X89.5 Y57.102 Z-0.377
X89.544 Y57.326
X89.599 Y57.555
X89.663 Y57.774
X89.719 Y57.937 Z-0.375
X89.736 Y57.982 Z-0.376
X89.792 Y58.119 Z-0.373
X89.818 Y58.177 Z-0.375
X89.872 Y58.29 Z-0.371
X89.909 Y58.359 Z-0.373
X89.961 Y58.449 Z-0.369
X90.009 Y58.526 Z-0.371
X90.058 Y58.597 Z-0.367
X90.118 Y58.679 Z-0.368
X90.163 Y58.732 Z-0.364
X90.238 Y58.816 Z-0.365
X90.276 Y58.854 Z-0.361
X90.388 Y58.955 Z-0.359
X90.398 Y58.963
X90.55 Y59.072 Z-0.358
X90.65 Y59.132 Z-0.356
X90.752 Y59.184 Z-0.354
X90.828 Y59.218 Z-0.352
X90.922 Y59.253 Z-0.349
X91.008 Y59.279 Z-0.348
X91.092 Y59.299 Z-0.347
X91.169 Y59.312
X91.24 Y59.32
X91.313 Y59.325 Z-0.348
X91.406 Y59.324 Z-0.349
X91.472 Y59.32 Z-0.351
X91.541 Y59.313 Z-0.352
X91.612 Y59.301 Z-0.354
X91.675 Y59.288 Z-0.356
X91.738 Y59.272 Z-0.358
X91.857 Y59.234 Z-0.362
X91.928 Y59.206 Z-0.364
X92.042 Y59.156 Z-0.368
X92.124 Y59.116 Z-0.371
X92.22 Y59.063 Z-0.374
X92.31 Y59.009 Z-0.377
X92.428 Y58.933 Z-0.38
X92.571 Y58.832 Z-0.382
X92.701 Y58.736
X92.835 Y58.631 Z-0.384
X92.861 Y58.607 Z-0.39
X92.889 Y58.579 Z-0.404
X92.92 Y58.544 Z-0.424
X93.05 Y58.383 Z-0.503
X93.189 Y58.206 Z-0.584
X93.408 Y57.922 Z-0.707
X93.664 Y57.586 Z-0.849
X93.631 Y57.428 Z-0.676
X93.621 Y57.376 Z-0.621
X93.614 Y57.325 Z-0.571
X93.611 Y57.275 Z-0.528
X93.61 Y57.227 Z-0.49
X93.612 Y57.18 Z-0.458
X93.617 Y57.135 Z-0.431
X93.626 Y57.092 Z-0.411
X93.637 Y57.05 Z-0.396
X93.651 Y57.009 Z-0.388
X93.669 Y56.97 Z-0.385
X96.062 Y52.104
X96.113 Y51.988 Z-0.387
X96.152 Y51.878 Z-0.391
X96.156 Y51.862 Z-0.39
X96.177 Y51.779 Z-0.394
X96.186 Y51.735
X96.19 Y51.715
X96.204 Y51.608 Z-0.397
X96.209 Y51.483 Z-0.401
X96.204 Y51.384 Z-0.404
X96.202 Y51.357
X96.192 Y51.284 Z-0.406
X96.184 Y51.235
X96.181 Y51.22
X96.157 Y51.117 Z-0.408
X96.121 Y51.002 Z-0.409
X96.077 Y50.891 Z-0.411
X96.027 Y50.784
X95.971 Y50.681 Z-0.412
X95.91 Y50.581
X95.845 Y50.486
X95.777 Y50.395 Z-0.411
X95.737 Y50.344 Z-0.412
X95.645 Y50.236 Z-0.411
X95.559 Y50.144 Z-0.41
X95.483 Y50.067 Z-0.409
X95.336 Y49.929 Z-0.408
X95.192 Y49.807 Z-0.406
X95.059 Y49.699 Z-0.402
X94.939 Y49.605 Z-0.391
X94.927 Y49.595 Z-0.39
X94.895 Y49.573 Z-0.392
X94.862 Y49.553 Z-0.399
X94.824 Y49.534 Z-0.411
X94.784 Y49.518 Z-0.428
X94.742 Y49.504 Z-0.45
X94.694 Y49.493 Z-0.48
X94.642 Y49.485 Z-0.517
X94.589 Y49.481 Z-0.561
X94.533 Z-0.611
X94.526 Y49.503 Z-0.586
X94.514 Y49.555 Z-0.531
X94.503 Y49.609 Z-0.482
X94.496 Y49.656 Z-0.445
X94.493 Y49.699 Z-0.417
X94.491 Y49.736 Z-0.397
X94.493 Y49.779 Z-0.38
X94.496 Y49.816 Z-0.37
X94.503 Y49.862 Z-0.365
X94.522 Y49.998 Z-0.361
X94.534 Y50.105 Z-0.363
X94.541 Y50.219 Z-0.364
X94.542 Y50.33 Z-0.365
X94.539 Y50.435 Z-0.364
X94.53 Y50.536 Z-0.362
X94.514 Y50.661 Z-0.356
X94.468 Y50.913 Z-0.354
X94.414 Y51.132
X94.348 Y51.355
X94.271 Y51.582 Z-0.355
X94.183 Y51.81 Z-0.356
X94.084 Y52.038 Z-0.357
X93.977 Y52.266 Z-0.358
X93.861 Y52.493 Z-0.359
X93.738 Y52.716 Z-0.361
X93.609 Y52.936 Z-0.362
X93.474 Y53.152 Z-0.363
X93.335 Y53.361 Z-0.364
X93.192 Y53.563
X93.05 Y53.752
X92.906 Y53.932
X92.762 Y54.103 Z-0.363
X92.618 Y54.263 Z-0.362
X92.475 Y54.411 Z-0.361
X92.334 Y54.547 Z-0.359
X92.195 Y54.67 Z-0.357
X92.059 Y54.779 Z-0.356
X91.927 Y54.874 Z-0.355
X91.888 Y54.899 Z-0.356
X91.791 Y54.957 Z-0.354
X91.67 Y55.017 Z-0.355
X91.653 Y55.025
X91.645 Y55.03 Z-0.353
X91.634 Y55.039 Z-0.346
X91.606 Y55.045 Z-0.3
X91.58 Y55.054 Z-0.253
X91.547 Y55.067 Z-0.193
X91.58 Y55.054 Z-0.253
X91.606 Y55.045 Z-0.3
X91.634 Y55.039 Z-0.346
X91.633 Y55.046 Z-0.337
X91.634 Y55.039 Z-0.346
X91.645 Y55.03 Z-0.353
X91.653 Y55.025 Z-0.355
X91.67 Y55.017
X91.791 Y54.957 Z-0.354
X91.888 Y54.899 Z-0.356
X91.927 Y54.874 Z-0.355
X92.059 Y54.779 Z-0.356
X92.195 Y54.67 Z-0.357
X92.334 Y54.547 Z-0.359
X92.475 Y54.411 Z-0.361
X92.618 Y54.263 Z-0.362
X92.762 Y54.103 Z-0.363
X92.906 Y53.932 Z-0.364
X93.05 Y53.752
X93.192 Y53.563
X93.335 Y53.361
X93.474 Y53.152 Z-0.363
X93.609 Y52.936 Z-0.362
X93.738 Y52.716 Z-0.361
X93.861 Y52.493 Z-0.359
X93.977 Y52.266 Z-0.358
X94.084 Y52.038 Z-0.357
X94.183 Y51.81 Z-0.356
X94.271 Y51.582 Z-0.355
X94.348 Y51.355 Z-0.354
X94.414 Y51.132
X94.468 Y50.913
X94.514 Y50.661 Z-0.356
X94.53 Y50.536 Z-0.362
X94.539 Y50.435 Z-0.364
X94.542 Y50.33 Z-0.365
X94.541 Y50.219 Z-0.364
X94.534 Y50.105 Z-0.363
X94.522 Y49.998 Z-0.361
X94.503 Y49.862 Z-0.365
X94.496 Y49.816 Z-0.37
X94.493 Y49.779 Z-0.38
X94.491 Y49.736 Z-0.397
X94.493 Y49.699 Z-0.417
X94.496 Y49.656 Z-0.445
X94.503 Y49.609 Z-0.482
X94.514 Y49.555 Z-0.531
X94.526 Y49.503 Z-0.586
X94.533 Y49.481 Z-0.611
X94.517 Y49.464 Z-0.599
X94.463 Y49.405 Z-0.558
X94.406 Y49.347 Z-0.519
X94.345 Y49.29 Z-0.482
X94.282 Y49.234 Z-0.448
X94.249 Y49.207 Z-0.432
X94.155 Y49.134 Z-0.394
X94.107 Y49.099 Z-0.378
X94.091 Y49.091 Z-0.369
X94.065 Y49.077 Z-0.359
X94.039 Y49.064 Z-0.354
X93.806 Y48.951
X93.665 Y48.888
X93.462 Y48.803
X93.28 Y48.731
X93.108 Y48.668
X92.886 Y48.593 Z-0.355
X92.623 Y48.511
X92.377 Y48.443
X92.217 Y48.403
X92.006 Y48.354
X91.812 Y48.315
X91.633 Y48.282 Z-0.354
X91.409 Y48.247
X91.142 Y48.213 Z-0.353
X91.029 Y48.206 Z-0.361
X90.984 Z-0.368
X90.947 Y48.209 Z-0.378
X90.91 Y48.214 Z-0.393
X90.877 Y48.222 Z-0.41
X90.835 Y48.235 Z-0.433
X90.792 Y48.253 Z-0.464
X90.746 Y48.274 Z-0.504
X90.792 Y48.253 Z-0.464
X90.835 Y48.235 Z-0.433
X90.877 Y48.222 Z-0.41
X90.91 Y48.214 Z-0.393
X90.947 Y48.209 Z-0.378
X90.984 Y48.206 Z-0.368
X91.029 Z-0.361
X91.142 Y48.213 Z-0.353
X91.409 Y48.247 Z-0.354
X91.633 Y48.282
X91.812 Y48.315 Z-0.355
X92.006 Y48.354
X92.217 Y48.403
X92.377 Y48.443
X92.623 Y48.511
X92.886 Y48.593
X93.108 Y48.668 Z-0.354
X93.28 Y48.731
X93.462 Y48.803
X93.665 Y48.888
X93.806 Y48.951
X94.039 Y49.064
X94.065 Y49.077 Z-0.359
X94.091 Y49.091 Z-0.369
X94.107 Y49.099 Z-0.378
X94.155 Y49.134 Z-0.394
X94.249 Y49.207 Z-0.432
X94.282 Y49.234 Z-0.448
X94.345 Y49.29 Z-0.482
X94.406 Y49.347 Z-0.519
X94.463 Y49.405 Z-0.558
X94.517 Y49.464 Z-0.599
X94.533 Y49.481 Z-0.611
X94.589 Z-0.561
X94.642 Y49.485 Z-0.517
X94.694 Y49.493 Z-0.48
X94.742 Y49.504 Z-0.45
X94.784 Y49.518 Z-0.428
X94.824 Y49.534 Z-0.411
X94.862 Y49.553 Z-0.399
X94.895 Y49.573 Z-0.392
X94.927 Y49.595 Z-0.39
X94.939 Y49.605 Z-0.391
X95.059 Y49.699 Z-0.402
X95.192 Y49.807 Z-0.406
X95.336 Y49.929 Z-0.408
X95.483 Y50.067 Z-0.409
X95.559 Y50.144 Z-0.41
X95.645 Y50.236 Z-0.411
X95.737 Y50.344 Z-0.412
X95.777 Y50.395 Z-0.411
X95.845 Y50.486 Z-0.412
X95.91 Y50.581
X95.971 Y50.681
X96.027 Y50.784 Z-0.411
X96.077 Y50.891
X96.121 Y51.002 Z-0.409
X96.157 Y51.117 Z-0.408
X96.181 Y51.22 Z-0.406
X96.184 Y51.235
X96.192 Y51.284
X96.202 Y51.357 Z-0.404
X96.204 Y51.384
X96.209 Y51.483 Z-0.401
X96.204 Y51.608 Z-0.397
X96.19 Y51.715 Z-0.394
X96.186 Y51.735
X96.177 Y51.779
X96.156 Y51.862 Z-0.39
X96.152 Y51.878 Z-0.391
X96.113 Y51.988 Z-0.387
X96.062 Y52.104 Z-0.385
X93.669 Y56.97
X93.651 Y57.009 Z-0.388
X93.637 Y57.05 Z-0.396
X93.626 Y57.092 Z-0.411
X93.617 Y57.135 Z-0.431
X93.612 Y57.18 Z-0.458
X93.61 Y57.227 Z-0.49
X93.611 Y57.275 Z-0.528
X93.614 Y57.325 Z-0.571
X93.621 Y57.376 Z-0.621
X93.631 Y57.428 Z-0.676
X93.664 Y57.586 Z-0.849
X93.77 Y57.584 Z-0.73
X93.811 Y57.583 Z-0.685
X93.871 Y57.579 Z-0.622
X93.929 Y57.571 Z-0.566
X93.999 Y57.556 Z-0.505
X94.058 Y57.538 Z-0.46
X94.114 Y57.515 Z-0.426
X94.165 Y57.488 Z-0.402
X94.19 Y57.473 Z-0.393
X94.213 Y57.457 Z-0.388
X94.235 Y57.439 Z-0.384
X94.44 Y57.26 Z-0.383
X94.848 Y56.904 Z-0.382
X95.153 Y56.643 Z-0.381
X95.528 Y56.328
X95.908 Y56.017
X96.172 Y55.808 Z-0.38
X96.442 Y55.599
X96.717 Y55.391
X96.998 Y55.185 Z-0.381
X97.284 Y54.983
X97.576 Y54.784
X97.872 Y54.589
X98.175 Y54.399
X98.48 Y54.216 Z-0.382
X98.594 Y54.15 Z-0.384
X98.792 Y54.038 Z-0.382
X98.908 Y53.975 Z-0.384
X99.108 Y53.869 Z-0.383
X99.227 Y53.807 Z-0.385
X99.428 Y53.707 Z-0.383
X99.55 Y53.648 Z-0.385
X99.753 Y53.554 Z-0.383
X99.876 Y53.499 Z-0.386
X100.082 Y53.411 Z-0.383
X100.207 Y53.36 Z-0.386
X100.416 Y53.278 Z-0.384
X100.539 Y53.232 Z-0.386
X100.756 Y53.156 Z-0.383
X100.797 Y53.143 Z-0.386
X100.838 Y53.134 Z-0.395
X100.905
X100.913 Y53.136 Z-0.393
X100.954 Y53.146 Z-0.385
X101.204 Y53.232 Z-0.386
X101.319 Y53.275 Z-0.384
X101.537 Y53.36 Z-0.386
X101.653 Y53.407 Z-0.384
X101.868 Y53.499 Z-0.386
X101.983 Y53.55 Z-0.384
X102.195 Y53.649 Z-0.386
X102.308 Y53.703 Z-0.384
X102.52 Y53.808 Z-0.386
X102.63 Y53.865 Z-0.384
X102.839 Y53.976 Z-0.386
X102.947 Y54.034 Z-0.384
X103.155 Y54.151 Z-0.385
X103.259 Y54.211 Z-0.384
X103.465 Y54.333 Z-0.385
X103.771 Y54.522
X104.07 Y54.715
X104.365 Y54.912
X104.653 Y55.113
X104.935 Y55.316
X105.21 Y55.519
X105.478 Y55.723 Z-0.384
X105.739 Y55.927
X106.108 Y56.224 Z-0.382
X106.474 Y56.525 Z-0.381
X106.855 Y56.846 Z-0.378
X107.524 Y57.422 Z-0.372
X107.528 Y57.425 Z-0.373
X107.571 Y57.458 Z-0.378
X107.595 Y57.474 Z-0.385
X107.621 Y57.489 Z-0.394
X107.675 Y57.515 Z-0.421
X107.732 Y57.536 Z-0.459
X107.794 Y57.552 Z-0.508
X107.838 Y57.56 Z-0.547
X108.094 Y57.587 Z-0.803
X108.131 Y57.46 Z-0.648
X108.144 Y57.402 Z-0.583
X108.152 Y57.346 Z-0.527
X108.157 Y57.292 Z-0.477
X108.158 Y57.24 Z-0.436
X108.155 Y57.189 Z-0.402
X108.149 Y57.141 Z-0.375
X108.138 Y57.094 Z-0.356
X108.123 Y57.05 Z-0.345
X108.105 Y57.007 Z-0.341
X105.695 Y52.119 Z-0.334
X105.649 Y52.015 Z-0.333
X105.634 Y51.976 Z-0.331
X105.612 Y51.914 Z-0.333
X105.593 Y51.85 Z-0.331
X105.566 Y51.729 Z-0.33
X105.551 Y51.611 Z-0.332
X105.547 Y51.51 Z-0.333
X105.548 Y51.48 Z-0.332
X105.551 Y51.407 Z-0.334
X105.556 Y51.359 Z-0.333
X105.562 Y51.304 Z-0.335
X105.573 Y51.242 Z-0.334
X105.6 Y51.127 Z-0.336
X105.635 Y51.015 Z-0.337
X105.677 Y50.908 Z-0.338
X105.728 Y50.801 Z-0.34
X105.782 Y50.7 Z-0.341
X105.84 Y50.604
X105.905 Y50.508 Z-0.342
X105.944 Y50.455 Z-0.344
X106.029 Y50.346
X106.112 Y50.249
X106.184 Y50.171
X106.332 Y50.023 Z-0.345
X106.406 Y49.956
X106.476 Y49.894
X106.581 Y49.806 Z-0.346
X106.715 Y49.697 Z-0.34
X106.8 Y49.63 Z-0.332
X106.824 Y49.612 Z-0.331
X106.856 Y49.592 Z-0.335
X106.888 Y49.575 Z-0.344
X106.924 Y49.56 Z-0.357
X106.963 Y49.547 Z-0.376
X107.007 Y49.535 Z-0.403
X107.054 Y49.528 Z-0.437
X107.107 Y49.523 Z-0.481
X107.162 Y49.522 Z-0.532
X107.22 Y49.525 Z-0.59
X107.231 Y49.583 Z-0.534
X107.238 Y49.633 Z-0.493
X107.242 Y49.674 Z-0.463
X107.244 Y49.72 Z-0.436
X107.243 Y49.757 Z-0.419
X107.241 Y49.799 Z-0.405
X107.237 Y49.83 Z-0.399
X107.218 Y49.955 Z-0.391
X107.204 Y50.083
X107.198 Y50.175 Z-0.393
X107.197 Y50.296
X107.201 Y50.401 Z-0.391
X107.215 Y50.566 Z-0.392
X107.231 Y50.699 Z-0.397
X107.274 Y50.938 Z-0.399
X107.328 Y51.158
X107.394 Y51.382 Z-0.4
X107.471 Y51.609
X107.558 Y51.837 Z-0.402
X107.656 Y52.065 Z-0.403
X107.763 Y52.293
X107.878 Y52.519 Z-0.405
X108 Y52.742 Z-0.406
X108.129 Y52.961
X108.263 Y53.175 Z-0.407
X108.402 Y53.383
X108.544 Y53.584 Z-0.406
X108.69 Y53.778 Z-0.405
X108.837 Y53.962 Z-0.404
X108.985 Y54.137 Z-0.401
X109.132 Y54.3 Z-0.399
X109.279 Y54.451 Z-0.396
X109.422 Y54.587 Z-0.392
X109.562 Y54.71 Z-0.389
X109.7 Y54.819 Z-0.385
X109.834 Y54.912 Z-0.381
X109.96 Y54.988 Z-0.378
X110.062 Y55.038 Z-0.375
X110.117 Y55.057 Z-0.363
X110.123 Y55.058 Z-0.362
X110.124
X110.129 Y55.059 Z-0.36
X110.132 Y55.06 Z-0.359
X110.156 Y55.088 Z-0.304
X110.161 Y55.093 Z-0.294
X110.172 Y55.103 Z-0.269
X110.18 Y55.109 Z-0.253
X110.172 Y55.103 Z-0.269
X110.161 Y55.093 Z-0.294
X110.156 Y55.088 Z-0.304
X110.132 Y55.06 Z-0.359
Y55.059
X110.14 Y55.055 Z-0.346
X110.143 Y55.053 Z-0.34
X110.14 Y55.055 Z-0.346
X110.132 Y55.059 Z-0.359
Y55.06
X110.129 Y55.059 Z-0.36
X110.124 Y55.058 Z-0.362
X110.123
X110.117 Y55.057 Z-0.363
X110.062 Y55.038 Z-0.375
X109.96 Y54.988 Z-0.378
X109.834 Y54.912 Z-0.381
X109.7 Y54.819 Z-0.385
X109.562 Y54.71 Z-0.389
X109.422 Y54.587 Z-0.392
X109.279 Y54.451 Z-0.396
X109.132 Y54.3 Z-0.399
X108.985 Y54.137 Z-0.401
X108.837 Y53.962 Z-0.404
X108.69 Y53.778 Z-0.405
X108.544 Y53.584 Z-0.406
X108.402 Y53.383 Z-0.407
X108.263 Y53.175
X108.129 Y52.961 Z-0.406
X108 Y52.742
X107.878 Y52.519 Z-0.405
X107.763 Y52.293 Z-0.403
X107.656 Y52.065
X107.558 Y51.837 Z-0.402
X107.471 Y51.609 Z-0.4
X107.394 Y51.382
X107.328 Y51.158 Z-0.399
X107.274 Y50.938
X107.231 Y50.699 Z-0.397
X107.215 Y50.566 Z-0.392
X107.201 Y50.401 Z-0.391
X107.197 Y50.296 Z-0.393
X107.198 Y50.175
X107.204 Y50.083 Z-0.391
X107.218 Y49.955
X107.237 Y49.83 Z-0.399
X107.241 Y49.799 Z-0.405
X107.243 Y49.757 Z-0.419
X107.244 Y49.72 Z-0.436
X107.242 Y49.674 Z-0.463
X107.238 Y49.633 Z-0.493
X107.231 Y49.583 Z-0.534
X107.22 Y49.525 Z-0.59
X107.263 Y49.475 Z-0.559
X107.29 Y49.445 Z-0.539
X107.388 Y49.346 Z-0.481
X107.445 Y49.294 Z-0.453
X107.504 Y49.244 Z-0.428
X107.57 Y49.192 Z-0.404
X107.609 Y49.164 Z-0.392
X107.681 Y49.116 Z-0.376
X107.688 Y49.112 Z-0.374
X107.719 Y49.098 Z-0.37
X107.737 Y49.09 Z-0.369
X107.763 Y49.079 Z-0.365
X107.91 Y49.007
X108.053 Y48.94 Z-0.366
X108.277 Y48.841 Z-0.368
X108.527 Y48.74 Z-0.369
X108.77 Y48.651 Z-0.37
X108.92 Y48.601 Z-0.371
X109.139 Y48.532
X109.316 Y48.482 Z-0.372
X109.511 Y48.43
X109.717 Y48.381 Z-0.373
X109.885 Y48.345
X110.121 Y48.3
X110.383 Y48.258 Z-0.374
X110.63 Y48.227 Z-0.373
X110.74 Y48.22 Z-0.382
X110.754 Z-0.383
X110.8 Y48.221 Z-0.393
X110.837 Y48.225 Z-0.404
X110.874 Y48.231 Z-0.42
X110.911 Y48.24 Z-0.44
X110.952 Y48.254 Z-0.465
X110.987 Y48.267 Z-0.491
X111.036 Y48.287 Z-0.536
X111.079 Y48.26 Z-0.499
X111.122 Y48.238 Z-0.468
X111.166 Y48.22 Z-0.442
X111.209 Y48.206 Z-0.422
X111.249 Y48.197 Z-0.408
X111.289 Y48.191 Z-0.399
X111.329 Y48.187 Z-0.395
X111.369 Z-0.394
X111.642 Y48.188
X111.668 Y48.189
X111.823 Y48.195 Z-0.393
X111.976 Y48.205 Z-0.392
X112.125 Y48.219
X112.271 Y48.236 Z-0.391
X112.416 Y48.257 Z-0.39
X112.558 Y48.282 Z-0.389
X112.697 Y48.31 Z-0.388
X112.832 Y48.342 Z-0.387
X112.965 Y48.378 Z-0.386
X113.095 Y48.418 Z-0.385
X113.223 Y48.461 Z-0.384
X113.347 Y48.508 Z-0.383
X113.468 Y48.558 Z-0.382
X113.587 Y48.613 Z-0.381
X113.701 Y48.67 Z-0.38
X113.814 Y48.732 Z-0.378
X113.921 Y48.796 Z-0.377
X114.028 Y48.866 Z-0.376
X114.13 Y48.939 Z-0.374
X114.227 Y49.014 Z-0.373
X114.323 Y49.094 Z-0.371
X114.413 Y49.176 Z-0.369
X114.497 Y49.258 Z-0.367
X114.508 Z-0.352
X114.522 Z-0.329
X114.508 Z-0.352
X114.497 Z-0.367
Y49.26 Z-0.364
Y49.269 Z-0.353
X114.501 Y49.278 Z-0.338
X114.497 Y49.269 Z-0.353
X114.494 Y49.278 Z-0.338
X114.497 Y49.269 Z-0.353
Y49.26 Z-0.364
Y49.258 Z-0.367
X114.413 Y49.176 Z-0.369
X114.323 Y49.094 Z-0.371
X114.227 Y49.014 Z-0.373
X114.13 Y48.939 Z-0.374
X114.028 Y48.866 Z-0.376
X113.921 Y48.796 Z-0.377
X113.814 Y48.732 Z-0.378
X113.701 Y48.67 Z-0.38
X113.587 Y48.613 Z-0.381
X113.468 Y48.558 Z-0.382
X113.347 Y48.508 Z-0.383
X113.223 Y48.461 Z-0.384
X113.095 Y48.418 Z-0.385
X112.965 Y48.378 Z-0.386
X112.832 Y48.342 Z-0.387
X112.697 Y48.31 Z-0.388
X112.558 Y48.282 Z-0.389
X112.416 Y48.257 Z-0.39
X112.271 Y48.236 Z-0.391
X112.125 Y48.219 Z-0.392
X111.976 Y48.205
X111.823 Y48.195 Z-0.393
X111.668 Y48.189 Z-0.394
X111.642 Y48.188
X111.369 Y48.187
X111.329 Z-0.395
X111.289 Y48.191 Z-0.399
X111.249 Y48.197 Z-0.408
X111.209 Y48.206 Z-0.422
X111.166 Y48.22 Z-0.442
X111.122 Y48.238 Z-0.468
X111.079 Y48.26 Z-0.499
X111.036 Y48.287 Z-0.536
X111.038 Y48.333 Z-0.498
X111.04 Y48.373 Z-0.471
X111.042 Y48.41 Z-0.453
X111.047 Y48.453 Z-0.437
X111.053 Y48.483 Z-0.427
X111.066 Y48.528 Z-0.416
X111.078 Y48.561 Z-0.412
X111.087 Y48.582 Z-0.411
X111.184 Y48.828 Z-0.409
X111.257 Y49.027 Z-0.407
X111.339 Y49.264 Z-0.405
X111.447 Y49.599 Z-0.404
X111.556 Y49.965 Z-0.401
X111.665 Y50.359 Z-0.399
X111.672 Y50.389
X111.771 Y50.779 Z-0.398
X111.823 Y50.998
X111.897 Y51.323 Z-0.397
X111.973 Y51.682 Z-0.398
X112.02 Y51.918 Z-0.397
X112.096 Y52.337
X112.149 Y52.649 Z-0.398
X112.187 Y52.898
X112.224 Y53.149
X112.257 Y53.404 Z-0.399
X112.289 Y53.672
X112.325 Y54.011 Z-0.397
X112.355 Y54.34
X112.363 Y54.451 Z-0.398
X112.381 Y54.723 Z-0.397
X112.395 Y54.996
X112.403 Y55.276
X112.406 Y55.57 Z-0.396
X112.402 Y55.855 Z-0.397
X112.391 Y56.129 Z-0.398
X112.374 Y56.394
X112.35 Y56.649 Z-0.399
X112.32 Y56.895
X112.282 Y57.131 Z-0.4
X112.238 Y57.356 Z-0.399
X112.185 Y57.578
X112.121 Y57.796
X112.049 Y58.004 Z-0.397
X111.988 Y58.15 Z-0.394
X111.967 Y58.198 Z-0.396
X111.907 Y58.322 Z-0.392
X111.877 Y58.379 Z-0.393
X111.818 Y58.481 Z-0.389
X111.778 Y58.546 Z-0.39
X111.72 Y58.63 Z-0.385
X111.669 Y58.698 Z-0.386
X111.614 Y58.765 Z-0.381
X111.551 Y58.836 Z-0.382
X111.499 Y58.887 Z-0.377
X111.423 Y58.958
X111.376 Y58.995 Z-0.372
X111.255 Y59.083 Z-0.369
X111.158 Y59.141 Z-0.365
X111.085 Y59.18 Z-0.363
X111.013 Y59.215 Z-0.361
X110.918 Y59.255 Z-0.358
X110.837 Y59.284 Z-0.356
X110.737 Y59.313 Z-0.354
X110.662 Y59.329 Z-0.352
X110.592 Y59.34 Z-0.351
X110.523 Y59.348 Z-0.349
X110.453 Y59.352
X110.356 Y59.35
X110.289 Y59.346
X110.224 Y59.338
X110.162 Y59.328 Z-0.35
X110.099 Y59.315
X110.037 Y59.3 Z-0.351
X109.922 Y59.264 Z-0.352
X109.853 Y59.239 Z-0.354
X109.723 Y59.182 Z-0.356
X109.596 Y59.117 Z-0.358
X109.474 Y59.045 Z-0.36
X109.358 Y58.969 Z-0.361
X109.247 Y58.891 Z-0.363
X109.14 Y58.811 Z-0.364
X108.957 Y58.667 Z-0.368
X108.939 Y58.649 Z-0.367
X108.868 Y58.577 Z-0.37
X108.844 Y58.551 Z-0.379
X108.829 Y58.534 Z-0.386
X108.25 Y57.789 Z-0.715
X108.094 Y57.587 Z-0.803
G0 Z5
X91.471 Y30.846
G1 Z-0.358 F300
X91.477 Y30.844 Z-0.368
Y30.845 Z-0.367
X91.481 Y30.859 Z-0.345
Y30.86 Z-0.343
X91.487 Y30.873 Z-0.319
X91.481 Y30.86 Z-0.343
Y30.859 Z-0.345
X91.477 Y30.845 Z-0.367
Y30.844 Z-0.368
X91.479 Y30.835 Z-0.372
X91.473 Y30.528 Z-0.373
X91.471 Y30.28 Z-0.37
X91.479 Y29.927 Z-0.372
X91.486 Y29.717 Z-0.368
X91.51 Y29.342 Z-0.37
X91.523 Y29.169 Z-0.367
X91.567 Y28.773 Z-0.368
X91.584 Y28.637 Z-0.365
X91.605 Y28.495 Z-0.368
X91.649 Y28.222 Z-0.367
X91.667 Y28.119 Z-0.364
X91.701 Y27.952 Z-0.367
X91.757 Y27.687 Z-0.366
X91.773 Y27.616 Z-0.364
X91.822 Y27.426 Z-0.367
X91.891 Y27.17 Z-0.366
X91.968 Y26.918 Z-0.368
X92.05 Y26.67 Z-0.366
X92.14 Y26.427 Z-0.369
X92.231 Y26.195 Z-0.367
X92.337 Y25.954 Z-0.371
X92.431 Y25.75 Z-0.369
X92.559 Y25.5 Z-0.373
X92.654 Y25.32 Z-0.371
X92.805 Y25.063 Z-0.376
X92.901 Y24.906 Z-0.373
X93.076 Y24.645 Z-0.378
X93.173 Y24.506 Z-0.375
X93.343 Y24.281 Z-0.379
X93.468 Y24.121 Z-0.376
X93.632 Y23.929 Z-0.378
X93.784 Y23.756 Z-0.376
X93.944 Y23.588 Z-0.378
X94.108 Y23.422 Z-0.375
X94.278 Y23.26 Z-0.377
X94.453 Y23.1 Z-0.375
X94.499 Y23.06 Z-0.373
X94.635 Y22.945 Z-0.376
X94.821 Y22.791 Z-0.375
X94.889 Y22.736 Z-0.372
X95.013 Y22.642 Z-0.375
X95.211 Y22.495 Z-0.374
X95.303 Y22.428 Z-0.372
X95.414 Y22.351 Z-0.374
X95.623 Y22.21
X95.74 Y22.134 Z-0.372
X96.057 Y21.939 Z-0.375
X96.2 Y21.854 Z-0.372
X96.514 Y21.68 Z-0.376
X96.684 Y21.589 Z-0.373
X96.991 Y21.434 Z-0.377
X97.19 Y21.337 Z-0.375
X97.491 Y21.201 Z-0.378
X97.709 Y21.105 Z-0.377
X97.712 Y21.103 Z-0.376
X97.757 Y21.118 Z-0.301
X97.822 Y21.143 Z-0.182
X97.757 Y21.118 Z-0.301
X97.712 Y21.103 Z-0.376
X97.731 Y21.063 Z-0.325
X97.747 Y21.032 Z-0.288
X97.761 Y21.019 Z-0.261
X97.784 Y21.007 Z-0.22
X97.808 Y21 Z-0.178
G0 Z5
X92.641 Y43.054
G1 Z-0.167 F300
X92.693 Y43.074 Z-0.263
X92.751 Y43.094 Z-0.362
X92.747 Y43.101 Z-0.354
X92.744 Y43.113 Z-0.337
X92.737 Y43.128 Z-0.31
X92.744 Y43.113 Z-0.337
X92.747 Y43.101 Z-0.354
X92.751 Y43.094 Z-0.362
X92.758 Y43.089 Z-0.365
X95.05 Y42.124 Z-0.38
X95.097 Y42.102 Z-0.384
X95.141 Y42.075 Z-0.397
X95.184 Y42.044 Z-0.419
X95.225 Y42.008 Z-0.449
X95.264 Y41.967 Z-0.488
X95.249 Y41.928 Z-0.448
X95.235 Y41.889 Z-0.416
X95.223 Y41.858 Z-0.397
X95.212 Y41.826 Z-0.384
X95.2 Y41.794 Z-0.377
X95.189 Y41.756 Z-0.375
X95.166 Y41.67 Z-0.377
X95.156 Y41.644 Z-0.379
X95.126 Y41.564 Z-0.384
X95.101 Y41.484 Z-0.389
X95.082 Y41.404 Z-0.393
X95.069 Y41.324 Z-0.396
X95.062 Y41.244 Z-0.399
X95.061 Y41.163 Z-0.401
X95.066 Y41.089 Z-0.402
X95.073 Y41.038
X95.088 Y40.965 Z-0.401
X95.111 Y40.888 Z-0.4
X95.14 Y40.815 Z-0.397
X95.176 Y40.74 Z-0.395
X95.215 Y40.669 Z-0.396
X95.252 Y40.613
X95.296 Y40.557
X95.352 Y40.495 Z-0.395
X95.393 Y40.457 Z-0.394
X95.467 Y40.397 Z-0.392
X95.548 Y40.344 Z-0.39
X95.631 Y40.299 Z-0.387
X95.682 Y40.276 Z-0.385
X95.775 Y40.241 Z-0.382
X95.87 Y40.215 Z-0.379
X95.973 Y40.196 Z-0.376
X96.066 Y40.186 Z-0.373
X96.141 Y40.183 Z-0.372
X96.275 Y40.179
X96.386 Y40.171 Z-0.371
X96.496 Y40.157 Z-0.37
X96.604 Y40.138 Z-0.368
X96.676 Y40.122 Z-0.367
X96.747 Y40.104
X96.852 Y40.074 Z-0.368
X96.922 Y40.051 Z-0.369
X97.017 Y40.015 Z-0.374
X97.033 Y40.008
X97.104 Y39.976 Z-0.376
X97.207 Y39.926 Z-0.387
X97.241 Y39.911 Z-0.395
X97.281 Y39.896 Z-0.411
X97.319 Y39.884 Z-0.432
X97.361 Y39.874 Z-0.46
X97.402 Y39.865 Z-0.492
X97.457 Y39.857 Z-0.541
X97.509 Y39.851 Z-0.592
X97.532 Y39.81 Z-0.566
X97.567 Y39.745 Z-0.529
X97.619 Y39.638 Z-0.476
X97.626 Y39.621 Z-0.468
X97.652 Y39.561 Z-0.444
X97.675 Y39.503 Z-0.424
X97.696 Y39.446 Z-0.408
X97.72 Y39.373 Z-0.392
X97.728 Y39.345 Z-0.393
X97.736 Y39.32 Z-0.398
X97.741 Y39.297 Z-0.399
X97.757 Y39.23 Z-0.404
X97.759 Y39.214 Z-0.402
X97.944 Y38.243 Z-0.403
X97.951 Y38.238 Z-0.393
X97.952 Y38.237 Z-0.392
X97.97 Y38.199 Z-0.326
X97.985 Y38.152 Z-0.246
X98.001 Y38.066 Z-0.097
X97.985 Y38.152 Z-0.246
X97.97 Y38.199 Z-0.326
X97.952 Y38.237 Z-0.392
X97.951 Y38.238 Z-0.393
X97.944 Y38.243 Z-0.403
X97.917 Y38.212 Z-0.344
X97.915 Y38.21 Z-0.34
X97.917 Y38.212 Z-0.344
X97.944 Y38.243 Z-0.403
X97.759 Y39.214 Z-0.402
X97.757 Y39.23 Z-0.404
X97.741 Y39.297 Z-0.399
X97.736 Y39.32 Z-0.398
X97.728 Y39.345 Z-0.393
X97.72 Y39.373 Z-0.392
X97.696 Y39.446 Z-0.408
X97.675 Y39.503 Z-0.424
X97.652 Y39.561 Z-0.444
X97.626 Y39.621 Z-0.468
X97.619 Y39.638 Z-0.476
X97.567 Y39.745 Z-0.529
X97.532 Y39.81 Z-0.566
X97.509 Y39.851 Z-0.592
X97.525 Y39.892 Z-0.551
X97.539 Y39.932 Z-0.515
X97.55 Y39.971 Z-0.482
X97.559 Y40.01 Z-0.454
X97.566 Y40.049 Z-0.43
X97.57 Y40.087 Z-0.411
X97.572 Y40.124 Z-0.395
X97.571 Y40.161 Z-0.385
X97.568 Y40.198 Z-0.378
X97.562 Y40.234 Z-0.376
X97.405 Y41.03 Z-0.38
X97.397 Y41.063 Z-0.382
X97.388 Y41.095 Z-0.388
X97.372 Y41.138 Z-0.401
X97.369 Y41.143 Z-0.402
X97.398 Y41.178 Z-0.326
X97.418 Y41.208 Z-0.266
X97.43 Y41.232 Z-0.219
X97.418 Y41.208 Z-0.266
X97.398 Y41.178 Z-0.326
X97.369 Y41.143 Z-0.402
X97.345 Y41.161 Z-0.389
X97.308 Y41.185 Z-0.375
X97.269 Y41.206 Z-0.368
X95.548 Y41.929 Z-0.36
X95.521 Y41.939 Z-0.361
X95.495 Y41.948 Z-0.365
X95.468 Y41.955 Z-0.372
X95.44 Y41.961 Z-0.38
X95.384 Y41.968 Z-0.406
X95.325 Y41.97 Z-0.442
X95.264 Y41.967 Z-0.488
G0 Z5
X96.245 Y25.616
G1 Z-0.301 F300
Y25.615 Z-0.303
X96.259 Y25.597 Z-0.337
X96.266 Y25.585 Z-0.354
X96.253 Y25.578 Z-0.332
X96.266 Y25.585 Z-0.354
X96.294 Y25.568 Z-0.358
X96.51 Y25.415 Z-0.357
X96.773 Y25.217 Z-0.356
X96.972 Y25.062 Z-0.355
X97.15 Y24.917
X97.339 Y24.759
X97.535 Y24.588
X97.655 Y24.48 Z-0.353
X97.9 Y24.253 Z-0.352
X98.15 Y24.009
X98.372 Y23.78 Z-0.353
X98.586 Y23.548
X98.654 Y23.471 Z-0.351
X98.798 Y23.305 Z-0.353
X98.904 Y23.179 Z-0.351
X99.008 Y23.05 Z-0.354
X99.149 Y22.871 Z-0.351
X99.214 Y22.785 Z-0.353
X99.387 Y22.549 Z-0.352
X99.607 Y22.225 Z-0.353
X99.79 Y21.929 Z-0.355
X99.831 Y21.859 Z-0.353
X99.962 Y21.624 Z-0.356
X100.032 Y21.493 Z-0.353
X100.122 Y21.31 Z-0.357
X100.215 Y21.112 Z-0.354
X100.27 Y20.987 Z-0.358
X100.38 Y20.718 Z-0.355
X100.384 Y20.706
X100.523 Y20.311 Z-0.358
X100.619 Y19.991 Z-0.372
X100.622 Y19.982 Z-0.373
X100.637 Y19.943 Z-0.379
X100.654 Y19.905 Z-0.391
X100.666 Y19.881 Z-0.401
X100.697 Y19.829 Z-0.435
X100.732 Y19.78 Z-0.478
X100.773 Y19.732 Z-0.531
X100.819 Y19.686 Z-0.593
X100.871 Y19.64 Z-0.666
Y19.456 Z-0.604
Y18.996 Z-0.504
Y18.595 Z-0.468
X100.813 Y18.535 Z-0.362
X100.797 Y18.519 Z-0.33
X100.794 Y18.515 Z-0.321
X100.797 Y18.519 Z-0.33
X100.813 Y18.535 Z-0.362
X100.871 Y18.595 Z-0.468
X100.897 Y18.569 Z-0.422
X100.904 Y18.564 Z-0.408
X100.938 Y18.549 Z-0.348
X100.944 Y18.547 Z-0.337
X100.938 Y18.549 Z-0.348
X100.904 Y18.564 Z-0.408
X100.897 Y18.569 Z-0.422
X100.871 Y18.595 Z-0.468
Y18.996 Z-0.504
Y19.456 Z-0.604
Y19.64 Z-0.666
X100.898 Y19.663 Z-0.628
X100.947 Y19.709 Z-0.561
X100.991 Y19.756 Z-0.503
X101.029 Y19.804 Z-0.456
X101.061 Y19.853 Z-0.418
X101.078 Y19.884 Z-0.4
X101.097 Y19.923 Z-0.385
X101.113 Y19.962 Z-0.376
X101.215 Y20.295 Z-0.358
X101.34 Y20.655
X101.358 Y20.704 Z-0.356
X101.472 Y20.987 Z-0.359
X101.522 Y21.1 Z-0.355
X101.62 Y21.309 Z-0.358
X101.705 Y21.481 Z-0.353
X101.781 Y21.624 Z-0.356
X101.906 Y21.849 Z-0.353
X101.953 Y21.929 Z-0.355
X102.121 Y22.202 Z-0.353
X102.329 Y22.51
X102.529 Y22.786
X102.588 Y22.864 Z-0.351
X102.734 Y23.05 Z-0.354
X102.833 Y23.172 Z-0.351
X102.944 Y23.305 Z-0.353
X103.083 Y23.465 Z-0.351
X103.157 Y23.548 Z-0.353
X103.336 Y23.743 Z-0.352
X103.584 Y24 Z-0.353
X103.796 Y24.208
X104.005 Y24.404 Z-0.354
X104.208 Y24.588
X104.321 Y24.687 Z-0.353
X104.549 Y24.881 Z-0.354
X104.766 Y25.057 Z-0.355
X104.939 Y25.193 Z-0.356
X105.093 Y25.311 Z-0.357
X105.233 Y25.414 Z-0.358
X105.447 Y25.568
X105.451 Y25.57
X105.466 Y25.579 Z-0.355
X105.473 Y25.583 Z-0.354
X105.474
X105.477 Z-0.351
X105.48 Z-0.349
X105.486 Y25.58 Z-0.338
X105.48 Y25.583 Z-0.349
X105.5 Y25.595 Z-0.312
X105.518 Y25.608 Z-0.274
X105.5 Y25.595 Z-0.312
X105.48 Y25.583 Z-0.349
X105.477 Z-0.351
X105.474 Z-0.354
X105.475 Y25.597 Z-0.332
Y25.609 Z-0.314
X105.476 Y25.623 Z-0.29
Y25.627 Z-0.284
Y25.647 Z-0.252
G0 Z5
X103.81 Y38.188
G1 Z-0.3 F300
X103.825 Y38.207 Z-0.341
X103.832 Y38.22 Z-0.363
X103.833 Y38.223 Z-0.367
Z-0.366
Z-0.367
X103.834 Y38.225 Z-0.369
X103.836 Y38.23 Z-0.373
X103.839 Y38.238 Z-0.377
X103.84 Y38.251 Z-0.38
X104.013 Y39.152 Z-0.37
X104.017 Y39.17
X104.027 Y39.267 Z-0.384
X104.028 Y39.273 Z-0.385
Y39.276
Y39.277 Z-0.384
X104.033 Y39.296 Z-0.383
X104.034 Y39.302
X104.035 Y39.308 Z-0.382
X104.043 Y39.344 Z-0.38
X104.049 Y39.374 Z-0.381
X104.05 Y39.379
X104.06 Y39.416 Z-0.386
X104.083 Y39.483 Z-0.403
X104.107 Y39.544 Z-0.424
X104.132 Y39.602 Z-0.446
X104.18 Y39.704 Z-0.495
X104.243 Y39.822 Z-0.563
X104.271 Y39.871 Z-0.594
X104.304 Y39.874 Z-0.561
X104.359 Y39.882 Z-0.513
X104.398 Y39.889 Z-0.483
X104.446 Y39.9 Z-0.451
X104.485 Y39.912 Z-0.43
X104.524 Y39.926 Z-0.414
X104.556 Y39.939 Z-0.406
X104.602 Y39.961 Z-0.399
X104.733 Y40.021 Z-0.393
X104.744 Y40.026
X104.832 Y40.062 Z-0.395
X104.929 Y40.096 Z-0.397
X104.993 Y40.116 Z-0.398
X105.095 Y40.142 Z-0.399
X105.163 Y40.156
X105.269 Y40.173 Z-0.398
X105.378 Y40.185 Z-0.397
X105.453 Y40.191 Z-0.396
X105.656 Y40.197 Z-0.395
X105.741 Y40.202 Z-0.397
X105.812 Y40.21
X105.897 Y40.226 Z-0.399
X105.962 Y40.243 Z-0.4
X106.044 Y40.269 Z-0.401
X106.104 Y40.294 Z-0.402
X106.178 Y40.329 Z-0.404
X106.236 Y40.363 Z-0.405
X106.288 Y40.397 Z-0.406
X106.354 Y40.449 Z-0.408
X106.4 Y40.49 Z-0.409
X106.462 Y40.555
X106.496 Y40.597
X106.53 Y40.644 Z-0.408
X106.572 Y40.712 Z-0.407
X106.599 Y40.766 Z-0.405
X106.63 Y40.836 Z-0.401
X106.658 Y40.918 Z-0.398
X106.676 Y40.994 Z-0.393
X106.689 Y41.068 Z-0.39
X106.695 Y41.124 Z-0.386
X106.698 Y41.221 Z-0.382
X106.695 Y41.299 Z-0.38
X106.691 Y41.343 Z-0.378
X106.677 Y41.432 Z-0.375
X106.659 Y41.509 Z-0.373
X106.625 Y41.624 Z-0.37
X106.607 Y41.673 Z-0.369
X106.578 Y41.78
X106.574 Y41.794 Z-0.37
X106.564 Y41.828 Z-0.374
X106.554 Y41.858 Z-0.384
X106.545 Y41.888 Z-0.399
X106.533 Y41.926 Z-0.427
X106.521 Y41.964 Z-0.461
X106.539 Y41.984 Z-0.442
X106.578 Y42.02 Z-0.409
X106.618 Y42.052 Z-0.384
X106.66 Y42.08 Z-0.368
X106.703 Y42.103 Z-0.36
X109.015 Y43.065 Z-0.364
X109.018 Y43.066
X109.024 Y43.062 Z-0.353
X109.032 Y43.055 Z-0.337
X109.037 Y43.048 Z-0.323
X109.032 Y43.055 Z-0.337
X109.024 Y43.062 Z-0.353
X109.018 Y43.066 Z-0.364
X109.019 Y43.067
X109.025 Y43.077 Z-0.352
X109.026 Y43.081 Z-0.346
X109.049 Y43.106 Z-0.296
X109.069 Y43.123 Z-0.254
X109.049 Y43.106 Z-0.296
X109.026 Y43.081 Z-0.346
X109.025 Y43.077 Z-0.352
X109.019 Y43.067 Z-0.364
X109.018 Y43.066
X109.015 Y43.065
X106.703 Y42.103 Z-0.36
X106.66 Y42.08 Z-0.368
X106.618 Y42.052 Z-0.384
X106.578 Y42.02 Z-0.409
X106.539 Y41.984 Z-0.442
X106.521 Y41.964 Z-0.461
X106.458 Y41.97 Z-0.41
X106.398 Z-0.369
X106.369 Y41.967 Z-0.354
X106.34 Y41.964 Z-0.341
X106.312 Y41.958 Z-0.331
X106.285 Y41.951 Z-0.323
X106.258 Y41.943 Z-0.319
X104.529 Y41.205 Z-0.345
X104.501 Y41.192 Z-0.347
X104.473 Y41.177 Z-0.353
X104.434 Y41.152 Z-0.367
X104.396 Y41.122 Z-0.389
X104.389 Y41.129 Z-0.374
X104.365 Y41.159 Z-0.31
X104.389 Y41.129 Z-0.374
X104.396 Y41.122 Z-0.389
X104.391 Y41.114
X104.385 Y41.098 Z-0.384
X104.375 Y41.064 Z-0.378
X104.213 Y40.263 Z-0.367
X104.207 Y40.223 Z-0.37
X104.204 Y40.186 Z-0.376
X104.203 Y40.148 Z-0.388
X104.205 Y40.11 Z-0.404
X104.21 Y40.071 Z-0.424
X104.217 Y40.032 Z-0.449
X104.226 Y39.992 Z-0.479
X104.239 Y39.952 Z-0.513
X104.253 Y39.912 Z-0.551
X104.271 Y39.871 Z-0.594
G0 Z5
X103.957 Y21.014
G1 Z-0.223 F300
X103.983 Y21.032 Z-0.275
X103.999 Y21.047 Z-0.31
X104.019 Y21.072 Z-0.358
X104.025 Y21.078 Z-0.368
X104.021 Y21.08 Z-0.36
X104.019 Y21.081 Z-0.356
X104.021 Y21.08 Z-0.36
X104.025 Y21.078 Z-0.368
X104.03 Y21.08 Z-0.371
X104.033 Y21.081 Z-0.373
X104.045 Y21.083 Z-0.377
X104.253 Y21.174 Z-0.381
X104.505 Y21.286 Z-0.38
X104.751 Y21.404 Z-0.382
X104.993 Y21.524
X105.051 Y21.553 Z-0.38
X105.227 Y21.648 Z-0.383
X105.459 Y21.775
X105.535 Y21.817 Z-0.381
X105.683 Y21.905 Z-0.383
X105.902 Y22.039 Z-0.382
X105.995 Y22.096 Z-0.38
X106.117 Y22.177 Z-0.383
X106.326 Y22.317
X106.431 Y22.39 Z-0.38
X106.727 Y22.608 Z-0.382
X106.845 Y22.699 Z-0.379
X107.106 Y22.912 Z-0.381
X107.235 Y23.022 Z-0.378
X107.463 Y23.229 Z-0.381
X107.602 Y23.36 Z-0.378
X107.797 Y23.558 Z-0.38
X107.945 Y23.714 Z-0.377
X108.109 Y23.9 Z-0.38
X108.258 Y24.075 Z-0.377
X108.4 Y24.254 Z-0.379
X108.537 Y24.434 Z-0.377
X108.561 Y24.467 Z-0.375
X108.668 Y24.62 Z-0.378
X108.81 Y24.828 Z-0.377
X108.835 Y24.865 Z-0.376
X108.942 Y25.04 Z-0.38
X109.071 Y25.256 Z-0.379
X109.19 Y25.477 Z-0.381
X109.306 Y25.701 Z-0.378
X109.412 Y25.931 Z-0.38
X109.511 Y26.152 Z-0.377
X109.609 Y26.402 Z-0.379
X109.687 Y26.612 Z-0.375
X109.781 Y26.893 Z-0.378
X109.841 Y27.086 Z-0.374
X109.926 Y27.4 Z-0.376
X109.971 Y27.575 Z-0.372
X110.046 Y27.925 Z-0.374
X110.077 Y28.079 Z-0.37
X110.141 Y28.469 Z-0.372
X110.16 Y28.598 Z-0.37
X110.179 Y28.746 Z-0.373
X110.21 Y29.028 Z-0.372
X110.22 Y29.131 Z-0.37
X110.234 Y29.314 Z-0.373
X110.253 Y29.605 Z-0.371
X110.257 Y29.679 Z-0.369
X110.265 Y29.9 Z-0.373
X110.271 Y30.198 Z-0.372
X110.27 Y30.502 Z-0.373
X110.265 Y30.807 Z-0.372
X110.264 Y30.813 Z-0.371
X110.257 Y30.817 Z-0.358
X110.238 Y30.823 Z-0.326
X110.257 Y30.817 Z-0.358
X110.264 Y30.813 Z-0.371
X110.267 Y30.82 Z-0.366
X110.275 Y30.827 Z-0.352
X110.287 Y30.84 Z-0.325
X110.291 Y30.844 Z-0.316
X110.287 Y30.84 Z-0.325
X110.275 Y30.827 Z-0.352
X110.267 Y30.82 Z-0.366
X110.263 Y30.83 Z-0.349
X110.253 Y30.854 Z-0.306
G0 Z5
X111.251 Y46.56
G1 Z-0.293 F300
X111.258 Z-0.304
X111.276 Y46.558 Z-0.333
X111.288 Y46.557 Z-0.351
X111.293 Y46.556 Z-0.358
X111.297 Z-0.365
X111.299 Z-0.366
X111.298 Y46.554 Z-0.362
X111.289 Y46.533 Z-0.325
X111.298 Y46.554 Z-0.362
X111.299 Y46.556 Z-0.366
X111.305 Y46.559 Z-0.37
X111.315 Y46.558
X111.607 Y46.534 Z-0.367
X111.899 Y46.492 Z-0.365
X112.189 Y46.431 Z-0.363
X112.475 Y46.355 Z-0.362
X112.76 Y46.264 Z-0.361
X113.038 Y46.161
X113.313 Y46.046
X113.583 Y45.922
X113.845 Y45.789 Z-0.362
X114.1 Y45.65
X114.347 Y45.506 Z-0.363
X114.584 Y45.357 Z-0.364
X114.813 Y45.206 Z-0.363
X115.03 Y45.054
X115.235 Y44.904 Z-0.364
X115.429 Y44.754
X115.614 Y44.605
X115.783 Y44.46 Z-0.363
X115.937 Y44.321 Z-0.362
X116.075 Y44.191 Z-0.361
X116.194 Y44.072
X116.293 Y43.964 Z-0.36
X116.372 Y43.87 Z-0.359
X116.408 Y43.822
X116.418 Y43.813 Z-0.356
X116.426 Y43.805 Z-0.353
X116.431 Y43.798 Z-0.348
X116.433 Y43.795 Z-0.346
X116.438 Y43.79 Z-0.341
X116.441 Y43.788 Z-0.337
X116.444 Y43.784 Z-0.331
X116.45 Y43.776 Z-0.317
X116.452 Y43.772 Z-0.309
G0 Z5
X111.693 Y26.683
G1 Z-0.325 F300
X111.698 Y26.685 Z-0.335
Y26.684 Z-0.333
X111.699 Y26.678 Z-0.328
X111.7 Y26.67 Z-0.319
X111.701 Y26.663 Z-0.311
X111.705 Y26.651 Z-0.296
X111.71 Y26.637 Z-0.276
X111.716 Y26.622 Z-0.254
X111.72 Y26.613 Z-0.24
X111.733 Y26.589 Z-0.196
X111.72 Y26.613 Z-0.24
X111.716 Y26.622 Z-0.254
X111.71 Y26.637 Z-0.276
X111.705 Y26.651 Z-0.296
X111.701 Y26.663 Z-0.311
X111.7 Y26.67 Z-0.319
X111.699 Y26.678 Z-0.328
X111.698 Y26.684 Z-0.333
Y26.685 Z-0.335
X111.7 Y26.693 Z-0.339
X111.693 Y26.695 Z-0.325
X111.7 Y26.693 Z-0.339
X111.701 Z-0.338
X111.703 Y26.696
X111.722 Y26.719 Z-0.336
X112.026 Y27.086
X112.031 Y27.092
X112.264 Y27.412 Z-0.34
X112.323 Y27.498 Z-0.336
X112.515 Y27.799 Z-0.341
X112.594 Y27.93 Z-0.337
X112.752 Y28.211 Z-0.342
X112.847 Y28.389 Z-0.337
X112.973 Y28.645 Z-0.343
X113.078 Y28.871 Z-0.338
X113.179 Y29.101 Z-0.345
X113.289 Y29.372 Z-0.34
X113.366 Y29.574 Z-0.345
X113.479 Y29.892 Z-0.342
X113.536 Y30.064 Z-0.347
X113.647 Y30.427 Z-0.344
X113.687 Y30.567 Z-0.349
X113.792 Y30.975 Z-0.346
X113.817 Y31.082 Z-0.35
X113.913 Y31.533 Z-0.349
X113.927 Y31.606 Z-0.351
X114.015 Y32.137 Z-0.353
X114.08 Y32.672 Z-0.355
X114.124 Y33.243 Z-0.356
X114.14 Y33.811 Z-0.357
Y33.815
X114.133 Y34.284 Z-0.361
X114.129 Y34.386 Z-0.358
X114.101 Y34.815 Z-0.363
X114.088 Y34.95 Z-0.359
X114.042 Y35.34 Z-0.365
X114.018 Y35.507 Z-0.36
X113.957 Y35.855 Z-0.367
X113.916 Y36.053 Z-0.361
X113.844 Y36.36 Z-0.368
X113.783 Y36.585 Z-0.361
X113.702 Y36.852 Z-0.369
X113.618 Y37.102 Z-0.362
X113.532 Y37.328 Z-0.371
X113.42 Y37.596 Z-0.364
X113.334 Y37.787 Z-0.37
X113.309 Y37.837 Z-0.368
X113.187 Y38.073 Z-0.366
X113.06 Y38.304 Z-0.374
X112.926 Y38.532 Z-0.389
X112.903 Y38.577 Z-0.4
X112.884 Y38.625 Z-0.419
X112.868 Y38.675 Z-0.447
X112.856 Y38.728 Z-0.482
X112.847 Y38.793 Z-0.534
X112.843 Y38.836 Z-0.573
X112.795 Y38.864 Z-0.535
X112.646 Y38.941 Z-0.412
X112.642 Y38.944 Z-0.408
X112.635 Y38.963 Z-0.375
X112.628 Y38.982 Z-0.342
X112.623 Y38.997 Z-0.317
X112.628 Y38.982 Z-0.342
X112.635 Y38.963 Z-0.375
X112.642 Y38.944 Z-0.408
X112.628 Y38.946 Z-0.388
X112.604 Y38.951 Z-0.35
X112.601 Z-0.345
X112.604 Z-0.35
X112.628 Y38.946 Z-0.388
X112.642 Y38.944 Z-0.408
X112.646 Y38.941 Z-0.412
X112.795 Y38.864 Z-0.535
X112.843 Y38.836 Z-0.573
X112.896 Y38.86 Z-0.519
X112.949 Y38.88 Z-0.474
X112.994 Y38.892 Z-0.44
X113.032 Y38.9 Z-0.414
X113.069 Y38.904 Z-0.393
X113.105 Y38.906 Z-0.376
X113.142 Z-0.364
X113.177 Y38.903 Z-0.354
X113.212 Y38.896 Z-0.348
X113.246 Y38.887 Z-0.345
X113.333 Y38.856 Z-0.354
X113.5 Y38.786 Z-0.364
X113.573 Y38.752 Z-0.363
X113.664 Y38.707 Z-0.366
X113.714 Y38.68 Z-0.365
X113.825 Y38.616 Z-0.368
X113.981 Y38.514 Z-0.37
X114.112 Y38.416
X114.235 Y38.314 Z-0.371
X114.281 Y38.274 Z-0.374
X114.353 Y38.207 Z-0.373
X114.424 Y38.139 Z-0.376
X114.562 Y37.995 Z-0.377
X114.683 Y37.855
X114.783 Y37.729 Z-0.379
X114.821 Y37.68 Z-0.381
X114.879 Y37.601 Z-0.379
X114.942 Y37.512 Z-0.381
X115.058 Y37.337 Z-0.383
X115.142 Y37.199
X115.167 Y37.156 Z-0.385
X115.269 Y36.97
X115.366 Y36.782
X115.431 Y36.641
X115.539 Y36.391 Z-0.387
X115.603 Y36.223 Z-0.386
X115.682 Y35.995
X115.728 Y35.848
X115.738 Y35.829 Z-0.378
X115.748 Y35.815 Z-0.368
X115.772 Y35.798 Z-0.338
X115.787 Y35.796 Z-0.313
X115.808 Z-0.278
X115.787 Z-0.313
X115.772 Y35.798 Z-0.338
X115.779 Y35.783 Z-0.312
X115.788 Y35.756 Z-0.265
X115.8 Y35.705 Z-0.177
X115.807 Y35.662 Z-0.102
G0 Z15
M9
M30
%
