%
(1)
(Holes)
(T1  D=3.175 CR=0 - ZMIN=-3.302 - flat end mill)
G90 G94
G17
G21

(2D Contour3)
M9
T1 M6
S10000 M3
G54
M9
G0 X10.218 Y52.316
Z15
Z5
G1 Z1.25 F200
Z0.067
X10.226 Z-0.003
X10.249 Z-0.07
X10.287 Y52.317 Z-0.13
X10.337 Y52.318 Z-0.181
X10.397 Y52.32 Z-0.219
X10.465 Y52.322 Z-0.242
X10.535 Y52.323 Z-0.25
X10.853 Y52.331
G3 X11.162 Y52.656 I-0.008 J0.317
X8.838 Y52.599 I-1.162 J-0.029
X11.163 Y52.628 I1.162 J0.029
X11.162 Y52.656 I-1.163
X10.837 Y52.966 I-0.317 J-0.008
G1 X10.52 Y52.958
X10.449 Y52.956 Z-0.242
X10.382 Y52.955 Z-0.219
X10.322 Y52.953 Z-0.181
X10.271 Y52.952 Z-0.13
X10.234 Y52.951 Z-0.07
X10.21 Z-0.003
X10.202 Y52.95 Z0.067
X10.218 Y52.316
Z-0.183
X10.226 Z-0.253
X10.249 Z-0.32
X10.287 Y52.317 Z-0.38
X10.337 Y52.318 Z-0.431
X10.397 Y52.32 Z-0.469
X10.465 Y52.322 Z-0.492
X10.535 Y52.323 Z-0.5
X10.853 Y52.331
G3 X11.162 Y52.656 I-0.008 J0.317
X8.838 Y52.599 I-1.162 J-0.029
X11.163 Y52.628 I1.162 J0.029
X11.162 Y52.656 I-1.163
X10.837 Y52.966 I-0.317 J-0.008
G1 X10.52 Y52.958
X10.449 Y52.956 Z-0.492
X10.382 Y52.955 Z-0.469
X10.322 Y52.953 Z-0.431
X10.271 Y52.952 Z-0.38
X10.234 Y52.951 Z-0.32
X10.21 Z-0.253
X10.202 Y52.95 Z-0.183
X10.218 Y52.316
Z-0.433
X10.226 Z-0.503
X10.249 Z-0.57
X10.287 Y52.317 Z-0.63
X10.337 Y52.318 Z-0.681
X10.397 Y52.32 Z-0.719
X10.465 Y52.322 Z-0.742
X10.535 Y52.323 Z-0.75
X10.853 Y52.331
G3 X11.162 Y52.656 I-0.008 J0.317
X8.838 Y52.599 I-1.162 J-0.029
X11.163 Y52.628 I1.162 J0.029
X11.162 Y52.656 I-1.163
X10.837 Y52.966 I-0.317 J-0.008
G1 X10.52 Y52.958
X10.449 Y52.956 Z-0.742
X10.382 Y52.955 Z-0.719
X10.322 Y52.953 Z-0.681
X10.271 Y52.952 Z-0.63
X10.234 Y52.951 Z-0.57
X10.21 Z-0.503
X10.202 Y52.95 Z-0.433
X10.218 Y52.316
Z-0.683
X10.226 Z-0.753
X10.249 Z-0.82
X10.287 Y52.317 Z-0.88
X10.337 Y52.318 Z-0.931
X10.397 Y52.32 Z-0.969
X10.465 Y52.322 Z-0.992
X10.535 Y52.323 Z-1
X10.853 Y52.331
G3 X11.162 Y52.656 I-0.008 J0.317
X8.838 Y52.599 I-1.162 J-0.029
X11.163 Y52.628 I1.162 J0.029
X11.162 Y52.656 I-1.163
X10.837 Y52.966 I-0.317 J-0.008
G1 X10.52 Y52.958
X10.449 Y52.956 Z-0.992
X10.382 Y52.955 Z-0.969
X10.322 Y52.953 Z-0.931
X10.271 Y52.952 Z-0.88
X10.234 Y52.951 Z-0.82
X10.21 Z-0.753
X10.202 Y52.95 Z-0.683
X10.218 Y52.316
Z-0.933
X10.226 Z-1.003
X10.249 Z-1.07
X10.287 Y52.317 Z-1.13
X10.337 Y52.318 Z-1.181
X10.397 Y52.32 Z-1.219
X10.465 Y52.322 Z-1.242
X10.535 Y52.323 Z-1.25
X10.853 Y52.331
G3 X11.162 Y52.656 I-0.008 J0.317
X8.838 Y52.599 I-1.162 J-0.029
X11.163 Y52.628 I1.162 J0.029
X11.162 Y52.656 I-1.163
X10.837 Y52.966 I-0.317 J-0.008
G1 X10.52 Y52.958
X10.449 Y52.956 Z-1.242
X10.382 Y52.955 Z-1.219
X10.322 Y52.953 Z-1.181
X10.271 Y52.952 Z-1.13
X10.234 Y52.951 Z-1.07
X10.21 Z-1.003
X10.202 Y52.95 Z-0.933
X10.218 Y52.316
Z-1.183
X10.226 Z-1.253
X10.249 Z-1.32
X10.287 Y52.317 Z-1.38
X10.337 Y52.318 Z-1.431
X10.397 Y52.32 Z-1.469
X10.465 Y52.322 Z-1.492
X10.535 Y52.323 Z-1.5
X10.853 Y52.331
G3 X11.162 Y52.656 I-0.008 J0.317
X8.838 Y52.599 I-1.162 J-0.029
X11.163 Y52.628 I1.162 J0.029
X11.162 Y52.656 I-1.163
X10.837 Y52.966 I-0.317 J-0.008
G1 X10.52 Y52.958
X10.449 Y52.956 Z-1.492
X10.382 Y52.955 Z-1.469
X10.322 Y52.953 Z-1.431
X10.271 Y52.952 Z-1.38
X10.234 Y52.951 Z-1.32
X10.21 Z-1.253
X10.202 Y52.95 Z-1.183
X10.218 Y52.316
Z-1.433
X10.226 Z-1.503
X10.249 Z-1.57
X10.287 Y52.317 Z-1.63
X10.337 Y52.318 Z-1.681
X10.397 Y52.32 Z-1.719
X10.465 Y52.322 Z-1.742
X10.535 Y52.323 Z-1.75
X10.853 Y52.331
G3 X11.162 Y52.656 I-0.008 J0.317
X8.838 Y52.599 I-1.162 J-0.029
X11.163 Y52.628 I1.162 J0.029
X11.162 Y52.656 I-1.163
X10.837 Y52.966 I-0.317 J-0.008
G1 X10.52 Y52.958
X10.449 Y52.956 Z-1.742
X10.382 Y52.955 Z-1.719
X10.322 Y52.953 Z-1.681
X10.271 Y52.952 Z-1.63
X10.234 Y52.951 Z-1.57
X10.21 Z-1.503
X10.202 Y52.95 Z-1.433
X10.218 Y52.316
Z-1.683
X10.226 Z-1.753
X10.249 Z-1.82
X10.287 Y52.317 Z-1.88
X10.337 Y52.318 Z-1.931
X10.397 Y52.32 Z-1.969
X10.465 Y52.322 Z-1.992
X10.535 Y52.323 Z-2
X10.853 Y52.331
G3 X11.162 Y52.656 I-0.008 J0.317
X8.838 Y52.599 I-1.162 J-0.029
X11.163 Y52.628 I1.162 J0.029
X11.162 Y52.656 I-1.163
X10.837 Y52.966 I-0.317 J-0.008
G1 X10.52 Y52.958
X10.449 Y52.956 Z-1.992
X10.382 Y52.955 Z-1.969
X10.322 Y52.953 Z-1.931
X10.271 Y52.952 Z-1.88
X10.234 Y52.951 Z-1.82
X10.21 Z-1.753
X10.202 Y52.95 Z-1.683
X10.218 Y52.316
Z-1.933
X10.226 Z-2.003
X10.249 Z-2.07
X10.287 Y52.317 Z-2.13
X10.337 Y52.318 Z-2.181
X10.397 Y52.32 Z-2.219
X10.465 Y52.322 Z-2.242
X10.535 Y52.323 Z-2.25
X10.853 Y52.331
G3 X11.162 Y52.656 I-0.008 J0.317
X8.838 Y52.599 I-1.162 J-0.029
X11.163 Y52.628 I1.162 J0.029
X11.162 Y52.656 I-1.163
X10.837 Y52.966 I-0.317 J-0.008
G1 X10.52 Y52.958
X10.449 Y52.956 Z-2.242
X10.382 Y52.955 Z-2.219
X10.322 Y52.953 Z-2.181
X10.271 Y52.952 Z-2.13
X10.234 Y52.951 Z-2.07
X10.21 Z-2.003
X10.202 Y52.95 Z-1.933
X10.218 Y52.316
Z-2.183
X10.226 Z-2.253
X10.249 Z-2.32
X10.287 Y52.317 Z-2.38
X10.337 Y52.318 Z-2.431
X10.397 Y52.32 Z-2.469
X10.465 Y52.322 Z-2.492
X10.535 Y52.323 Z-2.5
X10.853 Y52.331
G3 X11.162 Y52.656 I-0.008 J0.317
X8.838 Y52.599 I-1.162 J-0.029
X11.163 Y52.628 I1.162 J0.029
X11.162 Y52.656 I-1.163
X10.837 Y52.966 I-0.317 J-0.008
G1 X10.52 Y52.958
X10.449 Y52.956 Z-2.492
X10.382 Y52.955 Z-2.469
X10.322 Y52.953 Z-2.431
X10.271 Y52.952 Z-2.38
X10.234 Y52.951 Z-2.32
X10.21 Z-2.253
X10.202 Y52.95 Z-2.183
X10.218 Y52.316
Z-2.433
X10.226 Z-2.503
X10.249 Z-2.57
X10.287 Y52.317 Z-2.63
X10.337 Y52.318 Z-2.681
X10.397 Y52.32 Z-2.719
X10.465 Y52.322 Z-2.742
X10.535 Y52.323 Z-2.75
X10.853 Y52.331
G3 X11.162 Y52.656 I-0.008 J0.317
X8.838 Y52.599 I-1.162 J-0.029
X11.163 Y52.628 I1.162 J0.029
X11.162 Y52.656 I-1.163
X10.837 Y52.966 I-0.317 J-0.008
G1 X10.52 Y52.958
X10.449 Y52.956 Z-2.742
X10.382 Y52.955 Z-2.719
X10.322 Y52.953 Z-2.681
X10.271 Y52.952 Z-2.63
X10.234 Y52.951 Z-2.57
X10.21 Z-2.503
X10.202 Y52.95 Z-2.433
X10.218 Y52.316
Z-2.683
X10.226 Z-2.753
X10.249 Z-2.82
X10.287 Y52.317 Z-2.88
X10.337 Y52.318 Z-2.931
X10.397 Y52.32 Z-2.969
X10.465 Y52.322 Z-2.992
X10.535 Y52.323 Z-3
X10.853 Y52.331
G3 X11.162 Y52.656 I-0.008 J0.317
X8.838 Y52.599 I-1.162 J-0.029
X11.163 Y52.628 I1.162 J0.029
X11.162 Y52.656 I-1.163
X10.837 Y52.966 I-0.317 J-0.008
G1 X10.52 Y52.958
X10.449 Y52.956 Z-2.992
X10.382 Y52.955 Z-2.969
X10.322 Y52.953 Z-2.931
X10.271 Y52.952 Z-2.88
X10.234 Y52.951 Z-2.82
X10.21 Z-2.753
X10.202 Y52.95 Z-2.683
X10.218 Y52.316
Z-2.834
X10.226 Z-2.904
X10.249 Z-2.971
X10.287 Y52.317 Z-3.031
X10.337 Y52.318 Z-3.082
X10.397 Y52.32 Z-3.12
X10.465 Y52.322 Z-3.143
X10.535 Y52.323 Z-3.151
X10.853 Y52.331
G3 X11.162 Y52.656 I-0.008 J0.317
X8.838 Y52.599 I-1.162 J-0.029
X11.163 Y52.628 I1.162 J0.029
X11.162 Y52.656 I-1.163
X10.837 Y52.966 I-0.317 J-0.008
G1 X10.52 Y52.958
X10.449 Y52.956 Z-3.143
X10.382 Y52.955 Z-3.12
X10.322 Y52.953 Z-3.082
X10.271 Y52.952 Z-3.031
X10.234 Y52.951 Z-2.971
X10.21 Z-2.904
X10.202 Y52.95 Z-2.834
X10.218 Y52.316
Z-2.985
X10.226 Z-3.055
X10.249 Z-3.122
X10.287 Y52.317 Z-3.182
X10.337 Y52.318 Z-3.233
X10.397 Y52.32 Z-3.271
X10.465 Y52.322 Z-3.294
X10.535 Y52.323 Z-3.302
X10.853 Y52.331
G3 X11.162 Y52.656 I-0.008 J0.317
X8.838 Y52.599 I-1.162 J-0.029
X11.163 Y52.628 I1.162 J0.029
X11.162 Y52.656 I-1.163
X10.837 Y52.966 I-0.317 J-0.008
G1 X10.52 Y52.958
X10.449 Y52.956 Z-3.294
X10.382 Y52.955 Z-3.271
X10.322 Y52.953 Z-3.233
X10.271 Y52.952 Z-3.182
X10.234 Y52.951 Z-3.122
X10.21 Z-3.055
X10.202 Y52.95 Z-2.985
G0 Z5
X10.21 Y32.31
G1 Z1.25 F200
Z0.067
G18 G2 X10.528 Z-0.25 I0.318
G1 X10.845
G17 G3 X11.163 Y32.628 J0.318
X8.837 I-1.163
X11.163 I1.163
X10.845 Y32.945 I-0.318
G1 X10.528
G18 G3 X10.21 Z0.067 K0.318
G1 Y32.31
Z-0.183
G2 X10.528 Z-0.5 I0.318
G1 X10.845
G17 G3 X11.163 Y32.628 J0.318
X8.837 I-1.163
X11.163 I1.163
X10.845 Y32.945 I-0.318
G1 X10.528
G18 G3 X10.21 Z-0.183 K0.317
G1 Y32.31
Z-0.433
G2 X10.528 Z-0.75 I0.318
G1 X10.845
G17 G3 X11.163 Y32.628 J0.318
X8.837 I-1.163
X11.163 I1.163
X10.845 Y32.945 I-0.318
G1 X10.528
G18 G3 X10.21 Z-0.433 K0.317
G1 Y32.31
Z-0.683
G2 X10.528 Z-1 I0.318
G1 X10.845
G17 G3 X11.163 Y32.628 J0.318
X8.837 I-1.163
X11.163 I1.163
X10.845 Y32.945 I-0.318
G1 X10.528
G18 G3 X10.21 Z-0.683 K0.317
G1 Y32.31
Z-0.933
G2 X10.528 Z-1.25 I0.318
G1 X10.845
G17 G3 X11.163 Y32.628 J0.318
X8.837 I-1.163
X11.163 I1.163
X10.845 Y32.945 I-0.318
G1 X10.528
G18 G3 X10.21 Z-0.933 K0.317
G1 Y32.31
Z-1.183
G2 X10.528 Z-1.5 I0.318
G1 X10.845
G17 G3 X11.163 Y32.628 J0.318
X8.837 I-1.163
X11.163 I1.163
X10.845 Y32.945 I-0.318
G1 X10.528
G18 G3 X10.21 Z-1.183 K0.317
G1 Y32.31
Z-1.433
G2 X10.528 Z-1.75 I0.318
G1 X10.845
G17 G3 X11.163 Y32.628 J0.318
X8.837 I-1.163
X11.163 I1.163
X10.845 Y32.945 I-0.318
G1 X10.528
G18 G3 X10.21 Z-1.433 K0.317
G1 Y32.31
Z-1.683
G2 X10.528 Z-2 I0.318
G1 X10.845
G17 G3 X11.163 Y32.628 J0.318
X8.837 I-1.163
X11.163 I1.163
X10.845 Y32.945 I-0.318
G1 X10.528
G18 G3 X10.21 Z-1.683 K0.317
G1 Y32.31
Z-1.933
G2 X10.528 Z-2.25 I0.318
G1 X10.845
G17 G3 X11.163 Y32.628 J0.318
X8.837 I-1.163
X11.163 I1.163
X10.845 Y32.945 I-0.318
G1 X10.528
G18 G3 X10.21 Z-1.933 K0.317
G1 Y32.31
Z-2.183
G2 X10.528 Z-2.5 I0.318
G1 X10.845
G17 G3 X11.163 Y32.628 J0.318
X8.837 I-1.163
X11.163 I1.163
X10.845 Y32.945 I-0.318
G1 X10.528
G18 G3 X10.21 Z-2.183 K0.318
G1 Y32.31
Z-2.433
G2 X10.528 Z-2.75 I0.318
G1 X10.845
G17 G3 X11.163 Y32.628 J0.318
X8.837 I-1.163
X11.163 I1.163
X10.845 Y32.945 I-0.318
G1 X10.528
G18 G3 X10.21 Z-2.433 K0.318
G1 Y32.31
Z-2.683
G2 X10.528 Z-3 I0.318
G1 X10.845
G17 G3 X11.163 Y32.628 J0.318
X8.837 I-1.163
X11.163 I1.163
X10.845 Y32.945 I-0.318
G1 X10.528
G18 G3 X10.21 Z-2.683 K0.318
G1 Y32.31
Z-2.834
G2 X10.528 Z-3.151 I0.318
G1 X10.845
G17 G3 X11.163 Y32.628 J0.318
X8.837 I-1.163
X11.163 I1.163
X10.845 Y32.945 I-0.318
G1 X10.528
G18 G3 X10.21 Z-2.834 K0.318
G1 Y32.31
Z-2.985
G2 X10.528 Z-3.302 I0.318
G1 X10.845
G17 G3 X11.163 Y32.628 J0.318
X8.837 I-1.163
X11.163 I1.163
X10.845 Y32.945 I-0.318
G1 X10.528
G18 G3 X10.21 Z-2.985 K0.318
G0 Z5
X564.885 Y32.31
G1 Z1.25 F200
Z0.067
G2 X565.203 Z-0.25 I0.318
G1 X565.52
G17 G3 X565.838 Y32.628 J0.318
X563.513 I-1.163
X565.838 I1.162
X565.52 Y32.945 I-0.318
G1 X565.203
G18 G3 X564.885 Z0.067 K0.318
G1 Y32.31
Z-0.183
G2 X565.203 Z-0.5 I0.318
G1 X565.52
G17 G3 X565.838 Y32.628 J0.318
X563.513 I-1.163
X565.838 I1.162
X565.52 Y32.945 I-0.318
G1 X565.203
G18 G3 X564.885 Z-0.183 K0.317
G1 Y32.31
Z-0.433
G2 X565.203 Z-0.75 I0.318
G1 X565.52
G17 G3 X565.838 Y32.628 J0.318
X563.513 I-1.163
X565.838 I1.162
X565.52 Y32.945 I-0.318
G1 X565.203
G18 G3 X564.885 Z-0.433 K0.317
G1 Y32.31
Z-0.683
G2 X565.203 Z-1 I0.318
G1 X565.52
G17 G3 X565.838 Y32.628 J0.318
X563.513 I-1.163
X565.838 I1.162
X565.52 Y32.945 I-0.318
G1 X565.203
G18 G3 X564.885 Z-0.683 K0.317
G1 Y32.31
Z-0.933
G2 X565.203 Z-1.25 I0.318
G1 X565.52
G17 G3 X565.838 Y32.628 J0.318
X563.513 I-1.163
X565.838 I1.162
X565.52 Y32.945 I-0.318
G1 X565.203
G18 G3 X564.885 Z-0.933 K0.317
G1 Y32.31
Z-1.183
G2 X565.203 Z-1.5 I0.318
G1 X565.52
G17 G3 X565.838 Y32.628 J0.318
X563.513 I-1.163
X565.838 I1.162
X565.52 Y32.945 I-0.318
G1 X565.203
G18 G3 X564.885 Z-1.183 K0.317
G1 Y32.31
Z-1.433
G2 X565.203 Z-1.75 I0.318
G1 X565.52
G17 G3 X565.838 Y32.628 J0.318
X563.513 I-1.163
X565.838 I1.162
X565.52 Y32.945 I-0.318
G1 X565.203
G18 G3 X564.885 Z-1.433 K0.317
G1 Y32.31
Z-1.683
G2 X565.203 Z-2 I0.318
G1 X565.52
G17 G3 X565.838 Y32.628 J0.318
X563.513 I-1.163
X565.838 I1.162
X565.52 Y32.945 I-0.318
G1 X565.203
G18 G3 X564.885 Z-1.683 K0.317
G1 Y32.31
Z-1.933
G2 X565.203 Z-2.25 I0.318
G1 X565.52
G17 G3 X565.838 Y32.628 J0.318
X563.513 I-1.163
X565.838 I1.162
X565.52 Y32.945 I-0.318
G1 X565.203
G18 G3 X564.885 Z-1.933 K0.317
G1 Y32.31
Z-2.183
G2 X565.203 Z-2.5 I0.318
G1 X565.52
G17 G3 X565.838 Y32.628 J0.318
X563.513 I-1.163
X565.838 I1.162
X565.52 Y32.945 I-0.318
G1 X565.203
G18 G3 X564.885 Z-2.183 K0.318
G1 Y32.31
Z-2.433
G2 X565.203 Z-2.75 I0.318
G1 X565.52
G17 G3 X565.838 Y32.628 J0.318
X563.513 I-1.163
X565.838 I1.162
X565.52 Y32.945 I-0.318
G1 X565.203
G18 G3 X564.885 Z-2.433 K0.318
G1 Y32.31
Z-2.683
G2 X565.203 Z-3 I0.318
G1 X565.52
G17 G3 X565.838 Y32.628 J0.318
X563.513 I-1.163
X565.838 I1.162
X565.52 Y32.945 I-0.318
G1 X565.203
G18 G3 X564.885 Z-2.683 K0.318
G1 Y32.31
Z-2.834
G2 X565.203 Z-3.151 I0.318
G1 X565.52
G17 G3 X565.838 Y32.628 J0.318
X563.513 I-1.163
X565.838 I1.162
X565.52 Y32.945 I-0.318
G1 X565.203
G18 G3 X564.885 Z-2.834 K0.318
G1 Y32.31
Z-2.985
G2 X565.203 Z-3.302 I0.318
G1 X565.52
G17 G3 X565.838 Y32.628 J0.318
X563.513 I-1.163
X565.838 I1.162
X565.52 Y32.945 I-0.318
G1 X565.203
G18 G3 X564.885 Z-2.985 K0.318
G0 Z5
Y52.31
G1 Z1.25 F200
Z0.067
G2 X565.203 Z-0.25 I0.318
G1 X565.52
G17 G3 X565.838 Y52.628 J0.318
X563.513 I-1.163
X565.838 I1.162
X565.52 Y52.945 I-0.318
G1 X565.203
G18 G3 X564.885 Z0.067 K0.318
G1 Y52.31
Z-0.183
G2 X565.203 Z-0.5 I0.318
G1 X565.52
G17 G3 X565.838 Y52.628 J0.318
X563.513 I-1.163
X565.838 I1.162
X565.52 Y52.945 I-0.318
G1 X565.203
G18 G3 X564.885 Z-0.183 K0.317
G1 Y52.31
Z-0.433
G2 X565.203 Z-0.75 I0.318
G1 X565.52
G17 G3 X565.838 Y52.628 J0.318
X563.513 I-1.163
X565.838 I1.162
X565.52 Y52.945 I-0.318
G1 X565.203
G18 G3 X564.885 Z-0.433 K0.317
G1 Y52.31
Z-0.683
G2 X565.203 Z-1 I0.318
G1 X565.52
G17 G3 X565.838 Y52.628 J0.318
X563.513 I-1.163
X565.838 I1.162
X565.52 Y52.945 I-0.318
G1 X565.203
G18 G3 X564.885 Z-0.683 K0.317
G1 Y52.31
Z-0.933
G2 X565.203 Z-1.25 I0.318
G1 X565.52
G17 G3 X565.838 Y52.628 J0.318
X563.513 I-1.163
X565.838 I1.162
X565.52 Y52.945 I-0.318
G1 X565.203
G18 G3 X564.885 Z-0.933 K0.317
G1 Y52.31
Z-1.183
G2 X565.203 Z-1.5 I0.318
G1 X565.52
G17 G3 X565.838 Y52.628 J0.318
X563.513 I-1.163
X565.838 I1.162
X565.52 Y52.945 I-0.318
G1 X565.203
G18 G3 X564.885 Z-1.183 K0.317
G1 Y52.31
Z-1.433
G2 X565.203 Z-1.75 I0.318
G1 X565.52
G17 G3 X565.838 Y52.628 J0.318
X563.513 I-1.163
X565.838 I1.162
X565.52 Y52.945 I-0.318
G1 X565.203
G18 G3 X564.885 Z-1.433 K0.317
G1 Y52.31
Z-1.683
G2 X565.203 Z-2 I0.318
G1 X565.52
G17 G3 X565.838 Y52.628 J0.318
X563.513 I-1.163
X565.838 I1.162
X565.52 Y52.945 I-0.318
G1 X565.203
G18 G3 X564.885 Z-1.683 K0.317
G1 Y52.31
Z-1.933
G2 X565.203 Z-2.25 I0.318
G1 X565.52
G17 G3 X565.838 Y52.628 J0.318
X563.513 I-1.163
X565.838 I1.162
X565.52 Y52.945 I-0.318
G1 X565.203
G18 G3 X564.885 Z-1.933 K0.317
G1 Y52.31
Z-2.183
G2 X565.203 Z-2.5 I0.318
G1 X565.52
G17 G3 X565.838 Y52.628 J0.318
X563.513 I-1.163
X565.838 I1.162
X565.52 Y52.945 I-0.318
G1 X565.203
G18 G3 X564.885 Z-2.183 K0.318
G1 Y52.31
Z-2.433
G2 X565.203 Z-2.75 I0.318
G1 X565.52
G17 G3 X565.838 Y52.628 J0.318
X563.513 I-1.163
X565.838 I1.162
X565.52 Y52.945 I-0.318
G1 X565.203
G18 G3 X564.885 Z-2.433 K0.318
G1 Y52.31
Z-2.683
G2 X565.203 Z-3 I0.318
G1 X565.52
G17 G3 X565.838 Y52.628 J0.318
X563.513 I-1.163
X565.838 I1.162
X565.52 Y52.945 I-0.318
G1 X565.203
G18 G3 X564.885 Z-2.683 K0.318
G1 Y52.31
Z-2.834
G2 X565.203 Z-3.151 I0.318
G1 X565.52
G17 G3 X565.838 Y52.628 J0.318
X563.513 I-1.163
X565.838 I1.162
X565.52 Y52.945 I-0.318
G1 X565.203
G18 G3 X564.885 Z-2.834 K0.318
G1 Y52.31
Z-2.985
G2 X565.203 Z-3.302 I0.318
G1 X565.52
G17 G3 X565.838 Y52.628 J0.318
X563.513 I-1.163
X565.838 I1.162
X565.52 Y52.945 I-0.318
G1 X565.203
G18 G3 X564.885 Z-2.985 K0.318
G0 Z15
G17
M9
M30
%
