%
(1)
(Holes)
(T1  D=3.175 CR=0 - ZMIN=-3.302 - flat end mill)
G90 G94
G17
G21

(2D Contour4)
M9
T1 M6
S10000 M3
G54
M9
G0 X575.191 Y20.121
Z15
Z5
G1 Z1.25 F200
Z0.067
X575.19 Y20.129 Z-0.003
X575.188 Y20.152 Z-0.07
X575.185 Y20.19 Z-0.13
X575.182 Y20.24 Z-0.181
X575.177 Y20.3 Z-0.219
X575.172 Y20.367 Z-0.242
X575.166 Y20.437 Z-0.25
X575.141 Y20.754
G3 X574.8 Y21.045 I-0.316 J-0.025
G1 X287.462 Y-1.583
G2 X287.212 I-0.125 J1.583
G1 X-0.125 Y21.045
G2 X-1.587 Y22.628 I0.125 J1.583
G1 Y62.628
G2 X0 Y64.215 I1.587
G1 X574.675
G2 X576.263 Y62.628 J-1.588
G1 Y22.628
G2 X574.8 Y21.045 I-1.588
G3 X574.508 Y20.704 I0.025 J-0.317
G1 X574.533 Y20.387
X574.539 Y20.317 Z-0.242
X574.544 Y20.25 Z-0.219
X574.548 Y20.19 Z-0.181
X574.552 Y20.14 Z-0.13
X574.555 Y20.102 Z-0.07
X574.557 Y20.079 Z-0.003
X574.558 Y20.071 Z0.067
X575.191 Y20.121
Z-0.183
X575.19 Y20.129 Z-0.253
X575.188 Y20.152 Z-0.32
X575.185 Y20.19 Z-0.38
X575.182 Y20.24 Z-0.431
X575.177 Y20.3 Z-0.469
X575.172 Y20.367 Z-0.492
X575.166 Y20.437 Z-0.5
X575.141 Y20.754
G3 X574.8 Y21.045 I-0.316 J-0.025
G1 X287.462 Y-1.583
G2 X287.212 I-0.125 J1.583
G1 X-0.125 Y21.045
G2 X-1.587 Y22.628 I0.125 J1.583
G1 Y62.628
G2 X0 Y64.215 I1.587
G1 X574.675
G2 X576.263 Y62.628 J-1.588
G1 Y22.628
G2 X574.8 Y21.045 I-1.588
G3 X574.508 Y20.704 I0.025 J-0.317
G1 X574.533 Y20.387
X574.539 Y20.317 Z-0.492
X574.544 Y20.25 Z-0.469
X574.548 Y20.19 Z-0.431
X574.552 Y20.14 Z-0.38
X574.555 Y20.102 Z-0.32
X574.557 Y20.079 Z-0.253
X574.558 Y20.071 Z-0.183
X575.191 Y20.121
Z-0.433
X575.19 Y20.129 Z-0.503
X575.188 Y20.152 Z-0.57
X575.185 Y20.19 Z-0.63
X575.182 Y20.24 Z-0.681
X575.177 Y20.3 Z-0.719
X575.172 Y20.367 Z-0.742
X575.166 Y20.437 Z-0.75
X575.141 Y20.754
G3 X574.8 Y21.045 I-0.316 J-0.025
G1 X287.462 Y-1.583
G2 X287.212 I-0.125 J1.583
G1 X-0.125 Y21.045
G2 X-1.587 Y22.628 I0.125 J1.583
G1 Y62.628
G2 X0 Y64.215 I1.587
G1 X574.675
G2 X576.263 Y62.628 J-1.588
G1 Y22.628
G2 X574.8 Y21.045 I-1.588
G3 X574.508 Y20.704 I0.025 J-0.317
G1 X574.533 Y20.387
X574.539 Y20.317 Z-0.742
X574.544 Y20.25 Z-0.719
X574.548 Y20.19 Z-0.681
X574.552 Y20.14 Z-0.63
X574.555 Y20.102 Z-0.57
X574.557 Y20.079 Z-0.503
X574.558 Y20.071 Z-0.433
X575.191 Y20.121
Z-0.683
X575.19 Y20.129 Z-0.753
X575.188 Y20.152 Z-0.82
X575.185 Y20.19 Z-0.88
X575.182 Y20.24 Z-0.931
X575.177 Y20.3 Z-0.969
X575.172 Y20.367 Z-0.992
X575.166 Y20.437 Z-1
X575.141 Y20.754
G3 X574.8 Y21.045 I-0.316 J-0.025
G1 X287.462 Y-1.583
G2 X287.212 I-0.125 J1.583
G1 X-0.125 Y21.045
G2 X-1.587 Y22.628 I0.125 J1.583
G1 Y62.628
G2 X0 Y64.215 I1.587
G1 X574.675
G2 X576.263 Y62.628 J-1.588
G1 Y22.628
G2 X574.8 Y21.045 I-1.588
G3 X574.508 Y20.704 I0.025 J-0.317
G1 X574.533 Y20.387
X574.539 Y20.317 Z-0.992
X574.544 Y20.25 Z-0.969
X574.548 Y20.19 Z-0.931
X574.552 Y20.14 Z-0.88
X574.555 Y20.102 Z-0.82
X574.557 Y20.079 Z-0.753
X574.558 Y20.071 Z-0.683
X575.191 Y20.121
Z-0.933
X575.19 Y20.129 Z-1.003
X575.188 Y20.152 Z-1.07
X575.185 Y20.19 Z-1.13
X575.182 Y20.24 Z-1.181
X575.177 Y20.3 Z-1.219
X575.172 Y20.367 Z-1.242
X575.166 Y20.437 Z-1.25
X575.141 Y20.754
G3 X574.8 Y21.045 I-0.316 J-0.025
G1 X287.462 Y-1.583
G2 X287.212 I-0.125 J1.583
G1 X-0.125 Y21.045
G2 X-1.587 Y22.628 I0.125 J1.583
G1 Y62.628
G2 X0 Y64.215 I1.587
G1 X574.675
G2 X576.263 Y62.628 J-1.588
G1 Y22.628
G2 X574.8 Y21.045 I-1.588
G3 X574.508 Y20.704 I0.025 J-0.317
G1 X574.533 Y20.387
X574.539 Y20.317 Z-1.242
X574.544 Y20.25 Z-1.219
X574.548 Y20.19 Z-1.181
X574.552 Y20.14 Z-1.13
X574.555 Y20.102 Z-1.07
X574.557 Y20.079 Z-1.003
X574.558 Y20.071 Z-0.933
X575.191 Y20.121
Z-1.183
X575.19 Y20.129 Z-1.253
X575.188 Y20.152 Z-1.32
X575.185 Y20.19 Z-1.38
X575.182 Y20.24 Z-1.431
X575.177 Y20.3 Z-1.469
X575.172 Y20.367 Z-1.492
X575.166 Y20.437 Z-1.5
X575.141 Y20.754
G3 X574.8 Y21.045 I-0.316 J-0.025
G1 X287.462 Y-1.583
G2 X287.212 I-0.125 J1.583
G1 X-0.125 Y21.045
G2 X-1.587 Y22.628 I0.125 J1.583
G1 Y62.628
G2 X0 Y64.215 I1.587
G1 X574.675
G2 X576.263 Y62.628 J-1.588
G1 Y22.628
G2 X574.8 Y21.045 I-1.588
G3 X574.508 Y20.704 I0.025 J-0.317
G1 X574.533 Y20.387
X574.539 Y20.317 Z-1.492
X574.544 Y20.25 Z-1.469
X574.548 Y20.19 Z-1.431
X574.552 Y20.14 Z-1.38
X574.555 Y20.102 Z-1.32
X574.557 Y20.079 Z-1.253
X574.558 Y20.071 Z-1.183
X575.191 Y20.121
Z-1.433
X575.19 Y20.129 Z-1.503
X575.188 Y20.152 Z-1.57
X575.185 Y20.19 Z-1.63
X575.182 Y20.24 Z-1.681
X575.177 Y20.3 Z-1.719
X575.172 Y20.367 Z-1.742
X575.166 Y20.437 Z-1.75
X575.141 Y20.754
G3 X574.8 Y21.045 I-0.316 J-0.025
G1 X287.462 Y-1.583
G2 X287.212 I-0.125 J1.583
G1 X-0.125 Y21.045
G2 X-1.587 Y22.628 I0.125 J1.583
G1 Y62.628
G2 X0 Y64.215 I1.587
G1 X574.675
G2 X576.263 Y62.628 J-1.588
G1 Y22.628
G2 X574.8 Y21.045 I-1.588
G3 X574.508 Y20.704 I0.025 J-0.317
G1 X574.533 Y20.387
X574.539 Y20.317 Z-1.742
X574.544 Y20.25 Z-1.719
X574.548 Y20.19 Z-1.681
X574.552 Y20.14 Z-1.63
X574.555 Y20.102 Z-1.57
X574.557 Y20.079 Z-1.503
X574.558 Y20.071 Z-1.433
X575.191 Y20.121
Z-1.683
X575.19 Y20.129 Z-1.753
X575.188 Y20.152 Z-1.82
X575.185 Y20.19 Z-1.88
X575.182 Y20.24 Z-1.931
X575.177 Y20.3 Z-1.969
X575.172 Y20.367 Z-1.992
X575.166 Y20.437 Z-2
X575.141 Y20.754
G3 X574.8 Y21.045 I-0.316 J-0.025
G1 X287.462 Y-1.583
G2 X287.212 I-0.125 J1.583
G1 X-0.125 Y21.045
G2 X-1.587 Y22.628 I0.125 J1.583
G1 Y62.628
G2 X0 Y64.215 I1.587
G1 X574.675
G2 X576.263 Y62.628 J-1.588
G1 Y22.628
G2 X574.8 Y21.045 I-1.588
G3 X574.508 Y20.704 I0.025 J-0.317
G1 X574.533 Y20.387
X574.539 Y20.317 Z-1.992
X574.544 Y20.25 Z-1.969
X574.548 Y20.19 Z-1.931
X574.552 Y20.14 Z-1.88
X574.555 Y20.102 Z-1.82
X574.557 Y20.079 Z-1.753
X574.558 Y20.071 Z-1.683
X575.191 Y20.121
Z-1.933
X575.19 Y20.129 Z-2.003
X575.188 Y20.152 Z-2.07
X575.185 Y20.19 Z-2.13
X575.182 Y20.24 Z-2.181
X575.177 Y20.3 Z-2.219
X575.172 Y20.367 Z-2.242
X575.166 Y20.437 Z-2.25
X575.141 Y20.754
G3 X574.8 Y21.045 I-0.316 J-0.025
G1 X287.462 Y-1.583
G2 X287.212 I-0.125 J1.583
G1 X-0.125 Y21.045
G2 X-1.587 Y22.628 I0.125 J1.583
G1 Y62.628
G2 X0 Y64.215 I1.587
G1 X574.675
G2 X576.263 Y62.628 J-1.588
G1 Y22.628
G2 X574.8 Y21.045 I-1.588
G3 X574.508 Y20.704 I0.025 J-0.317
G1 X574.533 Y20.387
X574.539 Y20.317 Z-2.242
X574.544 Y20.25 Z-2.219
X574.548 Y20.19 Z-2.181
X574.552 Y20.14 Z-2.13
X574.555 Y20.102 Z-2.07
X574.557 Y20.079 Z-2.003
X574.558 Y20.071 Z-1.933
X575.191 Y20.121
Z-2.183
X575.19 Y20.129 Z-2.253
X575.188 Y20.152 Z-2.32
X575.185 Y20.19 Z-2.38
X575.182 Y20.24 Z-2.431
X575.177 Y20.3 Z-2.469
X575.172 Y20.367 Z-2.492
X575.166 Y20.437 Z-2.5
X575.141 Y20.754
G3 X574.8 Y21.045 I-0.316 J-0.025
G1 X287.462 Y-1.583
G2 X287.212 I-0.125 J1.583
G1 X-0.125 Y21.045
G2 X-1.587 Y22.628 I0.125 J1.583
G1 Y62.628
G2 X0 Y64.215 I1.587
G1 X574.675
G2 X576.263 Y62.628 J-1.588
G1 Y22.628
G2 X574.8 Y21.045 I-1.588
G3 X574.508 Y20.704 I0.025 J-0.317
G1 X574.533 Y20.387
X574.539 Y20.317 Z-2.492
X574.544 Y20.25 Z-2.469
X574.548 Y20.19 Z-2.431
X574.552 Y20.14 Z-2.38
X574.555 Y20.102 Z-2.32
X574.557 Y20.079 Z-2.253
X574.558 Y20.071 Z-2.183
X575.191 Y20.121
Z-2.433
X575.19 Y20.129 Z-2.503
X575.188 Y20.152 Z-2.57
X575.185 Y20.19 Z-2.63
X575.182 Y20.24 Z-2.681
X575.177 Y20.3 Z-2.719
X575.172 Y20.367 Z-2.742
X575.166 Y20.437 Z-2.75
X575.141 Y20.754
G3 X574.8 Y21.045 I-0.316 J-0.025
G1 X287.462 Y-1.583
G2 X287.212 I-0.125 J1.583
G1 X-0.125 Y21.045
G2 X-1.587 Y22.628 I0.125 J1.583
G1 Y62.628
G2 X0 Y64.215 I1.587
G1 X574.675
G2 X576.263 Y62.628 J-1.588
G1 Y22.628
G2 X574.8 Y21.045 I-1.588
G3 X574.508 Y20.704 I0.025 J-0.317
G1 X574.533 Y20.387
X574.539 Y20.317 Z-2.742
X574.544 Y20.25 Z-2.719
X574.548 Y20.19 Z-2.681
X574.552 Y20.14 Z-2.63
X574.555 Y20.102 Z-2.57
X574.557 Y20.079 Z-2.503
X574.558 Y20.071 Z-2.433
X575.191 Y20.121
Z-2.683
X575.19 Y20.129 Z-2.753
X575.188 Y20.152 Z-2.82
X575.185 Y20.19 Z-2.88
X575.182 Y20.24 Z-2.931
X575.177 Y20.3 Z-2.969
X575.172 Y20.367 Z-2.992
X575.166 Y20.437 Z-3
X575.141 Y20.754
G3 X574.8 Y21.045 I-0.316 J-0.025
G1 X287.462 Y-1.583
G2 X287.212 I-0.125 J1.583
G1 X-0.125 Y21.045
G2 X-1.587 Y22.628 I0.125 J1.583
G1 Y62.628
G2 X0 Y64.215 I1.587
G1 X574.675
G2 X576.263 Y62.628 J-1.588
G1 Y22.628
G2 X574.8 Y21.045 I-1.588
G3 X574.508 Y20.704 I0.025 J-0.317
G1 X574.533 Y20.387
X574.539 Y20.317 Z-2.992
X574.544 Y20.25 Z-2.969
X574.548 Y20.19 Z-2.931
X574.552 Y20.14 Z-2.88
X574.555 Y20.102 Z-2.82
X574.557 Y20.079 Z-2.753
X574.558 Y20.071 Z-2.683
X575.191 Y20.121
Z-2.834
X575.19 Y20.129 Z-2.904
X575.188 Y20.152 Z-2.971
X575.185 Y20.19 Z-3.031
X575.182 Y20.24 Z-3.082
X575.177 Y20.3 Z-3.12
X575.172 Y20.367 Z-3.143
X575.166 Y20.437 Z-3.151
X575.141 Y20.754
G3 X574.8 Y21.045 I-0.316 J-0.025
G1 X287.462 Y-1.583
G2 X287.212 I-0.125 J1.583
G1 X-0.125 Y21.045
G2 X-1.587 Y22.628 I0.125 J1.583
G1 Y62.628
G2 X0 Y64.215 I1.587
G1 X574.675
G2 X576.263 Y62.628 J-1.588
G1 Y22.628
G2 X574.8 Y21.045 I-1.588
G3 X574.508 Y20.704 I0.025 J-0.317
G1 X574.533 Y20.387
X574.539 Y20.317 Z-3.143
X574.544 Y20.25 Z-3.12
X574.548 Y20.19 Z-3.082
X574.552 Y20.14 Z-3.031
X574.555 Y20.102 Z-2.971
X574.557 Y20.079 Z-2.904
X574.558 Y20.071 Z-2.834
X575.191 Y20.121
Z-2.985
X575.19 Y20.129 Z-3.055
X575.188 Y20.152 Z-3.122
X575.185 Y20.19 Z-3.182
X575.182 Y20.24 Z-3.233
X575.177 Y20.3 Z-3.271
X575.172 Y20.367 Z-3.294
X575.166 Y20.437 Z-3.302
X575.141 Y20.754
G3 X574.8 Y21.045 I-0.316 J-0.025
G1 X287.462 Y-1.583
G2 X287.212 I-0.125 J1.583
G1 X-0.125 Y21.045
G2 X-1.587 Y22.628 I0.125 J1.583
G1 Y62.628
G2 X0 Y64.215 I1.587
G1 X574.675
G2 X576.263 Y62.628 J-1.588
G1 Y22.628
G2 X574.8 Y21.045 I-1.588
G3 X574.508 Y20.704 I0.025 J-0.317
G1 X574.533 Y20.387
X574.539 Y20.317 Z-3.294
X574.544 Y20.25 Z-3.271
X574.548 Y20.19 Z-3.233
X574.552 Y20.14 Z-3.182
X574.555 Y20.102 Z-3.122
X574.557 Y20.079 Z-3.055
X574.558 Y20.071 Z-2.985
G0 Z15
M9
M30
%
