%
(1)
(Holes)
(T1  D=3.17 CR=0 TAPER=30deg - ZMIN=-0.538 - chamfer mill)
G90 G94
G17
G21

(Engrave2)
M9
T1 M6
S12000 M3
G54
M9
G0 X16.137 Y17.117
Z15
Z5
G1 Z0.087 F250
X16.345 Y17.324 Z-0.273
X16.137 Y17.532 Z0.087
X16.345 Y17.324 Z-0.273
X16.89 Y17.323 Z-0.274
X16.915 Y17.321 Z-0.278
X16.94 Y17.318 Z-0.284
X16.965 Y17.312 Z-0.293
X17.014 Y17.298 Z-0.319
X17.064 Y17.277 Z-0.355
X17.114 Y17.25 Z-0.401
X17.163 Y17.277 Z-0.355
X17.213 Y17.298 Z-0.319
X17.262 Y17.312 Z-0.293
X17.287 Y17.318 Z-0.284
X17.312 Y17.321 Z-0.278
X17.337 Y17.323 Z-0.274
X17.361 Y17.324 Z-0.273
X17.88
X18.088 Y17.117 Z0.087
X17.88 Y17.324 Z-0.273
X18.088 Y17.532 Z0.087
X17.88 Y17.324 Z-0.273
X17.361
X17.337 Y17.323 Z-0.274
X17.312 Y17.321 Z-0.278
X17.287 Y17.318 Z-0.284
X17.262 Y17.312 Z-0.293
X17.213 Y17.298 Z-0.319
X17.163 Y17.277 Z-0.355
X17.114 Y17.25 Z-0.401
Y17.237 Z-0.39
Y17.203 Z-0.368
Y17.17 Z-0.352
Y17.143 Z-0.345
Y15.325 Z-0.343
X17.361 Y15.077 Z0.087
X17.114 Y15.325 Z-0.343
X16.866 Y15.077 Z0.087
G0 Z5
X19.278 Y16.39
G1 Z-0.288 F250
X19.304 Y16.359 Z-0.252
X19.327 Y16.333 Z-0.227
X19.348 Y16.311 Z-0.211
X19.37 Y16.292 Z-0.202
X19.391 Y16.274 Z-0.198
X19.413 Y16.258 Z-0.2
X19.443 Y16.238 Z-0.207
X19.489 Y16.206 Z-0.223
X19.527 Y16.172 Z-0.242
X19.561 Y16.137 Z-0.257
X19.585 Y16.106 Z-0.266
X19.618 Y16.055 Z-0.281
X19.626 Y16.041 Z-0.286
X19.642 Y16.002 Z-0.293
X19.661 Y15.948 Z-0.305
X19.669 Y15.91 Z-0.311
X19.676 Y15.846 Z-0.314
X19.678 Y15.801 Z-0.316
X19.671 Y15.711 Z-0.315
X19.661 Y15.642
X19.647 Y15.588 Z-0.314
X19.632 Y15.552 Z-0.311
X19.61 Y15.508 Z-0.305
X19.577 Y15.457 Z-0.299
X19.54 Y15.405 Z-0.293
X19.507 Y15.372 Z-0.282
X19.48 Y15.35 Z-0.278
X19.418 Y15.304 Z-0.271
X19.372 Y15.277 Z-0.264
X19.325 Y15.258 Z-0.257
X19.281 Y15.245 Z-0.251
X19.239 Y15.236 Z-0.246
X19.177 Y15.228 Z-0.242
X19.102 Y15.224 Z-0.24
X19.051 Y15.228 Z-0.241
X18.986 Y15.236 Z-0.245
X18.931 Y15.247 Z-0.25
X18.879 Y15.264 Z-0.257
X18.836 Y15.284 Z-0.263
X18.787 Y15.313 Z-0.27
X18.727 Y15.355 Z-0.281
X18.692 Y15.384 Z-0.289
X18.67 Y15.41 Z-0.293
X18.618 Y15.479 Z-0.306
X18.585 Y15.53 Z-0.314
X18.572 Y15.558 Z-0.317
X18.558 Y15.6
X18.544 Y15.66 Z-0.316
X18.536 Y15.721 Z-0.315
X18.53 Y15.782 Z-0.316
X18.532 Y15.844 Z-0.311
X18.539 Y15.896 Z-0.308
X18.547 Y15.936 Z-0.303
X18.563 Y15.989 Z-0.293
X18.58 Y16.031 Z-0.286
X18.609 Y16.083 Z-0.272
X18.643 Y16.132 Z-0.258
X18.668 Y16.162 Z-0.246
X18.708 Y16.2 Z-0.226
X18.752 Y16.233 Z-0.21
X18.798 Y16.264 Z-0.198
X18.819 Y16.281
X18.839 Y16.299 Z-0.203
X18.86 Y16.319 Z-0.214
X18.88 Y16.34 Z-0.231
X18.902 Y16.365 Z-0.256
X18.922 Y16.389 Z-0.285
X18.899 Y16.42 Z-0.247
X18.878 Y16.448 Z-0.219
X18.858 Y16.472 Z-0.201
X18.838 Y16.492 Z-0.189
X18.818 Y16.511 Z-0.182
X18.796 Y16.529 Z-0.181
X18.777 Y16.542 Z-0.184
X18.731 Y16.578 Z-0.206
X18.69 Y16.615 Z-0.228
X18.666 Y16.642 Z-0.241
X18.642 Y16.677 Z-0.254
X18.616 Y16.725 Z-0.271
X18.599 Y16.775 Z-0.283
X18.589 Y16.819 Z-0.292
X18.585 Y16.856 Z-0.296
X18.583 Y16.901 Z-0.299
Y16.906 Z-0.3
X18.585 Y16.931
X18.592 Y16.985
X18.601 Y17.03 Z-0.302
X18.612 Y17.068
X18.628 Y17.102 Z-0.3
X18.657 Y17.147 Z-0.294
X18.697 Y17.2 Z-0.29
X18.72 Y17.222 Z-0.281
X18.747 Y17.245 Z-0.274
X18.805 Y17.284 Z-0.267
X18.847 Y17.307 Z-0.261
X18.894 Y17.326 Z-0.253
X18.936 Y17.337 Z-0.247
X18.987 Y17.346 Z-0.241
X19.066 Y17.353 Z-0.237
X19.098 Y17.355 Z-0.236
X19.171 Y17.35 Z-0.238
X19.227 Y17.343 Z-0.242
X19.278 Y17.332 Z-0.248
X19.318 Y17.319 Z-0.254
X19.361 Y17.299 Z-0.26
X19.411 Y17.268 Z-0.267
X19.451 Y17.24 Z-0.272
X19.494 Y17.201 Z-0.285
X19.532 Y17.153 Z-0.29
X19.556 Y17.118 Z-0.294
X19.577 Y17.078 Z-0.298
X19.59 Y17.041 Z-0.299
X19.602 Y16.985 Z-0.297
X19.611 Y16.907
X19.609 Y16.863 Z-0.293
X19.604 Y16.816 Z-0.29
X19.597 Y16.784 Z-0.283
X19.581 Y16.738 Z-0.271
X19.574 Y16.718 Z-0.266
X19.552 Y16.679 Z-0.253
X19.529 Y16.645 Z-0.241
X19.506 Y16.617 Z-0.229
X19.458 Y16.572 Z-0.205
X19.429 Y16.548 Z-0.191
X19.41 Y16.535 Z-0.186
X19.388 Y16.517
X19.366 Y16.498 Z-0.191
X19.345 Y16.476 Z-0.202
X19.324 Y16.452 Z-0.221
X19.302 Y16.423 Z-0.249
X19.278 Y16.39 Z-0.288
X19.246 Y16.389 Z-0.272
X19.199 Z-0.256
X19.146 Z-0.245
X19.107 Z-0.24
X19.053 Z-0.245
X19 Z-0.255
X18.962 Z-0.267
X18.922 Z-0.285
G0 Z5
X21.281 Y15.077
G1 Z0.087 F250
X21.55 Y15.346 Z-0.379
X21.595 Y15.324 Z-0.34
X21.64 Y15.306 Z-0.31
X21.686 Y15.294 Z-0.289
X21.731 Y15.287 Z-0.276
X21.777 Y15.284 Z-0.271
X22.802
X23.009 Y15.491 Z0.087
X22.802 Y15.284 Z-0.271
X23.009 Y15.077 Z0.087
X22.802 Y15.284 Z-0.271
X21.777
X21.731 Y15.287 Z-0.276
X21.686 Y15.294 Z-0.289
X21.64 Y15.306 Z-0.31
X21.595 Y15.324 Z-0.34
X21.55 Y15.346 Z-0.379
X21.542 Y15.375 Z-0.366
X21.534 Y15.418 Z-0.352
X21.53 Y15.462 Z-0.344
X21.529 Y17.264 Z-0.343
X21.777 Y17.512 Z0.087
X21.529 Y17.264 Z-0.343
X21.281 Y17.512 Z0.087
G0 Z5
X22.222 Y11.207
G1 Z0.087 F250
X22.491 Y11.476 Z-0.379
X22.514 Y11.465 Z-0.359
X22.559 Y11.445 Z-0.324
X22.604 Y11.43 Z-0.298
X22.65 Y11.42 Z-0.281
X22.695 Y11.415 Z-0.273
X23.088 Y11.414 Z-0.272
X23.166
X23.266 Y11.418 Z-0.274
X23.353 Y11.426 Z-0.277
X23.426 Y11.438 Z-0.278
X23.509 Y11.459 Z-0.283
X23.535 Y11.467 Z-0.286
X23.59 Y11.489 Z-0.289
X23.644 Y11.515 Z-0.295
X23.689 Y11.543 Z-0.3
X23.732 Y11.576 Z-0.303
X23.781 Y11.621 Z-0.311
X23.824 Y11.673 Z-0.314
X23.864 Y11.727 Z-0.319
X23.894 Y11.777 Z-0.325
X23.915 Y11.82 Z-0.329
X23.945 Y11.895 Z-0.335
X23.96 Y11.94 Z-0.34
X23.973 Y11.986 Z-0.345
X23.997 Y12.095 Z-0.35
X24.011 Y12.182 Z-0.354
X24.019 Y12.272 Z-0.356
X24.023 Y12.395 Z-0.357
Y12.478 Z-0.356
X24.018 Y12.594 Z-0.354
X24.01 Y12.683 Z-0.352
X24 Y12.751 Z-0.35
X23.977 Y12.857 Z-0.346
X23.956 Y12.935 Z-0.342
X23.943 Y12.969 Z-0.34
X23.911 Y13.045 Z-0.337
X23.887 Y13.091 Z-0.334
X23.857 Y13.139 Z-0.33
X23.817 Y13.193 Z-0.327
X23.778 Y13.238 Z-0.325
X23.726 Y13.288 Z-0.319
X23.682 Y13.322 Z-0.318
X23.644 Y13.346 Z-0.314
X23.585 Y13.377 Z-0.306
X23.531 Y13.4 Z-0.301
X23.476 Y13.415 Z-0.294
X23.392 Y13.434 Z-0.286
X23.358 Y13.439 Z-0.285
X23.268 Y13.447 Z-0.281
X23.165 Y13.452 Z-0.276
X23.044 Y13.454 Z-0.273
X22.718
X22.672 Y13.452 Z-0.277
X22.627 Y13.444 Z-0.29
X22.582 Y13.432 Z-0.312
X22.537 Y13.415 Z-0.341
X22.491 Y13.393 Z-0.38
X22.222 Y13.662 Z0.087
X22.491 Y13.393 Z-0.38
X22.484 Y13.363 Z-0.366
X22.475 Y13.32 Z-0.352
X22.471 Y13.276 Z-0.344
X22.47 Y11.621 Z-0.343
Y11.607
X22.473 Y11.563 Z-0.348
X22.48 Y11.52 Z-0.361
X22.491 Y11.476 Z-0.379
G0 Z5
X23.362 Y15.077
G1 Z0.087 F250
X23.631 Y15.346 Z-0.379
X23.654 Y15.334 Z-0.359
X23.699 Y15.315 Z-0.324
X23.744 Y15.3 Z-0.298
X23.79 Y15.29 Z-0.281
X23.835 Y15.285 Z-0.273
X25.022 Y15.284 Z-0.271
X25.229 Y15.077 Z0.087
X25.022 Y15.284 Z-0.271
X25.229 Y15.491 Z0.087
X25.022 Y15.284 Z-0.271
X23.835 Y15.285 Z-0.273
X23.79 Y15.29 Z-0.281
X23.744 Y15.3 Z-0.298
X23.699 Y15.315 Z-0.324
X23.654 Y15.334 Z-0.359
X23.631 Y15.346 Z-0.379
X23.62 Y15.39 Z-0.361
X23.613 Y15.433 Z-0.348
X23.61 Y15.476 Z-0.343
Y15.491
Y16.18
X23.614 Y16.221 Z-0.349
X23.621 Y16.262 Z-0.361
X23.631 Y16.304 Z-0.379
X23.645 Y16.345 Z-0.403
X23.653 Y16.366 Z-0.417
X23.663 Z-0.405
X23.704 Z-0.359
X23.745 Z-0.321
X23.776 Z-0.299
X23.806 Z-0.282
X23.837 Z-0.273
X24.883 Z-0.271
X25.09 Y16.159 Z0.087
X24.883 Y16.366 Z-0.271
X25.09 Y16.572 Z0.087
X24.883 Y16.366 Z-0.271
X23.837 Z-0.273
X23.806 Z-0.282
X23.776 Z-0.299
X23.745 Z-0.321
X23.704 Z-0.359
X23.663 Z-0.405
X23.653 Z-0.417
X23.637 Y16.407 Z-0.39
X23.625 Y16.448 Z-0.369
X23.617 Y16.49 Z-0.355
X23.612 Y16.531 Z-0.346
X23.61 Y16.572 Z-0.343
X23.611 Y17.146 Z-0.344
X23.615 Y17.19 Z-0.352
X23.624 Y17.233 Z-0.366
X23.631 Y17.263 Z-0.38
X23.362 Y17.532 Z0.087
X23.631 Y17.263 Z-0.38
X23.677 Y17.285 Z-0.341
X23.722 Y17.302 Z-0.311
X23.767 Y17.314 Z-0.29
X23.812 Y17.322 Z-0.277
X23.858 Y17.324 Z-0.273
X24.974
X25.182 Y17.117 Z0.087
X24.974 Y17.324 Z-0.273
X25.182 Y17.532 Z0.087
G0 Z5
X24.702 Y11.207
G1 Z0.087 F250
X24.949 Y11.455 Z-0.343
X25.197 Y11.207 Z0.087
X24.949 Y11.455 Z-0.343
X24.95 Y12.252
X24.953 Y12.291 Z-0.349
X24.959 Y12.33 Z-0.359
X24.968 Y12.369 Z-0.375
X24.981 Y12.408 Z-0.397
X24.988 Y12.428 Z-0.41
X25.04 Z-0.348
X25.082 Z-0.307
X25.114 Z-0.282
X25.145 Z-0.265
X25.176 Z-0.255
X25.298 Z-0.253
X25.367
X25.432 Y12.426 Z-0.257
X25.5 Y12.421 Z-0.264
X25.598 Y12.411 Z-0.282
X25.629 Y12.405 Z-0.291
X25.698 Y12.39 Z-0.317
X25.755 Y12.376 Z-0.344
X25.805 Y12.361 Z-0.374
X25.81 Y12.347 Z-0.359
X25.824 Y12.308 Z-0.325
X25.839 Y12.273 Z-0.299
X25.853 Y12.245 Z-0.282
X25.869 Y12.216 Z-0.271
X25.887 Y12.188 Z-0.264
X25.906 Y12.162 Z-0.262
X25.928 Y12.137 Z-0.265
X26.028 Y12.043 Z-0.307
X26.07 Y11.999 Z-0.324
X26.142 Y11.916 Z-0.346
X26.214 Y11.817 Z-0.355
X26.275 Y11.73 Z-0.359
X26.451 Y11.461 Z-0.352
X26.316 Y11.207 Z0.087
X26.451 Y11.461 Z-0.352
X26.908 Y11.207 Z0.087
X26.451 Y11.461 Z-0.352
X26.275 Y11.73 Z-0.359
X26.214 Y11.817 Z-0.355
X26.142 Y11.916 Z-0.346
X26.07 Y11.999 Z-0.324
X26.028 Y12.043 Z-0.307
X25.928 Y12.137 Z-0.265
X25.906 Y12.162 Z-0.262
X25.887 Y12.188 Z-0.264
X25.869 Y12.216 Z-0.271
X25.853 Y12.245 Z-0.282
X25.839 Y12.273 Z-0.299
X25.824 Y12.308 Z-0.325
X25.81 Y12.347 Z-0.359
X25.805 Y12.361 Z-0.374
X25.845 Y12.391 Z-0.327
X25.881 Y12.414 Z-0.292
X25.914 Y12.433 Z-0.268
X25.947 Y12.448 Z-0.25
X25.978 Y12.459 Z-0.238
X26.008 Y12.467 Z-0.232
X26.045 Y12.474 Z-0.231
X26.076 Y12.482 Z-0.233
X26.136 Y12.501 Z-0.245
X26.184 Y12.52 Z-0.256
X26.227 Y12.543 Z-0.269
X26.268 Y12.571 Z-0.282
X26.309 Y12.607 Z-0.294
X26.344 Y12.643 Z-0.306
X26.372 Y12.678 Z-0.321
X26.399 Y12.725 Z-0.329
X26.422 Y12.773 Z-0.339
X26.435 Y12.808 Z-0.345
X26.444 Y12.854 Z-0.349
X26.451 Y12.921 Z-0.352
X26.453 Y12.97 Z-0.356
X26.448 Y13.037 Z-0.357
X26.44 Y13.088 Z-0.359
X26.43 Y13.124
X26.41 Y13.174 Z-0.358
X26.384 Y13.224
X26.344 Y13.28 Z-0.353
X26.318 Y13.309 Z-0.348
X26.292 Y13.331 Z-0.342
X26.235 Y13.369 Z-0.328
X26.191 Y13.389 Z-0.312
X26.146 Y13.407 Z-0.3
X26.095 Y13.423 Z-0.29
X26.033 Y13.437 Z-0.283
X25.967 Y13.447 Z-0.277
X25.897 Y13.451 Z-0.276
X25.751 Y13.454 Z-0.273
X25.583
X25.175 Z-0.274
X25.129 Y13.449 Z-0.283
X25.084 Y13.439 Z-0.3
X25.039 Y13.424 Z-0.325
X24.994 Y13.404 Z-0.36
X24.971 Y13.393 Z-0.38
X24.702 Y13.662 Z0.087
X24.971 Y13.393 Z-0.38
X24.963 Y13.363 Z-0.366
X24.955 Y13.32 Z-0.352
X24.95 Y13.276 Z-0.344
X24.949 Y12.624 Z-0.343
X24.951 Y12.585 Z-0.345
X24.956 Y12.546 Z-0.353
X24.963 Y12.506 Z-0.367
X24.974 Y12.467 Z-0.386
X24.988 Y12.428 Z-0.41
G0 Z5
X25.4 Y15.077
G1 Z0.087 F250
X25.755 Y15.32 Z-0.334
X25.925 Y15.077 Z0.087
X25.755 Y15.32 Z-0.334
X25.914 Y15.741 Z-0.327
X25.934 Y15.78 Z-0.334
X25.957 Y15.818 Z-0.347
X25.984 Y15.854 Z-0.368
X26.014 Y15.889 Z-0.395
X26.031 Y15.905 Z-0.411
X26.029 Y15.953 Z-0.379
X26.031 Y15.999 Z-0.353
X26.037 Y16.044 Z-0.335
X26.047 Y16.087 Z-0.323
X26.06 Y16.128 Z-0.319
X26.413 Y17.063 Z-0.301
X26.436 Y17.106 Z-0.31
X26.463 Y17.147 Z-0.329
X26.496 Y17.187 Z-0.356
X26.533 Y17.224 Z-0.393
X26.553 Y17.243 Z-0.414
X26.356 Y17.532 Z0.087
X26.553 Y17.243 Z-0.414
X26.594 Y17.245 Z-0.41
X26.633
X26.676 Y17.242 Z-0.415
X26.683 Y17.241 Z-0.417
X26.88 Y17.532 Z0.087
X26.683 Y17.241 Z-0.417
X26.721 Y17.205 Z-0.38
X26.754 Y17.168 Z-0.35
X26.782 Y17.129 Z-0.33
X26.806 Y17.088 Z-0.317
X26.827 Y17.043 Z-0.313
X26.828 Y17.04
X27.185 Y16.112 Z-0.336
X27.197 Y16.07 Z-0.344
X27.206 Y16.027 Z-0.358
X27.211 Y15.982 Z-0.379
X27.212 Y15.935 Z-0.407
X27.211 Y15.911 Z-0.424
X27.165 Y15.894 Z-0.372
X27.13 Y15.88 Z-0.34
X27.109 Y15.872 Z-0.325
X27.077 Y15.861 Z-0.306
X27.046 Y15.853 Z-0.291
X27.014 Y15.846 Z-0.28
X26.982 Y15.843 Z-0.274
X26.95 Y15.842 Z-0.272
X26.25 Y15.843 Z-0.274
X26.219 Y15.846 Z-0.279
X26.189 Y15.852 Z-0.289
X26.158 Y15.86 Z-0.303
X26.118 Y15.873 Z-0.327
X26.084 Y15.886 Z-0.355
X26.045 Y15.9 Z-0.395
X26.031 Y15.905 Z-0.411
X26.045 Y15.9 Z-0.395
X26.084 Y15.886 Z-0.355
X26.118 Y15.873 Z-0.327
X26.158 Y15.86 Z-0.303
X26.189 Y15.852 Z-0.289
X26.219 Y15.846 Z-0.279
X26.25 Y15.843 Z-0.274
X26.95 Y15.842 Z-0.272
X26.982 Y15.843 Z-0.274
X27.014 Y15.846 Z-0.28
X27.046 Y15.853 Z-0.291
X27.077 Y15.861 Z-0.306
X27.109 Y15.872 Z-0.325
X27.13 Y15.88 Z-0.34
X27.165 Y15.894 Z-0.372
X27.211 Y15.911 Z-0.424
X27.228 Y15.895 Z-0.408
X27.259 Y15.86 Z-0.381
X27.286 Y15.823 Z-0.361
X27.309 Y15.786 Z-0.347
X27.329 Y15.746 Z-0.34
X27.495 Y15.326 Z-0.345
X27.323 Y15.077 Z0.087
X27.495 Y15.326 Z-0.345
X27.863 Y15.077 Z0.087
G0 Z5
X26.927 Y11.207
G1 Z0.087 F250
X27.282 Y11.45 Z-0.334
X27.453 Y11.207 Z0.087
X27.282 Y11.45 Z-0.334
X27.432 Y11.847 Z-0.326
X27.451 Y11.891 Z-0.329
X27.472 Y11.929 Z-0.34
X27.497 Y11.966 Z-0.357
X27.526 Y12.002 Z-0.381
X27.558 Y12.036 Z-0.411
X27.602 Y12.019 Z-0.364
X27.636 Y12.007 Z-0.334
X27.67 Y11.994 Z-0.311
X27.701 Y11.985 Z-0.295
X27.731 Y11.979 Z-0.284
X27.762 Y11.974 Z-0.276
X27.792 Y11.972 Z-0.272
X27.808 Z-0.271
X28.509 Y11.973 Z-0.274
X28.541 Y11.977 Z-0.28
X28.573 Y11.983 Z-0.291
X28.604 Y11.991 Z-0.305
X28.646 Y12.006 Z-0.332
X28.677 Y12.018 Z-0.357
X28.713 Y12.032 Z-0.394
X28.738 Y12.042 Z-0.424
X28.755 Y12.025 Z-0.408
X28.786 Y11.99 Z-0.381
X28.813 Y11.954 Z-0.361
X28.836 Y11.916 Z-0.347
X28.856 Y11.877 Z-0.341
X29.022 Y11.456 Z-0.345
X28.851 Y11.207 Z0.087
X29.022 Y11.456 Z-0.345
X29.39 Y11.207 Z0.087
X29.022 Y11.456 Z-0.345
X28.856 Y11.877 Z-0.341
X28.836 Y11.916 Z-0.347
X28.813 Y11.954 Z-0.361
X28.786 Y11.99 Z-0.381
X28.755 Y12.025 Z-0.408
X28.738 Y12.042 Z-0.424
X28.739 Y12.089 Z-0.392
X28.736 Y12.135 Z-0.368
X28.729 Y12.179 Z-0.35
X28.719 Y12.222 Z-0.339
X28.705 Y12.263 Z-0.334
X28.344 Y13.197 Z-0.314
X28.322 Y13.239 Z-0.322
X28.296 Y13.279 Z-0.339
X28.265 Y13.317 Z-0.364
X28.229 Y13.354 Z-0.397
X28.21 Y13.371 Z-0.417
X28.407 Y13.662 Z0.087
X28.21 Y13.371 Z-0.417
X28.203 Y13.372 Z-0.416
X28.16 Y13.375 Z-0.41
X28.122
X28.081 Y13.373 Z-0.415
X27.883 Y13.662 Z0.087
X28.081 Y13.373 Z-0.415
X28.06 Y13.355 Z-0.393
X28.023 Y13.317 Z-0.356
X27.99 Y13.278 Z-0.329
X27.963 Y13.236 Z-0.31
X27.94 Y13.193 Z-0.301
X27.587 Y12.259 Z-0.319
X27.574 Y12.217 Z-0.323
X27.564 Y12.174 Z-0.335
X27.558 Y12.129 Z-0.353
X27.556 Y12.083 Z-0.379
X27.558 Y12.036 Z-0.411
G0 Z5
X28.124 Y15.077
G1 Z0.087 F250
X28.393 Y15.346 Z-0.379
X28.415 Y15.334 Z-0.359
X28.461 Y15.315 Z-0.324
X28.506 Y15.3 Z-0.298
X28.551 Y15.29 Z-0.281
X28.597 Y15.285 Z-0.273
X28.989 Y15.284 Z-0.271
X29.081 Y15.285 Z-0.272
X29.169 Y15.288 Z-0.274
X29.254 Y15.296 Z-0.277
X29.327 Y15.307 Z-0.278
X29.41 Y15.329 Z-0.283
X29.45 Y15.342 Z-0.286
X29.505 Y15.365 Z-0.29
X29.554 Y15.39 Z-0.296
X29.6 Y15.42 Z-0.301
X29.637 Y15.448 Z-0.303
X29.683 Y15.491 Z-0.311
X29.736 Y15.556 Z-0.315
X29.768 Y15.601 Z-0.32
X29.796 Y15.649 Z-0.325
X29.823 Y15.705 Z-0.331
X29.856 Y15.793 Z-0.337
X29.875 Y15.855 Z-0.345
X29.899 Y15.965 Z-0.35
X29.913 Y16.052 Z-0.354
X29.921 Y16.143 Z-0.356
X29.925 Y16.265 Z-0.357
X29.924 Y16.348 Z-0.356
X29.919 Y16.48 Z-0.354
X29.911 Y16.56 Z-0.352
X29.897 Y16.641 Z-0.349
X29.873 Y16.749 Z-0.345
X29.856 Y16.808 Z-0.341
X29.841 Y16.848 Z-0.34
X29.813 Y16.915 Z-0.337
X29.789 Y16.961 Z-0.334
X29.759 Y17.009 Z-0.33
X29.718 Y17.064 Z-0.327
X29.679 Y17.109 Z-0.325
X29.632 Y17.154 Z-0.319
X29.584 Y17.192 Z-0.318
X29.546 Y17.216 Z-0.314
X29.49 Y17.245 Z-0.306
X29.437 Y17.268 Z-0.302
X29.423 Y17.272 Z-0.3
X29.353 Y17.291 Z-0.292
X29.281 Y17.306 Z-0.286
X29.207 Y17.314 Z-0.283
X29.105 Y17.321 Z-0.278
X29 Y17.324 Z-0.274
X28.858 Z-0.273
X28.597 Z-0.274
X28.552 Y17.319 Z-0.283
X28.506 Y17.309 Z-0.3
X28.461 Y17.294 Z-0.325
X28.416 Y17.274 Z-0.36
X28.393 Y17.263 Z-0.38
X28.124 Y17.532 Z0.087
X28.393 Y17.263 Z-0.38
X28.385 Y17.233 Z-0.366
X28.377 Y17.19 Z-0.352
X28.372 Y17.146 Z-0.344
Y15.491 Z-0.343
Y15.476
X28.375 Y15.433 Z-0.348
X28.382 Y15.39 Z-0.361
X28.393 Y15.346 Z-0.379
G0 Z5
X29.415 Y13.662
G1 Z0.087 F250
X29.725 Y13.417 Z-0.338
X29.922 Y13.662 Z0.087
X29.725 Y13.417 Z-0.338
X30.067 Y11.926 Z-0.313
X30.077 Y11.889 Z-0.316
X30.089 Y11.856 Z-0.322
X30.103 Y11.824 Z-0.334
X30.12 Y11.793 Z-0.349
X30.139 Y11.762 Z-0.369
X30.161 Y11.731 Z-0.394
X30.186 Y11.702 Z-0.423
X30.212 Y11.672 Z-0.457
X30.242 Y11.644 Z-0.495
X30.274 Y11.616 Z-0.538
X30.273 Y11.552 Z-0.511
X30.001 Y11.207 Z0.087
X30.273 Y11.552 Z-0.511
X30.538 Y11.207 Z0.087
X30.273 Y11.552 Z-0.511
X30.274 Y11.616 Z-0.538
X30.309 Y11.643 Z-0.491
X30.342 Y11.671 Z-0.449
X30.371 Y11.699 Z-0.411
X30.398 Y11.729 Z-0.379
X30.423 Y11.759 Z-0.352
X30.444 Y11.79 Z-0.33
X30.463 Y11.821 Z-0.313
X30.479 Y11.853 Z-0.3
X30.492 Y11.886 Z-0.293
X30.502 Y11.92 Z-0.29
X30.824 Y13.126 Z-0.291
X30.834 Y13.153 Z-0.296
X30.846 Y13.179 Z-0.304
X30.86 Y13.205 Z-0.316
X30.875 Y13.231 Z-0.33
X30.893 Y13.256 Z-0.348
X30.912 Y13.28 Z-0.37
X30.956 Y13.328 Z-0.422
X30.98 Y13.351 Z-0.453
X30.741 Y13.662 Z0.087
X30.98 Y13.351 Z-0.453
X31.021 Y13.352 Z-0.45
X31.062 Y13.351 Z-0.452
X31.086 Y13.349 Z-0.455
X31.33 Y13.662 Z0.087
X31.086 Y13.349 Z-0.455
X31.131 Y13.303 Z-0.4
X31.169 Y13.255 Z-0.357
X31.185 Y13.23 Z-0.34
X31.2 Y13.205 Z-0.326
X31.213 Y13.179 Z-0.315
X31.224 Y13.153 Z-0.307
X31.233 Y13.127 Z-0.302
X31.241 Y13.1 Z-0.3
X31.554 Y11.892 Z-0.284
X31.564 Y11.86 Z-0.287
X31.577 Y11.828 Z-0.294
X31.592 Y11.796 Z-0.306
X31.61 Y11.766 Z-0.322
X31.631 Y11.736 Z-0.344
X31.654 Y11.707 Z-0.37
X31.68 Y11.678 Z-0.4
X31.709 Y11.65 Z-0.436
X31.74 Y11.623 Z-0.476
X31.774 Y11.597 Z-0.521
Y11.546 Z-0.499
X32.04 Y11.207 Z0.087
X31.774 Y11.546 Z-0.499
X31.514 Y11.207 Z0.087
X31.774 Y11.546 Z-0.499
Y11.597 Z-0.521
X31.805 Y11.624 Z-0.479
X31.834 Y11.652 Z-0.441
X31.861 Y11.68 Z-0.408
X31.885 Y11.709 Z-0.38
X31.907 Y11.738 Z-0.355
X31.926 Y11.768 Z-0.335
X31.942 Y11.799 Z-0.32
X31.957 Y11.83 Z-0.309
X31.968 Y11.862 Z-0.302
X31.977 Y11.895 Z-0.3
X32.331 Y13.422 Z-0.33
X32.137 Y13.662 Z0.087
X32.331 Y13.422 Z-0.33
X32.636 Y13.662 Z0.087
G0 Z5
X31.429 Y15.876
G1 Z0.087 F250
X31.462 Y15.851 Z0.038
X31.587 Y15.757 Z-0.145
X31.67 Y15.698 Z-0.26
X31.731 Y15.659 Z-0.338
X31.783 Y15.741 Z-0.206
X31.85 Y15.838 Z-0.049
X31.911 Y15.923 Z0.087
X31.85 Y15.838 Z-0.049
X31.783 Y15.741 Z-0.206
X31.731 Y15.659 Z-0.338
X31.734 Y15.653 Z-0.339
X31.757 Y15.604 Z-0.338
X31.785 Y15.558 Z-0.335
X31.829 Y15.499 Z-0.332
X31.884 Y15.433 Z-0.33
X31.906 Y15.414 Z-0.322
X31.932 Y15.394 Z-0.315
X31.975 Y15.365 Z-0.311
X32.025 Y15.336 Z-0.307
X32.084 Y15.306 Z-0.302
X32.141 Y15.284 Z-0.295
X32.192 Y15.27 Z-0.289
X32.26 Y15.257 Z-0.282
X32.326 Y15.25 Z-0.278
X32.437 Y15.243 Z-0.276
X32.539 Y15.246
X32.606 Y15.252 Z-0.278
X32.668 Y15.261 Z-0.282
X32.732 Y15.275 Z-0.287
X32.8 Y15.298 Z-0.295
X32.877 Y15.33 Z-0.308
X32.895 Y15.338 Z-0.311
X32.938 Y15.363 Z-0.314
X32.979 Y15.391 Z-0.322
X33.01 Y15.418 Z-0.327
X33.046 Y15.455 Z-0.33
X33.076 Y15.491 Z-0.331
X33.103 Y15.529 Z-0.335
X33.124 Y15.571 Z-0.336
X33.147 Y15.625 Z-0.34
X33.159 Y15.663 Z-0.343
X33.169 Y15.716
X33.175 Y15.772 Z-0.341
X33.177 Y15.8 Z-0.342
X33.171 Y15.872 Z-0.344
X33.163 Y15.918 Z-0.347
X33.151 Y15.959 Z-0.349
X33.13 Y16.009 Z-0.35
X33.107 Y16.051 Z-0.353
X33.085 Y16.084 Z-0.352
X33.06 Y16.114 Z-0.353
X33.03 Y16.143 Z-0.354
X32.989 Y16.176 Z-0.351
X32.939 Y16.209 Z-0.347
X32.894 Y16.232 Z-0.343
X32.842 Y16.255 Z-0.341
X32.771 Y16.282 Z-0.342
X32.677 Y16.312 Z-0.345
X32.549 Y16.346 Z-0.344
X32.362 Y16.392 Z-0.341
X32.245 Y16.423 Z-0.342
X32.156 Y16.453 Z-0.345
X32.084 Y16.482 Z-0.347
X32.019 Y16.515 Z-0.346
X31.927 Y16.569 Z-0.34
X31.905 Y16.585 Z-0.342
X31.872 Y16.618 Z-0.339
X31.832 Y16.666 Z-0.338
X31.808 Y16.701
X31.79 Y16.737 Z-0.336
X31.778 Y16.772 Z-0.332
X31.766 Y16.821 Z-0.327
X31.758 Y16.879 Z-0.325
X31.756 Y16.892
X31.757 Y16.93 Z-0.32
X31.762 Y16.977 Z-0.319
X31.771 Y17.016 Z-0.316
X31.785 Y17.058 Z-0.309
X31.803 Y17.097 Z-0.305
X31.812 Y17.114 Z-0.304
X31.82 Y17.126 Z-0.302
X31.847 Y17.163 Z-0.298
X31.877 Y17.196 Z-0.297
X31.903 Y17.221 Z-0.295
X31.939 Y17.248 Z-0.29
X31.995 Y17.28 Z-0.287
X32.025 Y17.294 Z-0.285
X32.095 Y17.321 Z-0.278
X32.156 Y17.341 Z-0.274
X32.206 Y17.352 Z-0.272
X32.28 Y17.362 Z-0.269
X32.379 Y17.368 Z-0.268
X32.469 Y17.367 Z-0.269
X32.542 Y17.362 Z-0.27
X32.604 Y17.355 Z-0.275
X32.663 Y17.343 Z-0.282
X32.723 Y17.325 Z-0.29
X32.775 Y17.303 Z-0.296
X32.832 Y17.274 Z-0.301
X32.859 Y17.258 Z-0.303
X32.888 Y17.237 Z-0.31
X32.953 Y17.184 Z-0.331
X32.972 Y17.161 Z-0.333
X33.012 Y17.11 Z-0.339
X33.04 Y17.066 Z-0.345
X32.998 Y16.999 Z-0.232
X32.938 Y16.912 Z-0.086
X32.871 Y16.825 Z0.06
X32.859 Y16.809 Z0.087
X32.871 Y16.825 Z0.06
X32.938 Y16.912 Z-0.086
X32.998 Y16.999 Z-0.232
X33.04 Y17.066 Z-0.345
X33.077 Y17.046 Z-0.308
X33.121 Y17.018 Z-0.256
X33.178 Y16.976 Z-0.179
X33.248 Y16.92 Z-0.076
X33.354 Y16.83 Z0.087
G0 Z5
X32.889 Y11.207
G1 Z0.087 F250
X33.158 Y11.476 Z-0.379
X33.203 Y11.454 Z-0.34
X33.249 Y11.437 Z-0.31
X33.294 Y11.424 Z-0.289
X33.339 Y11.417 Z-0.276
X33.385 Y11.414 Z-0.272
X34.549
X34.756 Y11.621 Z0.087
X34.549 Y11.414 Z-0.272
X34.756 Y11.207 Z0.087
X34.549 Y11.414 Z-0.272
X33.385
X33.339 Y11.417 Z-0.276
X33.294 Y11.424 Z-0.289
X33.249 Y11.437 Z-0.31
X33.203 Y11.454 Z-0.34
X33.158 Y11.476 Z-0.379
X33.147 Y11.52 Z-0.361
X33.14 Y11.563 Z-0.348
X33.137 Y11.607 Z-0.343
Y11.621
Y12.31
X33.141 Y12.351 Z-0.349
X33.148 Y12.392 Z-0.361
X33.158 Y12.434 Z-0.379
X33.172 Y12.475 Z-0.403
X33.18 Y12.496 Z-0.417
X33.231 Z-0.359
X33.272 Z-0.321
X33.303 Z-0.299
X33.334 Z-0.282
X33.364 Z-0.273
X33.385 Z-0.272
X34.41
X34.617 Y12.289 Z0.087
X34.41 Y12.496 Z-0.272
X34.617 Y12.703 Z0.087
X34.41 Y12.496 Z-0.272
X33.385
X33.364 Z-0.273
X33.334 Z-0.282
X33.303 Z-0.299
X33.272 Z-0.321
X33.231 Z-0.359
X33.18 Z-0.417
X33.165 Y12.537 Z-0.39
X33.152 Y12.579 Z-0.37
X33.144 Y12.62 Z-0.355
X33.139 Y12.661 Z-0.346
X33.137 Y12.703 Z-0.343
X33.138 Y13.276 Z-0.344
X33.142 Y13.32 Z-0.352
X33.151 Y13.363 Z-0.366
X33.158 Y13.393 Z-0.38
X32.889 Y13.662 Z0.087
X33.158 Y13.393 Z-0.38
X33.204 Y13.415 Z-0.341
X33.249 Y13.432 Z-0.312
X33.294 Y13.444 Z-0.29
X33.339 Y13.452 Z-0.277
X33.385 Y13.454 Z-0.273
X34.501
X34.709 Y13.662 Z0.087
X34.501 Y13.454 Z-0.273
X34.709 Y13.247 Z0.087
G0 Z5
X35.178 Y11.207
G1 Z0.087 F250
X35.426 Y11.455 Z-0.343
X35.674 Y11.207 Z0.087
X35.426 Y11.455 Z-0.343
Y12.252
X35.429 Y12.291 Z-0.349
X35.435 Y12.33 Z-0.359
X35.445 Y12.369 Z-0.375
X35.457 Y12.408 Z-0.397
X35.464 Y12.428 Z-0.41
X35.517 Z-0.348
X35.559 Z-0.307
X35.59 Z-0.282
X35.621 Z-0.265
X35.653 Z-0.255
X35.774 Z-0.253
X35.843
X35.908 Y12.426 Z-0.257
X35.976 Y12.421 Z-0.264
X36.074 Y12.411 Z-0.282
X36.105 Y12.405 Z-0.291
X36.174 Y12.39 Z-0.317
X36.231 Y12.376 Z-0.344
X36.281 Y12.361 Z-0.374
X36.296 Y12.318 Z-0.334
X36.312 Y12.281 Z-0.304
X36.329 Y12.247 Z-0.283
X36.343 Y12.221 Z-0.272
X36.36 Y12.192 Z-0.265
X36.38 Y12.165 Z-0.262
X36.402 Y12.14 Z-0.265
X36.425 Y12.117 Z-0.272
X36.512 Y12.035 Z-0.31
X36.56 Y11.984 Z-0.328
X36.61 Y11.925 Z-0.343
X36.618 Y11.916 Z-0.346
X36.69 Y11.817 Z-0.355
X36.751 Y11.73 Z-0.359
X36.927 Y11.461 Z-0.352
X37.385 Y11.207 Z0.087
X36.927 Y11.461 Z-0.352
X36.792 Y11.207 Z0.087
X36.927 Y11.461 Z-0.352
X36.751 Y11.73 Z-0.359
X36.69 Y11.817 Z-0.355
X36.618 Y11.916 Z-0.346
X36.61 Y11.925 Z-0.343
X36.56 Y11.984 Z-0.328
X36.512 Y12.035 Z-0.31
X36.425 Y12.117 Z-0.272
X36.402 Y12.14 Z-0.265
X36.38 Y12.165 Z-0.262
X36.36 Y12.192 Z-0.265
X36.343 Y12.221 Z-0.272
X36.329 Y12.247 Z-0.283
X36.312 Y12.281 Z-0.304
X36.296 Y12.318 Z-0.334
X36.281 Y12.361 Z-0.374
X36.316 Y12.387 Z-0.332
X36.35 Y12.41 Z-0.299
X36.381 Y12.428 Z-0.273
X36.414 Y12.444 Z-0.254
X36.443 Y12.455 Z-0.242
X36.474 Y12.465 Z-0.234
X36.515 Y12.473 Z-0.231
X36.539 Y12.478 Z-0.232
X36.607 Y12.499 Z-0.244
X36.655 Y12.518 Z-0.255
X36.696 Y12.539 Z-0.267
X36.73 Y12.56 Z-0.277
X36.769 Y12.592 Z-0.289
X36.806 Y12.627 Z-0.3
X36.849 Y12.678 Z-0.321
X36.876 Y12.725 Z-0.329
X36.898 Y12.773 Z-0.339
X36.911 Y12.808 Z-0.345
X36.921 Y12.854 Z-0.349
X36.927 Y12.921 Z-0.352
X36.929 Y12.97 Z-0.356
X36.924 Y13.037 Z-0.357
X36.916 Y13.088 Z-0.359
X36.906 Y13.124
X36.886 Y13.174 Z-0.358
X36.86 Y13.224
X36.82 Y13.28 Z-0.353
X36.794 Y13.309 Z-0.348
X36.768 Y13.331 Z-0.342
X36.711 Y13.369 Z-0.328
X36.667 Y13.389 Z-0.312
X36.623 Y13.407 Z-0.3
X36.571 Y13.423 Z-0.29
X36.509 Y13.437 Z-0.283
X36.443 Y13.447 Z-0.277
X36.373 Y13.451 Z-0.276
X36.227 Y13.454 Z-0.273
X36.06
X35.651 Z-0.274
X35.606 Y13.449 Z-0.283
X35.56 Y13.439 Z-0.3
X35.515 Y13.424 Z-0.325
X35.47 Y13.404 Z-0.36
X35.447 Y13.393 Z-0.38
X35.178 Y13.662 Z0.087
X35.447 Y13.393 Z-0.38
X35.436 Y13.349 Z-0.361
X35.429 Y13.305 Z-0.349
X35.426 Y13.261 Z-0.343
Y13.247
Y12.604
X35.429 Y12.565 Z-0.349
X35.435 Y12.526 Z-0.359
X35.445 Y12.487 Z-0.375
X35.457 Y12.448 Z-0.397
X35.464 Y12.428 Z-0.41
G0 Z5
X35.395 Y16.738
G1 Z0.087 F250
X35.451 Y16.837 Z-0.057
X35.501 Y16.932 Z-0.198
X35.545 Y17.028 Z-0.341
X35.611 Y17.001 Z-0.269
X35.689 Y16.963 Z-0.174
X35.783 Y16.913 Z-0.052
X35.886 Y16.855 Z0.087
X35.783 Y16.913 Z-0.052
X35.689 Y16.963 Z-0.174
X35.611 Y17.001 Z-0.269
X35.545 Y17.028 Z-0.341
X35.514 Y17.071 Z-0.338
X35.478 Y17.116 Z-0.336
X35.468 Y17.128
X35.412 Y17.177 Z-0.324
X35.348 Y17.228 Z-0.315
X35.296 Y17.26 Z-0.312
X35.24 Y17.29 Z-0.308
X35.185 Y17.313 Z-0.301
X35.129 Y17.33 Z-0.293
X35.075 Y17.342 Z-0.287
X35.012 Y17.352 Z-0.283
X34.922 Y17.36 Z-0.281
X34.886 Y17.361 Z-0.279
X34.859 Y17.359 Z-0.277
X34.735 Y17.346 Z-0.279
X34.659 Y17.333 Z-0.281
X34.602 Y17.319 Z-0.284
X34.542 Y17.298 Z-0.287
X34.492 Y17.274 Z-0.29
X34.458 Y17.255 Z-0.292
X34.394 Y17.211 Z-0.295
X34.333 Y17.163 Z-0.299
X34.261 Y17.099 Z-0.304
X34.237 Y17.071 Z-0.311
X34.169 Y16.963 Z-0.32
X34.122 Y16.879 Z-0.327
X34.091 Y16.813 Z-0.333
X34.068 Y16.752 Z-0.338
X34.054 Y16.707 Z-0.341
X34.038 Y16.638 Z-0.344
X34.027 Y16.57 Z-0.346
X34.018 Y16.473 Z-0.349
X34.011 Y16.321 Z-0.354
Y16.257 Z-0.355
X34.018 Y16.125 Z-0.351
X34.029 Y16.021 Z-0.35
X34.041 Y15.948 Z-0.349
X34.059 Y15.876 Z-0.347
X34.072 Y15.838 Z-0.345
X34.1 Y15.77 Z-0.339
X34.132 Y15.706 Z-0.333
X34.171 Y15.638 Z-0.326
X34.24 Y15.528 Z-0.315
X34.248 Y15.519 Z-0.312
X34.274 Y15.493 Z-0.308
X34.364 Y15.416 Z-0.301
X34.41 Y15.381 Z-0.298
X34.459 Y15.349 Z-0.295
X34.512 Y15.321 Z-0.292
X34.544 Y15.307 Z-0.29
X34.602 Y15.287 Z-0.285
X34.657 Y15.274 Z-0.282
X34.735 Y15.261 Z-0.28
X34.849 Y15.249 Z-0.279
X34.885 Y15.248 Z-0.28
X34.999 Y15.258 Z-0.284
X35.06 Y15.267 Z-0.288
X35.124 Y15.282 Z-0.295
X35.174 Y15.3 Z-0.3
X35.232 Y15.327 Z-0.306
X35.289 Y15.359 Z-0.312
X35.367 Y15.41 Z-0.322
X35.387 Y15.428 Z-0.326
X35.46 Y15.507 Z-0.333
X35.507 Y15.566 Z-0.339
X35.537 Y15.611 Z-0.342
X35.565 Y15.661 Z-0.343
X35.569 Y15.67
X35.531 Y15.754 Z-0.224
X35.476 Y15.862 Z-0.074
X35.412 Y15.98 Z0.087
X35.476 Y15.862 Z-0.074
X35.531 Y15.754 Z-0.224
X35.569 Y15.67 Z-0.343
X35.644 Y15.703 Z-0.249
X35.78 Y15.77 Z-0.067
X35.893 Y15.827 Z0.087
G0 Z5
X36.32 Y15.077
G1 Z0.087 F250
X36.567 Y15.325 Z-0.343
X36.815 Y15.077 Z0.087
X36.567 Y15.325 Z-0.343
X36.568 Y16.122
X36.571 Y16.161 Z-0.349
X36.577 Y16.2 Z-0.359
X36.586 Y16.239 Z-0.375
X36.599 Y16.278 Z-0.397
X36.606 Y16.298 Z-0.41
X36.658 Z-0.348
X36.7 Z-0.307
X36.732 Z-0.282
X36.763 Z-0.264
X36.794 Z-0.255
X36.815 Z-0.253
X37.023 Y16.297 Z-0.255
X37.093 Y16.293 Z-0.261
X37.172 Y16.286 Z-0.274
X37.247 Y16.275 Z-0.291
X37.312 Y16.261 Z-0.315
X37.365 Y16.248 Z-0.34
X37.421 Y16.232 Z-0.372
X37.423 Y16.231 Z-0.374
X37.438 Y16.188 Z-0.334
X37.454 Y16.15 Z-0.304
X37.47 Y16.117 Z-0.283
X37.484 Y16.09 Z-0.272
X37.502 Y16.061 Z-0.265
X37.522 Y16.035 Z-0.262
X37.544 Y16.01 Z-0.265
X37.566 Y15.987 Z-0.272
X37.668 Y15.89 Z-0.316
X37.714 Y15.84 Z-0.332
X37.76 Y15.785 Z-0.346
X37.763 Y15.781
X37.842 Y15.672 Z-0.356
X37.893 Y15.6 Z-0.359
X38.069 Y15.331 Z-0.352
X37.934 Y15.077 Z0.087
X38.069 Y15.331 Z-0.352
X38.526 Y15.077 Z0.087
X38.069 Y15.331 Z-0.352
X37.893 Y15.6 Z-0.359
X37.842 Y15.672 Z-0.356
X37.763 Y15.781 Z-0.346
X37.76 Y15.785
X37.714 Y15.84 Z-0.332
X37.668 Y15.89 Z-0.316
X37.566 Y15.987 Z-0.272
X37.544 Y16.01 Z-0.265
X37.522 Y16.035 Z-0.262
X37.502 Y16.061 Z-0.265
X37.484 Y16.09 Z-0.272
X37.47 Y16.117 Z-0.283
X37.454 Y16.15 Z-0.304
X37.438 Y16.188 Z-0.334
X37.423 Y16.231 Z-0.374
X37.451 Y16.252 Z-0.34
X37.484 Y16.275 Z-0.305
X37.518 Y16.295 Z-0.277
X37.55 Y16.311 Z-0.257
X37.581 Y16.324 Z-0.243
X37.611 Y16.333 Z-0.235
X37.64 Y16.34 Z-0.231
X37.677 Y16.347 Z-0.232
X37.74 Y16.366 Z-0.242
X37.794 Y16.387 Z-0.254
X37.836 Y16.408 Z-0.266
X37.872 Y16.43 Z-0.277
X37.912 Y16.463 Z-0.29
X37.948 Y16.497 Z-0.3
X37.99 Y16.548 Z-0.321
X38.017 Y16.593 Z-0.329
X38.04 Y16.642 Z-0.339
X38.053 Y16.678 Z-0.345
X38.062 Y16.724 Z-0.349
X38.069 Y16.791 Z-0.352
X38.071 Y16.84 Z-0.356
X38.066 Y16.906 Z-0.357
X38.057 Y16.958 Z-0.359
X38.047 Y16.995
X38.028 Y17.043 Z-0.358
X38.002 Y17.094
X37.963 Y17.148 Z-0.353
X37.936 Y17.179 Z-0.348
X37.91 Y17.2 Z-0.342
X37.853 Y17.238 Z-0.328
X37.804 Y17.261 Z-0.31
X37.762 Y17.277 Z-0.299
X37.706 Y17.294 Z-0.289
X37.652 Y17.307 Z-0.283
X37.586 Y17.317 Z-0.277
X37.514 Y17.321 Z-0.276
X37.386 Y17.324 Z-0.273
X37.201
X36.793 Z-0.274
X36.747 Y17.319 Z-0.283
X36.702 Y17.309 Z-0.3
X36.657 Y17.294 Z-0.325
X36.612 Y17.274 Z-0.36
X36.589 Y17.263 Z-0.38
X36.32 Y17.532 Z0.087
X36.589 Y17.263 Z-0.38
X36.581 Y17.233 Z-0.366
X36.573 Y17.19 Z-0.352
X36.568 Y17.146 Z-0.344
X36.567 Y16.494 Z-0.343
X36.569 Y16.455 Z-0.345
X36.574 Y16.415 Z-0.353
X36.581 Y16.376 Z-0.367
X36.592 Y16.337 Z-0.385
X36.606 Y16.298 Z-0.41
G0 Z5
X38.794 Y15.077
G1 Z0.087 F250
X39.063 Y15.346 Z-0.379
X39.108 Y15.324 Z-0.34
X39.154 Y15.306 Z-0.31
X39.199 Y15.294 Z-0.289
X39.244 Y15.287 Z-0.276
X39.29 Y15.284 Z-0.271
X40.454
X40.661 Y15.077 Z0.087
X40.454 Y15.284 Z-0.271
X40.661 Y15.491 Z0.087
X40.454 Y15.284 Z-0.271
X39.29
X39.244 Y15.287 Z-0.276
X39.199 Y15.294 Z-0.289
X39.154 Y15.306 Z-0.31
X39.108 Y15.324 Z-0.34
X39.063 Y15.346 Z-0.379
X39.052 Y15.39 Z-0.361
X39.045 Y15.433 Z-0.348
X39.042 Y15.476 Z-0.343
Y15.491
Y16.18
X39.046 Y16.221 Z-0.349
X39.053 Y16.262 Z-0.361
X39.063 Y16.304 Z-0.379
X39.077 Y16.345 Z-0.403
X39.085 Y16.366 Z-0.417
X39.095 Z-0.405
X39.136 Z-0.359
X39.177 Z-0.321
X39.208 Z-0.299
X39.239 Z-0.282
X39.269 Z-0.273
X40.315 Z-0.271
X40.522 Y16.572 Z0.087
X40.315 Y16.366 Z-0.271
X40.522 Y16.159 Z0.087
X40.315 Y16.366 Z-0.271
X39.269 Z-0.273
X39.239 Z-0.282
X39.208 Z-0.299
X39.177 Z-0.321
X39.136 Z-0.359
X39.095 Z-0.405
X39.085 Z-0.417
X39.07 Y16.407 Z-0.39
X39.058 Y16.448 Z-0.369
X39.049 Y16.49 Z-0.355
X39.044 Y16.531 Z-0.346
X39.042 Y16.572 Z-0.343
X39.043 Y17.146 Z-0.344
X39.047 Y17.19 Z-0.352
X39.056 Y17.233 Z-0.366
X39.063 Y17.263 Z-0.38
X38.794 Y17.532 Z0.087
X39.063 Y17.263 Z-0.38
X39.109 Y17.285 Z-0.341
X39.154 Y17.302 Z-0.311
X39.199 Y17.314 Z-0.29
X39.245 Y17.322 Z-0.277
X39.29 Y17.324 Z-0.273
X40.407
X40.614 Y17.117 Z0.087
X40.407 Y17.324 Z-0.273
X40.614 Y17.532 Z0.087
G0 Z5
X40.844
G1 Z0.087 F250
X41.154 Y17.287 Z-0.338
X41.351 Y17.532 Z0.087
X41.154 Y17.287 Z-0.338
X41.495 Y15.796 Z-0.313
X41.506 Y15.759 Z-0.316
X41.517 Y15.726 Z-0.322
X41.532 Y15.694 Z-0.334
X41.549 Y15.662 Z-0.349
X41.568 Y15.632 Z-0.369
X41.59 Y15.601 Z-0.394
X41.614 Y15.571 Z-0.423
X41.641 Y15.542 Z-0.457
X41.671 Y15.514 Z-0.495
X41.703 Y15.486 Z-0.538
X41.702 Y15.422 Z-0.511
X41.43 Y15.077 Z0.087
X41.702 Y15.422 Z-0.511
X41.967 Y15.077 Z0.087
X41.702 Y15.422 Z-0.511
X41.703 Y15.486 Z-0.538
X41.738 Y15.513 Z-0.491
X41.77 Y15.541 Z-0.449
X41.8 Y15.569 Z-0.411
X41.827 Y15.599 Z-0.379
X41.851 Y15.629 Z-0.352
X41.873 Y15.659 Z-0.33
X41.892 Y15.691 Z-0.313
X41.908 Y15.723 Z-0.3
X41.921 Y15.756 Z-0.293
X41.931 Y15.79 Z-0.29
X42.253 Y16.996 Z-0.291
X42.263 Y17.022 Z-0.296
X42.275 Y17.049 Z-0.304
X42.288 Y17.075 Z-0.316
X42.304 Y17.1 Z-0.33
X42.321 Y17.125 Z-0.348
X42.34 Y17.15 Z-0.37
X42.384 Y17.197 Z-0.422
X42.409 Y17.22 Z-0.453
X42.17 Y17.532 Z0.087
X42.409 Y17.22 Z-0.453
X42.45 Y17.222 Z-0.45
X42.491 Y17.221 Z-0.452
X42.515 Y17.219 Z-0.455
X42.759 Y17.532 Z0.087
X42.515 Y17.219 Z-0.455
X42.56 Y17.173 Z-0.4
X42.597 Y17.124 Z-0.357
X42.614 Y17.1 Z-0.34
X42.628 Y17.075 Z-0.326
X42.641 Y17.049 Z-0.315
X42.653 Y17.023 Z-0.307
X42.662 Y16.997 Z-0.302
X42.67 Y16.97 Z-0.3
X42.982 Y15.762 Z-0.284
X42.992 Y15.729 Z-0.287
X43.005 Y15.697 Z-0.294
X43.021 Y15.666 Z-0.306
X43.039 Y15.636 Z-0.322
X43.059 Y15.606 Z-0.343
X43.083 Y15.576 Z-0.37
X43.109 Y15.548 Z-0.4
X43.137 Y15.52 Z-0.436
X43.169 Y15.493 Z-0.476
X43.202 Y15.467 Z-0.521
X43.203 Y15.415 Z-0.499
X43.469 Y15.077 Z0.087
X43.203 Y15.415 Z-0.499
X42.943 Y15.077 Z0.087
X43.203 Y15.415 Z-0.499
X43.202 Y15.467 Z-0.521
X43.234 Y15.494 Z-0.479
X43.263 Y15.522 Z-0.441
X43.29 Y15.55 Z-0.408
X43.314 Y15.579 Z-0.38
X43.335 Y15.608 Z-0.355
X43.354 Y15.638 Z-0.335
X43.371 Y15.669 Z-0.32
X43.385 Y15.7 Z-0.309
X43.397 Y15.732 Z-0.302
X43.406 Y15.765 Z-0.3
X43.759 Y17.291 Z-0.33
X43.566 Y17.532 Z0.087
X43.759 Y17.291 Z-0.33
X44.065 Y17.532 Z0.087
G0 Z15
M9
M30
%
