%
(1)
(Holes)
(T1  D=3.175 CR=0 - ZMIN=-3.302 - flat end mill)
G90 G94
G17
G21

(2D Contour5)
M9
T1 M6
S10000 M3
G54
M9
G0 X32.354 Y31.433
Z15
Z5
G1 Z1.25 F250
Z0.067
G18 G2 X32.671 Z-0.25 I0.318
G1 X32.988
G17 G3 X33.306 Y31.75 J0.317
X26.081 I-3.612
X33.306 I3.612
X32.988 Y32.068 I-0.318
G1 X32.671
G18 G3 X32.354 Z0.067 K0.318
G0 Z5
Y31.433
G1 Z1 F250
Z-0.183
G2 X32.671 Z-0.5 I0.318
G1 X32.988
G17 G3 X33.306 Y31.75 J0.317
X26.081 I-3.612
X33.306 I3.612
X32.988 Y32.068 I-0.318
G1 X32.671
G18 G3 X32.354 Z-0.183 K0.317
G0 Z5
Y31.433
G1 Z0.75 F250
Z-0.433
G2 X32.671 Z-0.75 I0.318
G1 X32.988
G17 G3 X33.306 Y31.75 J0.317
X26.081 I-3.612
X33.306 I3.612
X32.988 Y32.068 I-0.318
G1 X32.671
G18 G3 X32.354 Z-0.433 K0.317
G0 Z5
Y31.433
G1 Z0.5 F250
Z-0.683
G2 X32.671 Z-1 I0.318
G1 X32.988
G17 G3 X33.306 Y31.75 J0.317
X26.081 I-3.612
X33.306 I3.612
X32.988 Y32.068 I-0.318
G1 X32.671
G18 G3 X32.354 Z-0.683 K0.317
G0 Z5
Y31.433
G1 Z0.25 F250
Z-0.933
G2 X32.671 Z-1.25 I0.318
G1 X32.988
G17 G3 X33.306 Y31.75 J0.317
X26.081 I-3.612
X33.306 I3.612
X32.988 Y32.068 I-0.318
G1 X32.671
G18 G3 X32.354 Z-0.933 K0.317
G0 Z5
Y31.433
G1 Z0 F250
Z-1.183
G2 X32.671 Z-1.5 I0.318
G1 X32.988
G17 G3 X33.306 Y31.75 J0.317
X26.081 I-3.612
X33.306 I3.612
X32.988 Y32.068 I-0.318
G1 X32.671
G18 G3 X32.354 Z-1.183 K0.317
G0 Z5
Y31.433
G1 Z-0.25 F250
Z-1.433
G2 X32.671 Z-1.75 I0.318
G1 X32.988
G17 G3 X33.306 Y31.75 J0.317
X26.081 I-3.612
X33.306 I3.612
X32.988 Y32.068 I-0.318
G1 X32.671
G18 G3 X32.354 Z-1.433 K0.317
G0 Z5
Y31.433
G1 Z-0.5 F250
Z-1.683
G2 X32.671 Z-2 I0.318
G1 X32.988
G17 G3 X33.306 Y31.75 J0.317
X26.081 I-3.612
X33.306 I3.612
X32.988 Y32.068 I-0.318
G1 X32.671
G18 G3 X32.354 Z-1.683 K0.317
G0 Z5
Y31.433
G1 Z-0.75 F250
Z-1.933
G2 X32.671 Z-2.25 I0.318
G1 X32.988
G17 G3 X33.306 Y31.75 J0.317
X26.081 I-3.612
X33.306 I3.612
X32.988 Y32.068 I-0.318
G1 X32.671
G18 G3 X32.354 Z-1.933 K0.317
G0 Z5
Y31.433
G1 Z-1 F250
Z-2.183
G2 X32.671 Z-2.5 I0.318
G1 X32.988
G17 G3 X33.306 Y31.75 J0.317
X26.081 I-3.612
X33.306 I3.612
X32.988 Y32.068 I-0.318
G1 X32.671
G18 G3 X32.354 Z-2.183 K0.318
G0 Z5
Y31.433
G1 Z-1.25 F250
Z-2.433
G2 X32.671 Z-2.75 I0.318
G1 X32.988
G17 G3 X33.306 Y31.75 J0.317
X26.081 I-3.612
X33.306 I3.612
X32.988 Y32.068 I-0.318
G1 X32.671
G18 G3 X32.354 Z-2.433 K0.318
G0 Z5
Y31.433
G1 Z-1.5 F250
Z-2.683
G2 X32.671 Z-3 I0.318
G1 X32.988
G17 G3 X33.306 Y31.75 J0.317
X26.081 I-3.612
X33.306 I3.612
X32.988 Y32.068 I-0.318
G1 X32.671
G18 G3 X32.354 Z-2.683 K0.318
G0 Z5
Y31.433
G1 Z-1.75 F250
Z-2.834
G2 X32.671 Z-3.151 I0.318
G1 X32.988
G17 G3 X33.306 Y31.75 J0.317
X26.081 I-3.612
X33.306 I3.612
X32.988 Y32.068 I-0.318
G1 X32.671
G18 G3 X32.354 Z-2.834 K0.318
G0 Z5
Y31.433
G1 Z-1.901 F250
Z-2.985
G2 X32.671 Z-3.302 I0.318
G1 X32.988
G17 G3 X33.306 Y31.75 J0.317
X26.081 I-3.612
X33.306 I3.612
X32.988 Y32.068 I-0.318
G1 X32.671
G18 G3 X32.354 Z-2.985 K0.318
G0 Z5
X50.06 Y21.983
G1 Z1.25 F250
Z0.067
G2 X50.377 Z-0.25 I0.317
G1 X50.695
G17 G3 X51.013 Y22.301 J0.317
X48.987 I-1.013
G1 Y7.199
G3 X51.013 I1.013
G1 Y22.301
G3 X50.695 Y22.618 I-0.318
G1 X50.377
G18 G3 X50.06 Z0.067 K0.318
G0 Z5
Y21.983
G1 Z1 F250
Z-0.183
G2 X50.377 Z-0.5 I0.317
G1 X50.695
G17 G3 X51.013 Y22.301 J0.317
X48.987 I-1.013
G1 Y7.199
G3 X51.013 I1.013
G1 Y22.301
G3 X50.695 Y22.618 I-0.318
G1 X50.377
G18 G3 X50.06 Z-0.183 K0.317
G0 Z5
Y21.983
G1 Z0.75 F250
Z-0.433
G2 X50.377 Z-0.75 I0.317
G1 X50.695
G17 G3 X51.013 Y22.301 J0.317
X48.987 I-1.013
G1 Y7.199
G3 X51.013 I1.013
G1 Y22.301
G3 X50.695 Y22.618 I-0.318
G1 X50.377
G18 G3 X50.06 Z-0.433 K0.317
G0 Z5
Y21.983
G1 Z0.5 F250
Z-0.683
G2 X50.377 Z-1 I0.317
G1 X50.695
G17 G3 X51.013 Y22.301 J0.317
X48.987 I-1.013
G1 Y7.199
G3 X51.013 I1.013
G1 Y22.301
G3 X50.695 Y22.618 I-0.318
G1 X50.377
G18 G3 X50.06 Z-0.683 K0.317
G0 Z5
Y21.983
G1 Z0.25 F250
Z-0.933
G2 X50.377 Z-1.25 I0.317
G1 X50.695
G17 G3 X51.013 Y22.301 J0.317
X48.987 I-1.013
G1 Y7.199
G3 X51.013 I1.013
G1 Y22.301
G3 X50.695 Y22.618 I-0.318
G1 X50.377
G18 G3 X50.06 Z-0.933 K0.317
G0 Z5
Y21.983
G1 Z0 F250
Z-1.183
G2 X50.377 Z-1.5 I0.317
G1 X50.695
G17 G3 X51.013 Y22.301 J0.317
X48.987 I-1.013
G1 Y7.199
G3 X51.013 I1.013
G1 Y22.301
G3 X50.695 Y22.618 I-0.318
G1 X50.377
G18 G3 X50.06 Z-1.183 K0.317
G0 Z5
Y21.983
G1 Z-0.25 F250
Z-1.433
G2 X50.377 Z-1.75 I0.317
G1 X50.695
G17 G3 X51.013 Y22.301 J0.317
X48.987 I-1.013
G1 Y7.199
G3 X51.013 I1.013
G1 Y22.301
G3 X50.695 Y22.618 I-0.318
G1 X50.377
G18 G3 X50.06 Z-1.433 K0.317
G0 Z5
Y21.983
G1 Z-0.5 F250
Z-1.683
G2 X50.377 Z-2 I0.317
G1 X50.695
G17 G3 X51.013 Y22.301 J0.317
X48.987 I-1.013
G1 Y7.199
G3 X51.013 I1.013
G1 Y22.301
G3 X50.695 Y22.618 I-0.318
G1 X50.377
G18 G3 X50.06 Z-1.683 K0.317
G0 Z5
Y21.983
G1 Z-0.75 F250
Z-1.933
G2 X50.377 Z-2.25 I0.317
G1 X50.695
G17 G3 X51.013 Y22.301 J0.317
X48.987 I-1.013
G1 Y7.199
G3 X51.013 I1.013
G1 Y22.301
G3 X50.695 Y22.618 I-0.318
G1 X50.377
G18 G3 X50.06 Z-1.933 K0.317
G0 Z5
Y21.983
G1 Z-1 F250
Z-2.183
G2 X50.377 Z-2.5 I0.317
G1 X50.695
G17 G3 X51.013 Y22.301 J0.317
X48.987 I-1.013
G1 Y7.199
G3 X51.013 I1.013
G1 Y22.301
G3 X50.695 Y22.618 I-0.318
G1 X50.377
G18 G3 X50.06 Z-2.183 K0.318
G0 Z5
Y21.983
G1 Z-1.25 F250
Z-2.433
G2 X50.377 Z-2.75 I0.317
G1 X50.695
G17 G3 X51.013 Y22.301 J0.317
X48.987 I-1.013
G1 Y7.199
G3 X51.013 I1.013
G1 Y22.301
G3 X50.695 Y22.618 I-0.318
G1 X50.377
G18 G3 X50.06 Z-2.433 K0.318
G0 Z5
Y21.983
G1 Z-1.5 F250
Z-2.683
G2 X50.377 Z-3 I0.317
G1 X50.695
G17 G3 X51.013 Y22.301 J0.317
X48.987 I-1.013
G1 Y7.199
G3 X51.013 I1.013
G1 Y22.301
G3 X50.695 Y22.618 I-0.318
G1 X50.377
G18 G3 X50.06 Z-2.683 K0.318
G0 Z5
Y21.983
G1 Z-1.75 F250
Z-2.834
G2 X50.377 Z-3.151 I0.317
G1 X50.695
G17 G3 X51.013 Y22.301 J0.317
X48.987 I-1.013
G1 Y7.199
G3 X51.013 I1.013
G1 Y22.301
G3 X50.695 Y22.618 I-0.318
G1 X50.377
G18 G3 X50.06 Z-2.834 K0.318
G0 Z5
Y21.983
G1 Z-1.901 F250
Z-2.985
G2 X50.377 Z-3.302 I0.317
G1 X50.695
G17 G3 X51.013 Y22.301 J0.317
X48.987 I-1.013
G1 Y7.199
G3 X51.013 I1.013
G1 Y22.301
G3 X50.695 Y22.618 I-0.318
G1 X50.377
G18 G3 X50.06 Z-2.985 K0.318
G0 Z5
X10.06 Y21.928
G1 Z1.25 F250
Z0.067
G2 X10.377 Z-0.25 I0.317
G1 X10.695
G17 G3 X11.012 Y22.245 J0.318
X8.988 I-1.012
G1 Y7.255
G3 X11.012 I1.012
G1 Y22.245
G3 X10.695 Y22.563 I-0.318
G1 X10.377
G18 G3 X10.06 Z0.067 K0.318
G0 Z5
Y21.928
G1 Z1 F250
Z-0.183
G2 X10.377 Z-0.5 I0.317
G1 X10.695
G17 G3 X11.012 Y22.245 J0.318
X8.988 I-1.012
G1 Y7.255
G3 X11.012 I1.012
G1 Y22.245
G3 X10.695 Y22.563 I-0.318
G1 X10.377
G18 G3 X10.06 Z-0.183 K0.317
G0 Z5
Y21.928
G1 Z0.75 F250
Z-0.433
G2 X10.377 Z-0.75 I0.317
G1 X10.695
G17 G3 X11.012 Y22.245 J0.318
X8.988 I-1.012
G1 Y7.255
G3 X11.012 I1.012
G1 Y22.245
G3 X10.695 Y22.563 I-0.318
G1 X10.377
G18 G3 X10.06 Z-0.433 K0.317
G0 Z5
Y21.928
G1 Z0.5 F250
Z-0.683
G2 X10.377 Z-1 I0.317
G1 X10.695
G17 G3 X11.012 Y22.245 J0.318
X8.988 I-1.012
G1 Y7.255
G3 X11.012 I1.012
G1 Y22.245
G3 X10.695 Y22.563 I-0.318
G1 X10.377
G18 G3 X10.06 Z-0.683 K0.317
G0 Z5
Y21.928
G1 Z0.25 F250
Z-0.933
G2 X10.377 Z-1.25 I0.317
G1 X10.695
G17 G3 X11.012 Y22.245 J0.318
X8.988 I-1.012
G1 Y7.255
G3 X11.012 I1.012
G1 Y22.245
G3 X10.695 Y22.563 I-0.318
G1 X10.377
G18 G3 X10.06 Z-0.933 K0.317
G0 Z5
Y21.928
G1 Z0 F250
Z-1.183
G2 X10.377 Z-1.5 I0.317
G1 X10.695
G17 G3 X11.012 Y22.245 J0.318
X8.988 I-1.012
G1 Y7.255
G3 X11.012 I1.012
G1 Y22.245
G3 X10.695 Y22.563 I-0.318
G1 X10.377
G18 G3 X10.06 Z-1.183 K0.317
G0 Z5
Y21.928
G1 Z-0.25 F250
Z-1.433
G2 X10.377 Z-1.75 I0.317
G1 X10.695
G17 G3 X11.012 Y22.245 J0.318
X8.988 I-1.012
G1 Y7.255
G3 X11.012 I1.012
G1 Y22.245
G3 X10.695 Y22.563 I-0.318
G1 X10.377
G18 G3 X10.06 Z-1.433 K0.317
G0 Z5
Y21.928
G1 Z-0.5 F250
Z-1.683
G2 X10.377 Z-2 I0.317
G1 X10.695
G17 G3 X11.012 Y22.245 J0.318
X8.988 I-1.012
G1 Y7.255
G3 X11.012 I1.012
G1 Y22.245
G3 X10.695 Y22.563 I-0.318
G1 X10.377
G18 G3 X10.06 Z-1.683 K0.317
G0 Z5
Y21.928
G1 Z-0.75 F250
Z-1.933
G2 X10.377 Z-2.25 I0.317
G1 X10.695
G17 G3 X11.012 Y22.245 J0.318
X8.988 I-1.012
G1 Y7.255
G3 X11.012 I1.012
G1 Y22.245
G3 X10.695 Y22.563 I-0.318
G1 X10.377
G18 G3 X10.06 Z-1.933 K0.317
G0 Z5
Y21.928
G1 Z-1 F250
Z-2.183
G2 X10.377 Z-2.5 I0.317
G1 X10.695
G17 G3 X11.012 Y22.245 J0.318
X8.988 I-1.012
G1 Y7.255
G3 X11.012 I1.012
G1 Y22.245
G3 X10.695 Y22.563 I-0.318
G1 X10.377
G18 G3 X10.06 Z-2.183 K0.318
G0 Z5
Y21.928
G1 Z-1.25 F250
Z-2.433
G2 X10.377 Z-2.75 I0.317
G1 X10.695
G17 G3 X11.012 Y22.245 J0.318
X8.988 I-1.012
G1 Y7.255
G3 X11.012 I1.012
G1 Y22.245
G3 X10.695 Y22.563 I-0.318
G1 X10.377
G18 G3 X10.06 Z-2.433 K0.318
G0 Z5
Y21.928
G1 Z-1.5 F250
Z-2.683
G2 X10.377 Z-3 I0.317
G1 X10.695
G17 G3 X11.012 Y22.245 J0.318
X8.988 I-1.012
G1 Y7.255
G3 X11.012 I1.012
G1 Y22.245
G3 X10.695 Y22.563 I-0.318
G1 X10.377
G18 G3 X10.06 Z-2.683 K0.318
G0 Z5
Y21.928
G1 Z-1.75 F250
Z-2.834
G2 X10.377 Z-3.151 I0.317
G1 X10.695
G17 G3 X11.012 Y22.245 J0.318
X8.988 I-1.012
G1 Y7.255
G3 X11.012 I1.012
G1 Y22.245
G3 X10.695 Y22.563 I-0.318
G1 X10.377
G18 G3 X10.06 Z-2.834 K0.318
G0 Z5
Y21.928
G1 Z-1.901 F250
Z-2.985
G2 X10.377 Z-3.302 I0.317
G1 X10.695
G17 G3 X11.012 Y22.245 J0.318
X8.988 I-1.012
G1 Y7.255
G3 X11.012 I1.012
G1 Y22.245
G3 X10.695 Y22.563 I-0.318
G1 X10.377
G18 G3 X10.06 Z-2.985 K0.318
G0 Z15
G17
M9
M30
%
