%
(1)
(Holes)
(T1  D=3.175 CR=0 - ZMIN=-3.302 - flat end mill)
G90 G94
G17
G21

(Bore1)
M9
T1 M6
S10000 M3
G54
M9
G0 X29.439 Y23.671
Z15
Z1.683
G1 Z0 F250
X29.598
G3 X29.679 Y23.752 J0.081
X29.354 Z-0.125 I-0.163
X29.679 Z-0.25 I0.163
X29.354 Z-0.375 I-0.163
X29.679 Z-0.5 I0.163
X29.354 Z-0.625 I-0.163
X29.679 Z-0.75 I0.163
X29.354 Z-0.875 I-0.163
X29.679 Z-1 I0.163
X29.354 Z-1.125 I-0.163
X29.679 Z-1.25 I0.163
X29.354 Z-1.375 I-0.162
X29.679 Z-1.5 I0.162
X29.354 Z-1.625 I-0.162
X29.679 Z-1.75 I0.162
X29.354 Z-1.875 I-0.162
X29.679 Z-2 I0.162
X29.354 Z-2.125 I-0.162
X29.679 Z-2.25 I0.162
X29.354 Z-2.375 I-0.162
X29.679 Z-2.5 I0.162
X29.354 Z-2.625 I-0.162
X29.679 Z-2.75 I0.162
X29.354 Z-2.875 I-0.162
X29.679 Z-3 I0.162
X29.354 Z-3.125 I-0.162
X29.679 Z-3.25 I0.162
X29.559 Y23.909 Z-3.302 I-0.162
X29.474 Y23.595 I-0.042 J-0.157
X29.559 Y23.909 I0.042 J0.157
X29.46 Y23.852 I-0.021 J-0.078
G1 X29.418 Y23.698
G0 Z5
X37.614 Y31.492
Z1.683
G1 Z0 F250
X37.773
G3 X37.854 Y31.573 J0.081
X37.529 Z-0.125 I-0.162
X37.854 Z-0.25 I0.162
X37.529 Z-0.375 I-0.162
X37.854 Z-0.5 I0.162
X37.529 Z-0.625 I-0.162
X37.854 Z-0.75 I0.162
X37.529 Z-0.875 I-0.162
X37.854 Z-1 I0.162
X37.529 Z-1.125 I-0.162
X37.854 Z-1.25 I0.162
X37.529 Z-1.375 I-0.162
X37.854 Z-1.5 I0.162
X37.529 Z-1.625 I-0.162
X37.854 Z-1.75 I0.162
X37.529 Z-1.875 I-0.162
X37.854 Z-2 I0.162
X37.529 Z-2.125 I-0.162
X37.854 Z-2.25 I0.162
X37.529 Z-2.375 I-0.162
X37.854 Z-2.5 I0.162
X37.529 Z-2.625 I-0.162
X37.854 Z-2.75 I0.162
X37.529 Z-2.875 I-0.162
X37.854 Z-3 I0.162
X37.529 Z-3.125 I-0.162
X37.854 Z-3.25 I0.162
X37.734 Y31.73 Z-3.302 I-0.162
X37.649 Y31.416 I-0.042 J-0.157
X37.734 Y31.73 I0.042 J0.157
X37.634 Y31.673 I-0.021 J-0.078
G1 X37.593 Y31.52
G0 Z5
X29.793 Y39.667
Z1.683
G1 Z0 F250
X29.952
G3 X30.033 Y39.748 J0.081
X29.708 Z-0.125 I-0.163
X30.033 Z-0.25 I0.163
X29.708 Z-0.375 I-0.163
X30.033 Z-0.5 I0.163
X29.708 Z-0.625 I-0.163
X30.033 Z-0.75 I0.163
X29.708 Z-0.875 I-0.163
X30.033 Z-1 I0.163
X29.708 Z-1.125 I-0.163
X30.033 Z-1.25 I0.163
X29.708 Z-1.375 I-0.163
X30.033 Z-1.5 I0.163
X29.708 Z-1.625 I-0.163
X30.033 Z-1.75 I0.163
X29.708 Z-1.875 I-0.163
X30.033 Z-2 I0.163
X29.708 Z-2.125 I-0.163
X30.033 Z-2.25 I0.163
X29.708 Z-2.375 I-0.163
X30.033 Z-2.5 I0.163
X29.708 Z-2.625 I-0.163
X30.033 Z-2.75 I0.163
X29.708 Z-2.875 I-0.163
X30.033 Z-3 I0.163
X29.708 Z-3.125 I-0.163
X30.033 Z-3.25 I0.163
X29.913 Y39.905 Z-3.302 I-0.163
X29.828 Y39.591 I-0.042 J-0.157
X29.913 Y39.905 I0.042 J0.157
X29.813 Y39.848 I-0.021 J-0.078
G1 X29.772 Y39.694
G0 Z5
X21.618 Y31.845
Z1.683
G1 Z0 F250
X21.777
G3 X21.858 Y31.927 J0.081
X21.533 Z-0.125 I-0.163
X21.858 Z-0.25 I0.163
X21.533 Z-0.375 I-0.163
X21.858 Z-0.5 I0.163
X21.533 Z-0.625 I-0.163
X21.858 Z-0.75 I0.163
X21.533 Z-0.875 I-0.163
X21.858 Z-1 I0.163
X21.533 Z-1.125 I-0.163
X21.858 Z-1.25 I0.163
X21.533 Z-1.375 I-0.162
X21.858 Z-1.5 I0.162
X21.533 Z-1.625 I-0.162
X21.858 Z-1.75 I0.162
X21.533 Z-1.875 I-0.162
X21.858 Z-2 I0.162
X21.533 Z-2.125 I-0.162
X21.858 Z-2.25 I0.162
X21.533 Z-2.375 I-0.162
X21.858 Z-2.5 I0.162
X21.533 Z-2.625 I-0.162
X21.858 Z-2.75 I0.162
X21.533 Z-2.875 I-0.162
X21.858 Z-3 I0.162
X21.533 Z-3.125 I-0.162
X21.858 Z-3.25 I0.162
X21.738 Y32.084 Z-3.302 I-0.162
X21.653 Y31.77 I-0.042 J-0.157
X21.738 Y32.084 I0.042 J0.157
X21.638 Y32.026 I-0.021 J-0.078
G1 X21.597 Y31.873
G0 Z15
M9
M30
%
