%
(1)
(Holes)
(T1  D=3.175 CR=0 - ZMIN=-3.302 - flat end mill)
G90 G94
G17
G21

(2D Contour6)
M9
T1 M6
S10000 M3
G54
M9
G0 X4.762 Y46.99
Z15
Z5
G1 Z1.25 F250
Z0.067
G19 G2 Y46.673 Z-0.25 J-0.318
G1 Y46.355
G17 G3 X5.08 Y46.037 I0.318
G1 X54.92
G2 X61.588 Y39.37 J-6.667
G1 Y5.08
G2 X54.92 Y-1.587 I-6.668
G1 X5.08
G2 X-1.587 Y5.08 J6.667
G1 Y39.37
G2 X5.08 Y46.037 I6.667
G3 X5.398 Y46.355 J0.318
G1 Y46.673
G19 G3 Y46.99 Z0.067 K0.318
G0 Z5
X4.762
G1 Z1 F250
Z-0.183
G2 Y46.673 Z-0.5 J-0.318
G1 Y46.355
G17 G3 X5.08 Y46.037 I0.318
G1 X54.92
G2 X61.588 Y39.37 J-6.667
G1 Y5.08
G2 X54.92 Y-1.587 I-6.668
G1 X5.08
G2 X-1.587 Y5.08 J6.667
G1 Y39.37
G2 X5.08 Y46.037 I6.667
G3 X5.398 Y46.355 J0.318
G1 Y46.673
G19 G3 Y46.99 Z-0.183 K0.317
G0 Z5
X4.762
G1 Z0.75 F250
Z-0.433
G2 Y46.673 Z-0.75 J-0.318
G1 Y46.355
G17 G3 X5.08 Y46.037 I0.318
G1 X54.92
G2 X61.588 Y39.37 J-6.667
G1 Y5.08
G2 X54.92 Y-1.587 I-6.668
G1 X5.08
G2 X-1.587 Y5.08 J6.667
G1 Y39.37
G2 X5.08 Y46.037 I6.667
G3 X5.398 Y46.355 J0.318
G1 Y46.673
G19 G3 Y46.99 Z-0.433 K0.317
G0 Z5
X4.762
G1 Z0.5 F250
Z-0.683
G2 Y46.673 Z-1 J-0.318
G1 Y46.355
G17 G3 X5.08 Y46.037 I0.318
G1 X54.92
G2 X61.588 Y39.37 J-6.667
G1 Y5.08
G2 X54.92 Y-1.587 I-6.668
G1 X5.08
G2 X-1.587 Y5.08 J6.667
G1 Y39.37
G2 X5.08 Y46.037 I6.667
G3 X5.398 Y46.355 J0.318
G1 Y46.673
G19 G3 Y46.99 Z-0.683 K0.317
G0 Z5
X4.762
G1 Z0.25 F250
Z-0.933
G2 Y46.673 Z-1.25 J-0.318
G1 Y46.355
G17 G3 X5.08 Y46.037 I0.318
G1 X54.92
G2 X61.588 Y39.37 J-6.667
G1 Y5.08
G2 X54.92 Y-1.587 I-6.668
G1 X5.08
G2 X-1.587 Y5.08 J6.667
G1 Y39.37
G2 X5.08 Y46.037 I6.667
G3 X5.398 Y46.355 J0.318
G1 Y46.673
G19 G3 Y46.99 Z-0.933 K0.317
G0 Z5
X4.762
G1 Z0 F250
Z-1.183
G2 Y46.673 Z-1.5 J-0.318
G1 Y46.355
G17 G3 X5.08 Y46.037 I0.318
G1 X54.92
G2 X61.588 Y39.37 J-6.667
G1 Y5.08
G2 X54.92 Y-1.587 I-6.668
G1 X5.08
G2 X-1.587 Y5.08 J6.667
G1 Y39.37
G2 X5.08 Y46.037 I6.667
G3 X5.398 Y46.355 J0.318
G1 Y46.673
G19 G3 Y46.99 Z-1.183 K0.317
G0 Z5
X4.762
G1 Z-0.25 F250
Z-1.433
G2 Y46.673 Z-1.75 J-0.318
G1 Y46.355
G17 G3 X5.08 Y46.037 I0.318
G1 X54.92
G2 X61.588 Y39.37 J-6.667
G1 Y5.08
G2 X54.92 Y-1.587 I-6.668
G1 X5.08
G2 X-1.587 Y5.08 J6.667
G1 Y39.37
G2 X5.08 Y46.037 I6.667
G3 X5.398 Y46.355 J0.318
G1 Y46.673
G19 G3 Y46.99 Z-1.433 K0.317
G0 Z5
X4.762
G1 Z-0.5 F250
Z-1.683
G2 Y46.673 Z-2 J-0.318
G1 Y46.355
G17 G3 X5.08 Y46.037 I0.318
G1 X54.92
G2 X61.588 Y39.37 J-6.667
G1 Y5.08
G2 X54.92 Y-1.587 I-6.668
G1 X5.08
G2 X-1.587 Y5.08 J6.667
G1 Y39.37
G2 X5.08 Y46.037 I6.667
G3 X5.398 Y46.355 J0.318
G1 Y46.673
G19 G3 Y46.99 Z-1.683 K0.317
G0 Z5
X4.762
G1 Z-0.75 F250
Z-1.933
G2 Y46.673 Z-2.25 J-0.318
G1 Y46.355
G17 G3 X5.08 Y46.037 I0.318
G1 X54.92
G2 X61.588 Y39.37 J-6.667
G1 Y5.08
G2 X54.92 Y-1.587 I-6.668
G1 X5.08
G2 X-1.587 Y5.08 J6.667
G1 Y39.37
G2 X5.08 Y46.037 I6.667
G3 X5.398 Y46.355 J0.318
G1 Y46.673
G19 G3 Y46.99 Z-1.933 K0.317
G0 Z5
X4.762
G1 Z-1 F250
Z-2.183
G2 Y46.673 Z-2.5 J-0.318
G1 Y46.355
G17 G3 X5.08 Y46.037 I0.318
G1 X54.92
G2 X61.588 Y39.37 J-6.667
G1 Y5.08
G2 X54.92 Y-1.587 I-6.668
G1 X5.08
G2 X-1.587 Y5.08 J6.667
G1 Y39.37
G2 X5.08 Y46.037 I6.667
G3 X5.398 Y46.355 J0.318
G1 Y46.673
G19 G3 Y46.99 Z-2.183 K0.318
G0 Z5
X4.762
G1 Z-1.25 F250
Z-2.433
G2 Y46.673 Z-2.75 J-0.318
G1 Y46.355
G17 G3 X5.08 Y46.037 I0.318
G1 X54.92
G2 X61.588 Y39.37 J-6.667
G1 Y5.08
G2 X54.92 Y-1.587 I-6.668
G1 X5.08
G2 X-1.587 Y5.08 J6.667
G1 Y39.37
G2 X5.08 Y46.037 I6.667
G3 X5.398 Y46.355 J0.318
G1 Y46.673
G19 G3 Y46.99 Z-2.433 K0.318
G0 Z5
X4.762
G1 Z-1.5 F250
Z-2.683
G2 Y46.673 Z-3 J-0.318
G1 Y46.355
G17 G3 X5.08 Y46.037 I0.318
G1 X54.92
G2 X61.588 Y39.37 J-6.667
G1 Y5.08
G2 X54.92 Y-1.587 I-6.668
G1 X5.08
G2 X-1.587 Y5.08 J6.667
G1 Y39.37
G2 X5.08 Y46.037 I6.667
G3 X5.398 Y46.355 J0.318
G1 Y46.673
G19 G3 Y46.99 Z-2.683 K0.318
G0 Z5
X4.762
G1 Z-1.75 F250
Z-2.834
G2 Y46.673 Z-3.151 J-0.318
G1 Y46.355
G17 G3 X5.08 Y46.037 I0.318
G1 X54.92
G2 X61.588 Y39.37 J-6.667
G1 Y5.08
G2 X54.92 Y-1.587 I-6.668
G1 X5.08
G2 X-1.587 Y5.08 J6.667
G1 Y39.37
G2 X5.08 Y46.037 I6.667
G3 X5.398 Y46.355 J0.318
G1 Y46.673
G19 G3 Y46.99 Z-2.834 K0.318
G0 Z5
X4.762
G1 Z-1.901 F250
Z-2.985
G2 Y46.673 Z-3.302 J-0.318
G1 Y46.355
G17 G3 X5.08 Y46.037 I0.318
G1 X54.92
G2 X61.588 Y39.37 J-6.667
G1 Y5.08
G2 X54.92 Y-1.587 I-6.668
G1 X5.08
G2 X-1.587 Y5.08 J6.667
G1 Y39.37
G2 X5.08 Y46.037 I6.667
G3 X5.398 Y46.355 J0.318
G1 Y46.673
G19 G3 Y46.99 Z-2.985 K0.318
G0 Z15
G17
M9
M30
%
