%
(1)
(Motor Engrave)
(T1  D=3.17 CR=0 TAPER=30deg - ZMIN=-0.544 - chamfer mill)
G90 G94
G17
G21

(Engrave3)
M9
T1 M6
S12000 M3
G54
M9
G0 X52.749 Y12.395
Z15
Z5
G1 Z0.087 F200
X52.996 Y12.642 Z-0.343
X52.749 Y12.89 Z0.087
X52.996 Y12.642 Z-0.343
X54.815 Z-0.345
X54.841 Z-0.352
X54.875 Z-0.368
X54.908 Z-0.39
X54.922 Z-0.401
X54.948 Y12.593 Z-0.355
X54.969 Y12.543 Z-0.319
X54.984 Y12.494 Z-0.293
X54.989 Y12.469 Z-0.284
X54.993 Y12.444 Z-0.278
X54.995 Y12.419 Z-0.274
X54.996 Y12.395 Z-0.273
Y11.876
X54.788 Y11.668 Z0.087
X54.996 Y11.876 Z-0.273
X55.203 Y11.668 Z0.087
X54.996 Y11.876 Z-0.273
Y12.395
X54.995 Y12.419 Z-0.274
X54.993 Y12.444 Z-0.278
X54.989 Y12.469 Z-0.284
X54.984 Y12.494 Z-0.293
X54.969 Y12.543 Z-0.319
X54.948 Y12.593 Z-0.355
X54.922 Y12.642 Z-0.401
X54.948 Y12.692 Z-0.355
X54.969 Y12.742 Z-0.319
X54.984 Y12.791 Z-0.293
X54.989 Y12.816 Z-0.284
X54.993 Y12.841 Z-0.278
X54.995 Y12.866 Z-0.274
X54.996 Y13.411 Z-0.273
X54.788 Y13.619 Z0.087
X54.996 Y13.411 Z-0.273
X55.203 Y13.619 Z0.087
G0 Z5
X54.255 Y19.06
G1 Z-0.351 F200
X54.316 Y19.071
X54.388 Y19.089 Z-0.349
X54.426 Y19.101 Z-0.347
X54.495 Y19.13 Z-0.343
X54.558 Y19.163 Z-0.338
X54.633 Y19.208 Z-0.332
X54.718 Y19.264 Z-0.326
X54.751 Y19.288 Z-0.322
X54.775 Y19.314 Z-0.316
X54.803 Y19.345 Z-0.313
X54.869 Y19.429 Z-0.307
X54.918 Y19.502 Z-0.302
X54.947 Y19.553 Z-0.298
X54.964 Y19.591 Z-0.295
X54.987 Y19.654 Z-0.29
X55.002 Y19.716 Z-0.285
X55.013 Y19.774 Z-0.282
X55.025 Y19.872 Z-0.28
X55.033 Y19.975
X55.032 Y19.991
X55.023 Y20.118 Z-0.286
X55.01 Y20.204 Z-0.29
X54.995 Y20.264 Z-0.292
X54.975 Y20.327 Z-0.296
X54.951 Y20.386 Z-0.303
X54.928 Y20.432 Z-0.31
X54.888 Y20.498 Z-0.319
X54.854 Y20.547 Z-0.324
X54.82 Y20.588 Z-0.326
X54.762 Y20.65 Z-0.327
X54.74 Y20.668 Z-0.33
X54.66 Y20.726 Z-0.341
X54.609 Y20.758 Z-0.345
X54.536 Y20.798 Z-0.347
X54.483 Y20.823 Z-0.348
X54.411 Y20.848 Z-0.347
X54.339 Y20.869 Z-0.349
X54.259 Y20.886 Z-0.352
X54.175 Y20.897 Z-0.354
X54.104 Y20.903 Z-0.355
X53.964 Y20.907 Z-0.356
X53.813 Y20.899 Z-0.354
X53.703 Y20.887
X53.637 Y20.875 Z-0.355
X53.567 Y20.857 Z-0.354
X53.504 Y20.835 Z-0.353
X53.461 Y20.816 Z-0.351
X53.396 Y20.783 Z-0.347
X53.314 Y20.733 Z-0.341
X53.218 Y20.668 Z-0.336
X53.204 Y20.657 Z-0.333
X53.179 Y20.632 Z-0.327
X53.152 Y20.6 Z-0.324
X53.085 Y20.516 Z-0.316
X53.036 Y20.444 Z-0.31
X53.007 Y20.392 Z-0.305
X52.99 Y20.355 Z-0.302
X52.967 Y20.292 Z-0.295
X52.951 Y20.23 Z-0.289
X52.94 Y20.172 Z-0.285
X52.929 Y20.089 Z-0.282
X52.919 Y19.973 Z-0.28
X52.92 Y19.952
X52.932 Y19.823 Z-0.283
X52.946 Y19.737 Z-0.287
X52.96 Y19.674 Z-0.292
X52.981 Y19.611 Z-0.298
X52.994 Y19.579 Z-0.302
X53.023 Y19.521 Z-0.307
X53.056 Y19.47 Z-0.311
X53.105 Y19.402 Z-0.317
X53.153 Y19.344 Z-0.322
X53.19 Y19.302 Z-0.327
X53.212 Y19.281 Z-0.334
X53.319 Y19.21 Z-0.34
X53.406 Y19.158 Z-0.346
X53.431 Y19.145 Z-0.348
X53.472 Y19.125 Z-0.35
X53.545 Y19.096 Z-0.353
X53.583 Y19.085 Z-0.354
X53.654 Y19.068
X53.724 Y19.057
X53.824 Y19.046 Z-0.355
X53.978 Y19.039 Z-0.357
X54.021 Y19.04 Z-0.355
X54.163 Y19.049 Z-0.353
X54.247 Y19.059 Z-0.351
X54.255 Y19.06
G0 Z5
X53.973 Y32.753
G1 Z-0.357 F200
X53.82 Y32.761 Z-0.355
X53.711 Y32.773 Z-0.354
X53.644 Y32.784 Z-0.355
X53.572 Y32.802 Z-0.354
X53.527 Y32.817 Z-0.353
X53.464 Y32.843 Z-0.35
X53.4 Y32.876 Z-0.346
X53.316 Y32.926 Z-0.34
X53.219 Y32.991 Z-0.334
X53.204 Y33.003 Z-0.331
X53.179 Y33.027 Z-0.325
X53.152 Y33.059 Z-0.322
X53.085 Y33.143 Z-0.315
X53.035 Y33.216 Z-0.309
X53.008 Y33.264 Z-0.304
X52.989 Y33.303 Z-0.301
X52.967 Y33.366 Z-0.294
X52.95 Y33.429 Z-0.289
X52.936 Y33.507 Z-0.284
X52.927 Y33.581 Z-0.281
X52.919 Y33.69 Z-0.28
X52.922 Y33.728
X52.932 Y33.834 Z-0.283
X52.946 Y33.922 Z-0.288
X52.961 Y33.984 Z-0.293
X52.98 Y34.045 Z-0.299
X52.994 Y34.08 Z-0.303
X53.024 Y34.137 Z-0.308
X53.055 Y34.188 Z-0.312
X53.104 Y34.255 Z-0.318
X53.153 Y34.316 Z-0.324
X53.193 Y34.36 Z-0.33
X53.218 Y34.383 Z-0.336
X53.343 Y34.466 Z-0.343
X53.409 Y34.504 Z-0.348
X53.469 Y34.535 Z-0.351
X53.539 Y34.563 Z-0.354
X53.578 Y34.575 Z-0.355
X53.649 Y34.592 Z-0.354
X53.718 Y34.603
X53.818 Y34.614
X53.969 Y34.622 Z-0.356
X54.015 Y34.621 Z-0.355
X54.153 Y34.614 Z-0.354
X54.241 Y34.603 Z-0.353
X54.312 Y34.59 Z-0.35
X54.387 Y34.569 Z-0.347
X54.458 Y34.546
X54.493 Y34.533 Z-0.349
X54.582 Y34.488 Z-0.346
X54.64 Y34.453 Z-0.343
X54.693 Y34.416 Z-0.337
X54.768 Y34.359 Z-0.327
X54.788 Y34.338 Z-0.326
X54.846 Y34.271 Z-0.325
X54.879 Y34.228 Z-0.321
X54.919 Y34.164 Z-0.312
X54.94 Y34.124 Z-0.307
X54.966 Y34.064 Z-0.298
X54.987 Y34.006 Z-0.293
X55.005 Y33.939 Z-0.291
X55.018 Y33.869 Z-0.288
X55.027 Y33.791 Z-0.284
X55.033 Y33.682 Z-0.279
X55.03 Y33.644
X55.017 Y33.516 Z-0.282
X55.007 Y33.452 Z-0.284
X54.991 Y33.382 Z-0.289
X54.972 Y33.325 Z-0.294
X54.946 Y33.265 Z-0.298
X54.915 Y33.211 Z-0.302
X54.882 Y33.162 Z-0.305
X54.826 Y33.088 Z-0.311
X54.767 Y33.019 Z-0.317
X54.742 Y32.995 Z-0.324
X54.615 Y32.911 Z-0.333
X54.552 Y32.874 Z-0.338
X54.486 Y32.841 Z-0.343
X54.45 Y32.825 Z-0.346
X54.379 Y32.801 Z-0.349
X54.315 Y32.785 Z-0.351
X54.27 Y32.776
X54.174 Y32.764 Z-0.352
X54.079 Y32.757 Z-0.354
X53.973 Y32.753 Z-0.357
G0 Z5
X52.749 Y13.967
G1 Z0.087 F200
X53.068 Y14.286 Z-0.466
X52.749 Y14.464 Z0.087
X53.068 Y14.286 Z-0.466
X53.216 Y14.328 Z-0.539
X53.251 Y14.303 Z-0.496
X53.286 Y14.281 Z-0.458
X53.321 Y14.261 Z-0.424
X53.355 Y14.244 Z-0.394
X53.39 Y14.23 Z-0.369
X53.425 Y14.218 Z-0.349
X53.46 Y14.209 Z-0.333
X53.494 Y14.202 Z-0.321
X53.529 Y14.198 Z-0.314
X54.973 Y14.197 Z-0.312
X55.203 Y13.967 Z0.087
X54.973 Y14.197 Z-0.312
X55.203 Y14.427 Z0.087
X54.973 Y14.197 Z-0.312
X53.529 Y14.198 Z-0.314
X53.494 Y14.202 Z-0.321
X53.46 Y14.209 Z-0.333
X53.425 Y14.218 Z-0.349
X53.39 Y14.23 Z-0.369
X53.355 Y14.244 Z-0.394
X53.321 Y14.261 Z-0.424
X53.286 Y14.281 Z-0.458
X53.251 Y14.303 Z-0.496
X53.216 Y14.328 Z-0.539
X53.233 Y14.368 Z-0.496
X53.251 Y14.405 Z-0.458
X53.27 Y14.44 Z-0.423
X53.29 Y14.473 Z-0.394
X53.312 Y14.504 Z-0.369
X53.336 Y14.532 Z-0.348
X53.361 Y14.558 Z-0.332
X53.387 Y14.582 Z-0.321
X53.414 Y14.604 Z-0.314
X53.444 Y14.623 Z-0.312
X54.5 Y15.275 Z-0.318
X54.528 Y15.297 Z-0.325
X54.554 Y15.321 Z-0.337
X54.579 Y15.347 Z-0.353
X54.603 Y15.375 Z-0.373
X54.625 Y15.406 Z-0.398
X54.646 Y15.439 Z-0.428
X54.665 Y15.474 Z-0.462
X54.683 Y15.511 Z-0.5
X54.7 Y15.55 Z-0.544
X54.894 Y15.605 Z-0.449
X55.203 Y15.432 Z0.087
X54.894 Y15.605 Z-0.449
X55.203 Y15.914 Z0.087
X54.894 Y15.605 Z-0.449
X54.7 Y15.55 Z-0.544
X54.665 Y15.576 Z-0.5
X54.63 Y15.598 Z-0.46
X54.595 Y15.618 Z-0.426
X54.56 Y15.636 Z-0.395
X54.525 Y15.65 Z-0.37
X54.49 Y15.662 Z-0.349
X54.455 Y15.672 Z-0.333
X54.419 Y15.679 Z-0.321
X54.384 Y15.683 Z-0.315
X52.979 Y15.684 Z-0.312
X52.749 Y15.454 Z0.087
X52.979 Y15.684 Z-0.312
X52.749 Y15.914 Z0.087
G0 Z5
Y21.555
G1 Z0.087 F200
X52.979 Y21.785 Z-0.312
X52.749 Y22.015 Z0.087
X52.979 Y21.785 Z-0.312
X54.681
X54.727 Y21.787 Z-0.316
X54.774 Y21.794 Z-0.329
X54.821 Y21.806 Z-0.349
X54.867 Y21.823 Z-0.378
X54.914 Y21.844 Z-0.414
X55.203 Y21.555 Z0.087
X54.914 Y21.844 Z-0.414
X54.924 Y21.878 Z-0.397
X54.932 Y21.913 Z-0.383
X54.938 Y21.947 Z-0.374
X54.941 Y21.981 Z-0.368
X54.942 Y22.015 Z-0.366
X54.941 Y22.054 Z-0.368
X54.936 Y22.092 Z-0.376
X55.203 Y22.298 Z0.087
X54.936 Y22.092 Z-0.376
X54.917 Y22.11 Z-0.355
X54.879 Y22.141 Z-0.319
X54.838 Y22.168 Z-0.293
X54.797 Y22.189 Z-0.275
X54.754 Y22.205 Z-0.267
X53.476 Y22.536 Z-0.277
X53.444 Y22.545 Z-0.279
X53.413 Y22.557 Z-0.286
X53.383 Y22.571 Z-0.298
X53.354 Y22.588 Z-0.313
X53.325 Y22.607 Z-0.334
X53.297 Y22.629 Z-0.358
X53.269 Y22.653 Z-0.387
X53.242 Y22.68 Z-0.421
X53.216 Y22.709 Z-0.458
X53.19 Y22.741 Z-0.501
X53.055 Z-0.444
X52.749 Y22.503 Z0.087
X53.055 Y22.741 Z-0.444
X52.749 Y22.98 Z0.087
X53.055 Y22.741 Z-0.444
X53.19 Z-0.501
X53.216 Y22.772 Z-0.459
X53.242 Y22.801 Z-0.422
X53.269 Y22.827 Z-0.389
X53.296 Y22.851 Z-0.361
X53.325 Y22.872 Z-0.337
X53.353 Y22.892 Z-0.317
X53.383 Y22.908 Z-0.301
X53.413 Y22.922 Z-0.29
X53.443 Y22.934 Z-0.283
X54.73 Y23.268 Z-0.265
X54.732 Y23.269
X54.776 Y23.283 Z-0.269
X54.818 Y23.302 Z-0.283
X54.859 Y23.326 Z-0.305
X54.898 Y23.355 Z-0.336
X54.936 Y23.389 Z-0.375
X55.203 Y23.184 Z0.087
X54.936 Y23.389 Z-0.375
X54.94 Y23.42 Z-0.369
X54.942 Y23.458 Z-0.366
X54.941 Y23.499 Z-0.368
X54.938 Y23.534 Z-0.374
X54.932 Y23.568 Z-0.383
X54.924 Y23.602 Z-0.397
X54.914 Y23.636 Z-0.414
X55.203 Y23.926 Z0.087
X54.914 Y23.636 Z-0.414
X54.891 Y23.648 Z-0.395
X54.844 Y23.667 Z-0.362
X54.797 Y23.681 Z-0.338
X54.751 Y23.69 Z-0.321
X54.704 Y23.695 Z-0.313
X52.979 Z-0.312
X52.749 Y23.926 Z0.087
X52.979 Y23.695 Z-0.312
X52.749 Y23.465 Z0.087
G0 Z5
Y25.14
G1 Z0.087 F200
X53.002 Y25.597 Z-0.352
X52.749 Y25.732 Z0.087
X53.002 Y25.597 Z-0.352
X53.271 Y25.772 Z-0.359
X53.344 Y25.823 Z-0.356
X53.451 Y25.902 Z-0.346
X53.457 Y25.906
X53.54 Y25.978 Z-0.324
X53.584 Y26.02 Z-0.307
X53.679 Y26.12 Z-0.265
X53.703 Y26.142 Z-0.262
X53.73 Y26.162 Z-0.264
X53.759 Y26.18 Z-0.271
X53.788 Y26.196 Z-0.283
X53.818 Y26.211 Z-0.302
X53.853 Y26.225 Z-0.328
X53.893 Y26.24 Z-0.364
X53.902 Y26.243 Z-0.374
X53.919 Y26.221 Z-0.346
X53.944 Y26.185 Z-0.308
X53.964 Y26.152 Z-0.28
X53.98 Y26.121 Z-0.26
X53.993 Y26.091 Z-0.245
X54.003 Y26.06 Z-0.236
X54.011 Y26.029 Z-0.232
X54.018 Y25.992 Z-0.231
X54.034 Y25.936 Z-0.24
X54.054 Y25.882 Z-0.252
X54.075 Y25.838 Z-0.264
X54.099 Y25.798 Z-0.276
X54.128 Y25.762 Z-0.287
X54.167 Y25.72 Z-0.3
X54.219 Y25.675 Z-0.321
X54.266 Y25.648 Z-0.329
X54.313 Y25.626 Z-0.339
X54.35 Y25.613 Z-0.345
X54.385 Y25.605 Z-0.349
X54.456 Y25.597 Z-0.352
X54.506 Y25.595 Z-0.355
X54.566 Y25.599 Z-0.357
X54.623 Y25.607 Z-0.359
X54.664 Y25.618 Z-0.36
X54.709 Y25.635 Z-0.358
X54.765 Y25.664
X54.814 Y25.699 Z-0.353
X54.85 Y25.729 Z-0.348
X54.872 Y25.757 Z-0.342
X54.91 Y25.813 Z-0.328
X54.934 Y25.866 Z-0.309
X54.953 Y25.916 Z-0.297
X54.968 Y25.967 Z-0.288
X54.982 Y26.036 Z-0.281
X54.989 Y26.089 Z-0.276
X54.993 Y26.186 Z-0.275
X54.996 Y26.327 Z-0.273
Y26.465
X54.995 Y26.873 Z-0.274
X54.99 Y26.919 Z-0.283
X54.98 Y26.964 Z-0.3
X54.965 Y27.009 Z-0.325
X54.946 Y27.054 Z-0.36
X54.934 Y27.077 Z-0.38
X55.203 Y27.346 Z0.087
X54.934 Y27.077 Z-0.38
X54.905 Y27.085 Z-0.366
X54.861 Y27.093 Z-0.352
X54.817 Y27.098 Z-0.344
X54.165 Z-0.343
X54.126 Y27.097 Z-0.345
X54.087 Y27.092 Z-0.353
X54.048 Y27.085 Z-0.367
X54.008 Y27.074 Z-0.386
X53.969 Y27.06 Z-0.41
Y27.008 Z-0.348
Y26.966 Z-0.307
Y26.934 Z-0.282
Y26.903 Z-0.265
Y26.872 Z-0.255
Y26.851 Z-0.253
Y26.694
X53.967 Y26.62 Z-0.256
X53.963 Y26.55 Z-0.264
X53.952 Y26.45 Z-0.282
X53.946 Y26.417 Z-0.291
X53.932 Y26.351 Z-0.317
X53.918 Y26.295 Z-0.343
X53.902 Y26.243 Z-0.374
X53.918 Y26.295 Z-0.343
X53.932 Y26.351 Z-0.317
X53.946 Y26.417 Z-0.291
X53.952 Y26.45 Z-0.282
X53.963 Y26.55 Z-0.264
X53.967 Y26.62 Z-0.256
X53.969 Y26.694 Z-0.253
Y26.851
Y26.872 Z-0.255
Y26.903 Z-0.265
Y26.934 Z-0.282
Y26.966 Z-0.307
Y27.008 Z-0.348
Y27.06 Z-0.41
X53.95 Y27.067 Z-0.397
X53.91 Y27.08 Z-0.375
X53.871 Y27.089 Z-0.359
X53.832 Y27.095 Z-0.349
X53.793 Y27.098 Z-0.343
X52.996
X52.749 Y27.346 Z0.087
X52.996 Y27.098 Z-0.343
X52.749 Y26.851 Z0.087
G0 Z5
Y31.062
G1 Z0.087 F200
X52.996 Y31.309 Z-0.343
X52.749 Y31.557 Z0.087
X52.996 Y31.309 Z-0.343
X54.815 Z-0.345
X54.841 Z-0.352
X54.875 Z-0.368
X54.908 Z-0.39
X54.922 Z-0.401
X54.948 Y31.26 Z-0.355
X54.969 Y31.21 Z-0.319
X54.984 Y31.161 Z-0.293
X54.989 Y31.136 Z-0.284
X54.993 Y31.111 Z-0.278
X54.995 Y31.086 Z-0.274
X54.996 Y31.062 Z-0.273
Y30.543
X54.788 Y30.335 Z0.087
X54.996 Y30.543 Z-0.273
X55.203 Y30.335 Z0.087
X54.996 Y30.543 Z-0.273
Y31.062
X54.995 Y31.086 Z-0.274
X54.993 Y31.111 Z-0.278
X54.989 Y31.136 Z-0.284
X54.984 Y31.161 Z-0.293
X54.969 Y31.21 Z-0.319
X54.948 Y31.26 Z-0.355
X54.922 Y31.309 Z-0.401
X54.948 Y31.359 Z-0.355
X54.969 Y31.409 Z-0.319
X54.984 Y31.458 Z-0.293
X54.989 Y31.483 Z-0.284
X54.993 Y31.508 Z-0.278
X54.995 Y31.532 Z-0.274
X54.996 Y32.078 Z-0.273
X54.788 Y32.285 Z0.087
X54.996 Y32.078 Z-0.273
X55.203 Y32.285 Z0.087
G0 Z5
X52.749 Y35.269
G1 Z0.087 F200
X52.979 Y35.499 Z-0.312
X52.749 Y35.73 Z0.087
X52.979 Y35.499 Z-0.312
X54.681
X54.727 Y35.502 Z-0.316
X54.774 Y35.509 Z-0.328
X54.821 Y35.521 Z-0.349
X54.867 Y35.537 Z-0.378
X54.914 Y35.558 Z-0.414
X55.203 Y35.269 Z0.087
X54.914 Y35.558 Z-0.414
X54.924 Y35.593 Z-0.397
X54.932 Y35.627 Z-0.383
X54.938 Y35.661 Z-0.374
X54.941 Y35.695 Z-0.368
X54.942 Y35.73 Z-0.366
X54.941 Y35.768 Z-0.368
X54.936 Y35.807 Z-0.376
X55.203 Y36.013 Z0.087
X54.936 Y35.807 Z-0.376
X54.917 Y35.824 Z-0.355
X54.879 Y35.856 Z-0.319
X54.838 Y35.882 Z-0.293
X54.797 Y35.903 Z-0.275
X54.754 Y35.92 Z-0.267
X53.476 Y36.25 Z-0.277
X53.444 Y36.259 Z-0.279
X53.413 Y36.271 Z-0.286
X53.383 Y36.286 Z-0.298
X53.354 Y36.302 Z-0.313
X53.325 Y36.322 Z-0.334
X53.297 Y36.343 Z-0.358
X53.269 Y36.368 Z-0.387
X53.242 Y36.394 Z-0.421
X53.216 Y36.424 Z-0.458
X53.19 Y36.455 Z-0.501
X53.055 Z-0.444
X52.749 Y36.217 Z0.087
X53.055 Y36.455 Z-0.444
X52.749 Y36.694 Z0.087
X53.055 Y36.455 Z-0.444
X53.19 Z-0.501
X53.216 Y36.486 Z-0.459
X53.242 Y36.515 Z-0.422
X53.269 Y36.541 Z-0.389
X53.296 Y36.565 Z-0.361
X53.325 Y36.587 Z-0.337
X53.353 Y36.606 Z-0.317
X53.383 Y36.622 Z-0.301
X53.413 Y36.637 Z-0.29
X53.443 Y36.648 Z-0.283
X53.474 Y36.658 Z-0.281
X54.755 Y36.99 Z-0.266
X54.797 Y37.006 Z-0.275
X54.839 Y37.028 Z-0.293
X54.879 Y37.054 Z-0.319
X54.918 Y37.086 Z-0.354
X54.936 Y37.103 Z-0.375
X55.203 Y36.898 Z0.087
X54.936 Y37.103 Z-0.375
X54.94 Y37.134 Z-0.369
X54.942 Y37.172 Z-0.366
X54.941 Y37.214 Z-0.368
X54.938 Y37.248 Z-0.374
X54.932 Y37.282 Z-0.383
X54.924 Y37.317 Z-0.397
X54.914 Y37.351 Z-0.414
X55.203 Y37.64 Z0.087
X54.914 Y37.351 Z-0.414
X54.891 Y37.362 Z-0.395
X54.844 Y37.381 Z-0.362
X54.797 Y37.395 Z-0.338
X54.751 Y37.404 Z-0.321
X54.704 Y37.409 Z-0.313
X52.979 Y37.41 Z-0.312
X52.749 Y37.64 Z0.087
X52.979 Y37.41 Z-0.312
X52.749 Y37.18 Z0.087
G0 Z5
Y40.377
G1 Z0.087 F200
X52.996 Y40.625 Z-0.343
X52.749 Y40.873 Z0.087
X52.996 Y40.625 Z-0.343
X53.675
X53.716 Y40.624 Z-0.346
X53.758 Y40.618 Z-0.355
X53.8 Y40.61 Z-0.37
X53.841 Y40.597 Z-0.391
X53.883 Y40.581 Z-0.419
X53.925 Y40.597 Z-0.391
X53.966 Y40.61 Z-0.37
X54.008 Y40.618 Z-0.355
X54.05 Y40.624 Z-0.346
X54.091 Y40.625 Z-0.343
X54.817 Y40.624 Z-0.344
X54.861 Y40.62 Z-0.352
X54.905 Y40.612 Z-0.366
X54.934 Y40.604 Z-0.38
X55.203 Y40.873 Z0.087
X54.934 Y40.604 Z-0.38
X54.946 Y40.581 Z-0.36
X54.965 Y40.536 Z-0.325
X54.98 Y40.491 Z-0.3
X54.99 Y40.445 Z-0.283
X54.995 Y40.4 Z-0.274
X54.996 Y40.124 Z-0.273
X54.995 Y39.984 Z-0.274
X54.993 Y39.899 Z-0.277
X54.985 Y39.773 Z-0.283
X54.981 Y39.737 Z-0.285
X54.967 Y39.659 Z-0.297
X54.952 Y39.6 Z-0.308
X54.935 Y39.547 Z-0.324
X54.931 Y39.538 Z-0.326
X54.906 Y39.491 Z-0.337
X54.878 Y39.447 Z-0.347
X54.858 Y39.421 Z-0.351
X54.828 Y39.39 Z-0.353
X54.772 Y39.344 Z-0.36
X54.75 Y39.33 Z-0.359
X54.7 Y39.302
X54.652 Y39.281 Z-0.361
X54.609 Y39.267 Z-0.36
X54.554 Y39.257 Z-0.358
X54.459 Y39.249 Z-0.355
X54.398 Y39.25 Z-0.356
X54.334 Y39.257 Z-0.357
X54.29 Y39.265 Z-0.358
X54.239 Y39.281 Z-0.357
X54.184 Y39.305 Z-0.358
X54.124 Y39.34 Z-0.354
X54.093 Y39.362 Z-0.352
X54.062 Y39.391 Z-0.347
X54.026 Y39.428 Z-0.341
X53.991 Y39.475 Z-0.332
X53.969 Y39.511 Z-0.326
X53.947 Y39.558 Z-0.317
X53.935 Y39.588 Z-0.312
X53.925 Y39.622 Z-0.303
X53.917 Y39.655 Z-0.296
X53.898 Y39.77 Z-0.286
X53.89 Y39.849 Z-0.28
X53.885 Y39.929 Z-0.276
X53.883 Y40.377 Z-0.274
Y40.398 Z-0.276
Y40.428 Z-0.285
Y40.459 Z-0.301
Y40.49 Z-0.323
Y40.53 Z-0.361
Y40.581 Z-0.419
G0 Z5
X52.749 Y46.636
G1 Z0.087 F200
X52.984 Y46.871 Z-0.321
X52.749 Y47.107 Z0.087
X52.984 Y46.871 Z-0.321
X54.522
X54.571 Y46.874 Z-0.325
X54.62 Y46.882 Z-0.339
X54.67 Y46.895 Z-0.361
X54.719 Y46.913 Z-0.392
X54.768 Y46.936 Z-0.433
X54.831 Y46.914 Z-0.394
X54.915 Y46.888 Z-0.35
X54.978 Y46.871 Z-0.32
X55.114 Y46.955 Z-0.085
X55.213 Y47.018 Z0.087
X55.114 Y46.955 Z-0.085
X54.978 Y46.871 Z-0.32
X55.213 Y46.636 Z0.087
X54.978 Y46.871 Z-0.32
X54.915 Y46.888 Z-0.35
X54.831 Y46.914 Z-0.394
X54.768 Y46.936 Z-0.433
X54.76 Y46.989 Z-0.373
X54.75 Y47.038 Z-0.326
X54.738 Y47.078 Z-0.291
X54.725 Y47.115 Z-0.265
X54.71 Y47.148 Z-0.247
X54.694 Y47.176 Z-0.235
X54.676 Y47.203 Z-0.228
X54.661 Y47.223
X54.574 Y47.337 Z-0.236
X54.524 Y47.411 Z-0.243
X54.488 Y47.47 Z-0.248
X54.463 Y47.519 Z-0.252
X54.553 Y47.657 Z-0.013
X54.592 Y47.714 Z0.087
X54.553 Y47.657 Z-0.013
X54.463 Y47.519 Z-0.252
X54.395 Y47.561 Z-0.18
X54.283 Y47.634 Z-0.053
X54.165 Y47.714 Z0.087
G0 Z5
X52.749 Y50.105
G1 Z0.087 F200
X52.814 Y50.168 Z-0.026
X52.972 Y50.317 Z-0.3
X52.831 Y50.47 Z-0.056
X52.749 Y50.559 Z0.087
X52.831 Y50.47 Z-0.056
X52.972 Y50.317 Z-0.3
X53.086 Y50.305 Z-0.298
X53.193 Y50.289 Z-0.297
X53.319 Y50.263 Z-0.294
X53.444 Y50.232 Z-0.289
X53.58 Y50.194 Z-0.282
X53.718 Y50.15 Z-0.279
X53.873 Y50.091 Z-0.268
X53.963 Y50.054 Z-0.264
X54.072 Y50.005 Z-0.26
X54.198 Y49.942 Z-0.255
X54.294 Y49.888 Z-0.249
X54.404 Y49.822 Z-0.239
X54.563 Y49.718 Z-0.227
X54.648 Y49.661 Z-0.225
X54.675 Y49.645 Z-0.231
X54.705 Y49.631 Z-0.242
X54.736 Y49.62 Z-0.259
X54.77 Y49.61 Z-0.281
X54.808 Y49.602 Z-0.311
X54.851 Y49.596 Z-0.351
X54.893 Y49.593 Z-0.393
X54.922 Y49.527 Z-0.342
X54.828 Y49.28 Z0.087
X54.922 Y49.527 Z-0.342
X55.17 Y49.28 Z0.087
X54.922 Y49.527 Z-0.342
X54.893 Y49.593 Z-0.393
X54.904 Y49.615 Z-0.374
X54.922 Y49.661 Z-0.342
X54.937 Y49.706 Z-0.317
X54.946 Y49.751 Z-0.301
X54.951 Y49.796 Z-0.293
Y50.67 Z-0.292
X54.733 Y50.889 Z0.087
X54.951 Y50.67 Z-0.292
X55.17 Y50.889 Z0.087
G0 Z5
X52.749 Y51.207
G1 Z0.087 F200
X52.967 Y51.425 Z-0.292
X53.186 Y51.207 Z0.087
X52.967 Y51.425 Z-0.292
X52.968 Y52.17 Z-0.293
X52.971 Y52.198 Z-0.298
X52.976 Y52.227 Z-0.306
X52.982 Y52.255 Z-0.317
X52.99 Y52.283 Z-0.332
X53 Y52.312 Z-0.35
X53.013 Y52.34 Z-0.37
X53.042 Y52.397 Z-0.422
X53.06 Y52.426 Z-0.452
X53.054 Y52.436 Z-0.443
X52.986 Y52.547 Z-0.325
X52.943 Y52.613 Z-0.25
X52.895 Y52.678 Z-0.167
X52.818 Y52.773 Z-0.034
X52.749 Y52.856 Z0.087
X52.818 Y52.773 Z-0.034
X52.895 Y52.678 Z-0.167
X52.943 Y52.613 Z-0.25
X52.986 Y52.547 Z-0.325
X53.054 Y52.436 Z-0.443
X53.06 Y52.426 Z-0.452
X53.108 Y52.419 Z-0.412
X53.152 Y52.409 Z-0.38
X53.194 Y52.396 Z-0.355
X53.232 Y52.381 Z-0.336
X53.265 Y52.364 Z-0.323
X53.297 Y52.345 Z-0.314
X53.345 Y52.309 Z-0.307
X53.407 Y52.259 Z-0.298
X53.469 Y52.203 Z-0.293
X53.588 Y52.081 Z-0.29
X53.715 Y51.946
X53.846 Y51.807 Z-0.293
X53.937 Y51.719 Z-0.296
X54.029 Y51.637 Z-0.298
X54.071 Y51.603 Z-0.296
X54.094 Y51.587 Z-0.297
X54.167 Y51.541 Z-0.302
X54.22 Y51.514 Z-0.304
X54.281 Y51.487 Z-0.308
X54.326 Y51.472 Z-0.312
X54.385 Y51.457 Z-0.318
X54.431 Y51.45 Z-0.32
X54.498 Y51.444 Z-0.321
X54.525 Z-0.323
X54.61 Y51.452 Z-0.321
X54.665 Y51.463 Z-0.322
X54.706 Y51.476 Z-0.321
X54.743 Y51.493 Z-0.317
X54.782 Y51.517 Z-0.311
X54.836 Y51.556 Z-0.305
X54.85 Y51.567 Z-0.303
X54.863 Y51.58 Z-0.298
X54.886 Y51.606 Z-0.29
X54.921 Y51.652 Z-0.284
X54.951 Y51.699 Z-0.278
X54.974 Y51.745 Z-0.272
X54.99 Y51.789 Z-0.265
X55.003 Y51.841 Z-0.258
X55.011 Y51.897 Z-0.253
X55.018 Y51.985 Z-0.251
X55.014 Y52.057
X55.008 Y52.112 Z-0.252
X54.997 Y52.169 Z-0.257
X54.984 Y52.213 Z-0.262
X54.963 Y52.263 Z-0.268
X54.93 Y52.32 Z-0.275
X54.895 Y52.372 Z-0.283
X54.873 Y52.399 Z-0.291
X54.824 Y52.439 Z-0.298
X54.768 Y52.479 Z-0.307
X54.731 Y52.501 Z-0.311
X54.691 Y52.519 Z-0.314
X54.634 Y52.482 Z-0.222
X54.55 Y52.422 Z-0.089
X54.44 Y52.332 Z0.087
X54.55 Y52.422 Z-0.089
X54.634 Y52.482 Z-0.222
X54.691 Y52.519 Z-0.314
X54.648 Y52.586 Z-0.229
X54.596 Y52.659 Z-0.126
X54.487 Y52.801 Z0.087
G0 Z5
X52.749 Y53.184
G1 Z0.087 F200
X52.979 Y53.415 Z-0.312
X52.749 Y53.645 Z0.087
X52.979 Y53.415 Z-0.312
X54.704 Z-0.313
X54.751 Y53.42 Z-0.321
X54.797 Y53.429 Z-0.338
X54.844 Y53.444 Z-0.362
X54.891 Y53.462 Z-0.395
X54.914 Y53.474 Z-0.414
X55.203 Y53.184 Z0.087
X54.914 Y53.474 Z-0.414
X54.924 Y53.508 Z-0.397
X54.932 Y53.542 Z-0.383
X54.938 Y53.576 Z-0.374
X54.941 Y53.611 Z-0.368
X54.942 Y53.645 Z-0.366
X54.941 Y53.683 Z-0.368
X54.936 Y53.722 Z-0.376
X55.203 Y53.928 Z0.087
X54.936 Y53.722 Z-0.376
X54.917 Y53.739 Z-0.355
X54.879 Y53.771 Z-0.319
X54.838 Y53.797 Z-0.293
X54.797 Y53.819 Z-0.275
X54.754 Y53.835 Z-0.267
X53.476 Y54.165 Z-0.277
X53.444 Y54.175 Z-0.279
X53.413 Y54.186 Z-0.286
X53.383 Y54.201 Z-0.298
X53.354 Y54.218 Z-0.313
X53.325 Y54.237 Z-0.334
X53.297 Y54.259 Z-0.358
X53.269 Y54.283 Z-0.387
X53.242 Y54.31 Z-0.421
X53.216 Y54.339 Z-0.458
X53.19 Y54.37 Z-0.501
X53.055 Z-0.444
X52.749 Y54.609 Z0.087
X53.055 Y54.37 Z-0.444
X52.749 Y54.132 Z0.087
X53.055 Y54.37 Z-0.444
X53.19 Z-0.501
X53.216 Y54.402 Z-0.459
X53.242 Y54.43 Z-0.422
X53.269 Y54.457 Z-0.389
X53.296 Y54.481 Z-0.361
X53.325 Y54.502 Z-0.337
X53.353 Y54.521 Z-0.317
X53.383 Y54.538 Z-0.301
X53.413 Y54.552 Z-0.29
X53.443 Y54.564 Z-0.283
X54.73 Y54.898 Z-0.265
X54.732
X54.776 Y54.913 Z-0.269
X54.818 Y54.932 Z-0.283
X54.859 Y54.956 Z-0.305
X54.898 Y54.985 Z-0.336
X54.936 Y55.019 Z-0.375
X55.203 Y54.813 Z0.087
X54.936 Y55.019 Z-0.375
X54.94 Y55.049 Z-0.369
X54.942 Y55.087 Z-0.366
X54.941 Y55.129 Z-0.368
X54.938 Y55.163 Z-0.374
X54.932 Y55.197 Z-0.383
X54.924 Y55.232 Z-0.397
X54.914 Y55.266 Z-0.414
X55.203 Y55.555 Z0.087
X54.914 Y55.266 Z-0.414
X54.891 Y55.277 Z-0.395
X54.844 Y55.296 Z-0.362
X54.797 Y55.31 Z-0.338
X54.751 Y55.32 Z-0.321
X54.704 Y55.324 Z-0.313
X52.979 Y55.325 Z-0.312
X52.749 Y55.555 Z0.087
X52.979 Y55.325 Z-0.312
X52.749 Y55.095 Z0.087
G0 Z5
X53.964 Y29.86
G1 Z-0.356 F200
X54.104 Y29.855 Z-0.355
X54.197 Y29.847 Z-0.354
X54.259 Y29.839 Z-0.352
X54.339 Y29.821 Z-0.349
X54.411 Y29.801 Z-0.347
X54.483 Y29.775 Z-0.348
X54.523 Y29.757 Z-0.347
X54.598 Y29.717 Z-0.346
X54.649 Y29.685 Z-0.342
X54.74 Y29.62 Z-0.33
X54.766 Y29.599 Z-0.327
X54.821 Y29.539 Z-0.326
X54.853 Y29.5 Z-0.324
X54.888 Y29.451 Z-0.319
X54.928 Y29.385 Z-0.31
X54.951 Y29.339 Z-0.303
X54.975 Y29.28 Z-0.296
X54.995 Y29.217 Z-0.292
X55.01 Y29.156 Z-0.29
X55.023 Y29.071 Z-0.286
X55.032 Y28.944 Z-0.28
X55.033 Y28.927
X55.025 Y28.825
X55.017 Y28.75 Z-0.282
X55.003 Y28.669 Z-0.285
X54.987 Y28.607 Z-0.29
X54.965 Y28.544 Z-0.295
X54.947 Y28.506 Z-0.298
X54.918 Y28.454 Z-0.302
X54.869 Y28.382 Z-0.307
X54.803 Y28.298 Z-0.313
X54.775 Y28.266 Z-0.316
X54.751 Y28.241 Z-0.322
X54.718 Y28.217 Z-0.326
X54.633 Y28.16 Z-0.332
X54.559 Y28.116 Z-0.337
X54.495 Y28.083 Z-0.342
X54.426 Y28.054 Z-0.347
X54.388 Y28.041 Z-0.349
X54.317 Y28.023 Z-0.351
X54.247 Y28.011
X54.163 Y28.001 Z-0.353
X54.021 Y27.993 Z-0.355
X53.978 Y27.991 Z-0.357
X53.824 Y27.999 Z-0.355
X53.724 Y28.009 Z-0.354
X53.654 Y28.021
X53.583 Y28.037
X53.545 Y28.049 Z-0.353
X53.472 Y28.078 Z-0.35
X53.406 Y28.111 Z-0.346
X53.319 Y28.163 Z-0.34
X53.212 Y28.234 Z-0.334
X53.19 Y28.254 Z-0.327
X53.129 Y28.326 Z-0.32
X53.072 Y28.399 Z-0.313
X53.039 Y28.447 Z-0.309
X53.008 Y28.501 Z-0.305
X52.982 Y28.559 Z-0.299
X52.968 Y28.601 Z-0.294
X52.951 Y28.664 Z-0.289
X52.936 Y28.746 Z-0.284
X52.929 Y28.807 Z-0.281
X52.92 Y28.909 Z-0.279
X52.919 Y28.925 Z-0.28
X52.929 Y29.042 Z-0.282
X52.94 Y29.124 Z-0.285
X52.951 Y29.183 Z-0.289
X52.967 Y29.244 Z-0.295
X52.99 Y29.307 Z-0.302
X53.007 Y29.345 Z-0.305
X53.036 Y29.396 Z-0.31
X53.085 Y29.469 Z-0.316
X53.152 Y29.552 Z-0.324
X53.179 Y29.584 Z-0.327
X53.204 Y29.61 Z-0.333
X53.236 Y29.633 Z-0.337
X53.317 Y29.687 Z-0.342
X53.397 Y29.736 Z-0.347
X53.46 Y29.769 Z-0.351
X53.522 Y29.795 Z-0.354
X53.567 Y29.81
X53.637 Y29.828 Z-0.355
X53.712 Y29.841 Z-0.354
X53.812 Y29.851
X53.964 Y29.86 Z-0.356
G0 Z5
X55.203 Y16.441
G1 Z0.087 F200
X54.955 Y16.689 Z-0.343
X55.203 Y16.937 Z0.087
X54.955 Y16.689 Z-0.343
X53.661 Y16.692 Z-0.342
X53.544 Y16.699 Z-0.341
X53.419 Y16.712 Z-0.34
X53.367 Y16.72 Z-0.341
X53.34 Y16.726 Z-0.344
X53.266 Y16.749 Z-0.346
X53.228 Y16.765
X53.185 Y16.789 Z-0.343
X53.144 Y16.818 Z-0.341
X53.096 Y16.862 Z-0.336
X53.062 Y16.9 Z-0.331
X53.031 Y16.942 Z-0.321
X53.013 Y16.972 Z-0.318
X52.998 Y17.002 Z-0.315
X52.965 Y17.084 Z-0.301
X52.945 Y17.146 Z-0.294
X52.932 Y17.205 Z-0.288
X52.925 Y17.264 Z-0.284
X52.921 Y17.323 Z-0.282
X52.919 Y17.413 Z-0.28
X52.924 Y17.529 Z-0.284
X52.931 Y17.594 Z-0.288
X52.943 Y17.657 Z-0.295
X52.961 Y17.719 Z-0.302
X52.982 Y17.777 Z-0.312
X53.007 Y17.836 Z-0.323
X53.033 Y17.881 Z-0.327
X53.06 Y17.919 Z-0.335
X53.09 Y17.954 Z-0.34
X53.131 Y17.994 Z-0.344
X53.159 Y18.019 Z-0.347
X53.18 Y18.034
X53.23 Y18.066 Z-0.35
X53.266 Y18.083
X53.329 Y18.105 Z-0.348
X53.401 Y18.122 Z-0.339
X53.455 Y18.13 Z-0.338
X53.576 Y18.143 Z-0.34
X53.693 Y18.149 Z-0.341
X54.955 Y18.151 Z-0.343
X55.203 Y18.399 Z0.087
X54.955 Y18.151 Z-0.343
X55.203 Y17.903 Z0.087
G0 Z5
X53.38 Y45.926
G1 Z0.087 F200
X53.342 Y45.874 Z0.012
X53.273 Y45.777 Z-0.124
X53.232 Y45.714 Z-0.206
X53.203 Y45.665 Z-0.265
X53.181 Y45.621 Z-0.31
X53.262 Y45.574 Z-0.179
X53.339 Y45.523 Z-0.057
X53.428 Y45.457 Z0.087
X53.339 Y45.523 Z-0.057
X53.262 Y45.574 Z-0.179
X53.181 Y45.621 Z-0.31
X53.143 Y45.597 Z-0.304
X53.097 Y45.56 Z-0.298
X53.059 Y45.528 Z-0.294
X53.033 Y45.498 Z-0.285
X53.011 Y45.47 Z-0.279
X52.969 Y45.407 Z-0.271
X52.946 Y45.364 Z-0.264
X52.929 Y45.323 Z-0.257
X52.915 Y45.272 Z-0.25
X52.905 Y45.219 Z-0.244
X52.897 Y45.139 Z-0.24
X52.896 Y45.108 Z-0.238
X52.906 Y45.023 Z-0.239
X52.915 Y44.967 Z-0.242
X52.93 Y44.913 Z-0.248
X52.945 Y44.872 Z-0.254
X52.958 Y44.844 Z-0.258
X52.977 Y44.812 Z-0.263
X53.009 Y44.769 Z-0.267
X53.056 Y44.716 Z-0.271
X53.081 Y44.692 Z-0.274
X53.158 Y44.633 Z-0.293
X53.183 Y44.617 Z-0.297
X53.228 Y44.593 Z-0.301
X53.287 Y44.566 Z-0.309
X53.334 Y44.549 Z-0.316
X53.384 Y44.536 Z-0.322
X53.445 Y44.527 Z-0.326
X53.558 Y44.518 Z-0.331
X53.583 Z-0.332
X53.676 Y44.525 Z-0.329
X53.738 Y44.533
X53.789 Y44.544 Z-0.327
X53.827 Y44.556 Z-0.325
X53.874 Y44.576 Z-0.32
X53.924 Y44.604 Z-0.314
X53.999 Y44.653 Z-0.307
X54.035 Y44.684 Z-0.297
X54.061 Y44.71 Z-0.293
X54.101 Y44.76 Z-0.288
X54.13 Y44.801 Z-0.283
X54.148 Y44.833 Z-0.277
X54.165 Y44.874 Z-0.267
X54.18 Y44.923 Z-0.257
X54.19 Y44.969 Z-0.251
X54.199 Y45.027 Z-0.246
X54.2 Y45.095 Z-0.234
X54.198 Y45.131 Z-0.228
X54.187 Y45.183 Z-0.221
X54.165 Y45.263 Z-0.205
X54.155 Y45.294 Z-0.201
X54.148 Y45.321 Z-0.202
X54.142 Y45.349 Z-0.209
X54.138 Y45.38 Z-0.222
X54.135 Y45.413 Z-0.242
X54.134 Y45.452 Z-0.273
X54.136 Y45.498 Z-0.318
X54.14 Y45.55 Z-0.377
X54.105 Y45.571 Z-0.353
X53.996 Y45.538 Z-0.173
X53.837 Y45.487 Z0.087
X53.996 Y45.538 Z-0.173
X54.105 Y45.571 Z-0.353
X53.892 Y45.869 Z0.087
X54.105 Y45.571 Z-0.353
X54.14 Y45.55 Z-0.377
X54.184 Y45.56 Z-0.347
X54.226 Y45.566 Z-0.323
X54.268 Y45.568 Z-0.306
X54.31 Y45.566 Z-0.296
X54.351 Y45.56 Z-0.292
X54.785 Y45.481 Z-0.288
X54.817 Y45.472 Z-0.292
X54.848 Y45.461 Z-0.301
X54.878 Y45.448 Z-0.313
X54.908 Y45.433 Z-0.33
X54.923 Y45.424 Z-0.34
X55.17 Y45.628 Z0.087
X54.923 Y45.424 Z-0.34
X54.937 Y45.378 Z-0.317
X54.943 Y45.348 Z-0.306
X54.947 Y45.317 Z-0.299
X54.949 Y45.287 Z-0.295
X54.95 Y45.271
Y44.604
X55.17 Y44.384 Z0.087
X54.95 Y44.604 Z-0.295
X54.729 Y44.384 Z0.087
G0 Z5
X54.612 Y43.709
G1 Z-0.304 F200
X54.682 Y43.684 Z-0.293
X54.745 Y43.657 Z-0.287
X54.785 Y43.637 Z-0.286
X54.831 Y43.611 Z-0.289
X54.836 Y43.606 Z-0.288
X54.892 Y43.554 Z-0.278
X54.92 Y43.524 Z-0.274
X54.951 Y43.483 Z-0.272
X54.971 Y43.447 Z-0.268
X54.988 Y43.406 Z-0.262
X55 Y43.362 Z-0.255
X55.009 Y43.315 Z-0.251
X55.017 Y43.246 Z-0.25
X55.015 Y43.194
X55.008 Y43.139 Z-0.252
X54.999 Y43.094 Z-0.256
X54.986 Y43.05 Z-0.262
X54.968 Y43.009 Z-0.269
X54.948 Y42.976 Z-0.272
X54.924 Y42.942 Z-0.274
X54.877 Y42.894 Z-0.281
X54.827 Y42.85 Z-0.291
X54.797 Y42.833 Z-0.288
X54.751 Y42.809
X54.694 Y42.783 Z-0.293
X54.621 Y42.756 Z-0.302
X54.564 Y42.738 Z-0.312
X54.514 Y42.726 Z-0.32
X54.439 Y42.71 Z-0.328
X54.385 Y42.701 Z-0.331
X54.286 Y42.689 Z-0.335
X54.169 Y42.683 Z-0.337
X53.983 Y42.68 Z-0.339
X53.801 Y42.681 Z-0.338
X53.67 Y42.687 Z-0.336
X53.579 Y42.695 Z-0.333
X53.493 Y42.708 Z-0.329
X53.438 Y42.719 Z-0.324
X53.385 Y42.731 Z-0.318
X53.308 Y42.752 Z-0.304
X53.247 Y42.774 Z-0.294
X53.186 Y42.8 Z-0.287
X53.135 Y42.824 Z-0.286
X53.089 Y42.85 Z-0.288
X53.052 Y42.883 Z-0.281
X52.999 Y42.937 Z-0.273
X52.98 Y42.961 Z-0.271
X52.959 Y42.994 Z-0.27
X52.941 Y43.032 Z-0.265
X52.924 Y43.08 Z-0.257
X52.914 Y43.124 Z-0.253
X52.907 Y43.173 Z-0.25
X52.903 Y43.236
X52.907 Y43.281 Z-0.249
X52.916 Y43.339 Z-0.251
X52.928 Y43.388 Z-0.256
X52.943 Y43.431 Z-0.263
X52.962 Y43.469 Z-0.268
X52.986 Y43.507 Z-0.27
X53.008 Y43.534 Z-0.273
X53.041 Y43.567 Z-0.28
X53.095 Y43.614 Z-0.29
X53.111 Y43.627 Z-0.294
X53.165 Y43.655 Z-0.293
X53.223 Y43.68 Z-0.297
X53.305 Y43.711 Z-0.307
X53.401 Y43.737 Z-0.322
X53.453 Y43.748 Z-0.328
X53.532 Y43.762 Z-0.334
X53.642 Y43.774 Z-0.337
X53.726 Y43.778 Z-0.338
X53.922 Y43.781 Z-0.339
X54.117 Y43.78 Z-0.338
X54.252 Y43.774 Z-0.336
X54.341 Y43.766 Z-0.334
X54.427 Y43.753 Z-0.329
X54.482 Y43.743 Z-0.325
X54.536 Y43.73 Z-0.318
X54.612 Y43.709 Z-0.304
G0 Z5
X53.403 Y41.148
G1 Z0.087 F200
X53.639 Y41.383 Z-0.321
X53.874 Y41.148 Z0.087
X53.639 Y41.383 Z-0.321
Y41.837
X53.874 Y42.072 Z0.087
X53.639 Y41.837 Z-0.321
X53.403 Y42.072 Z0.087
G0 Z5
Y48.011
G1 Z0.087 F200
X53.639 Y48.246 Z-0.321
X53.874 Y48.011 Z0.087
X53.639 Y48.246 Z-0.321
Y48.7
X53.874 Y48.935 Z0.087
X53.639 Y48.7 Z-0.321
X53.403 Y48.935 Z0.087
G0 Z15
M9
M30
%
