%
(1)
(Motor Holes)
(T1  D=3.175 CR=0 - ZMIN=-3.353 - flat end mill)
G90 G94
G17
G21

(2D Contour7)
M9
T1 M6
S10000 M3
G54
M9
G0 X94.874 Y34.213
Z15
Z5
G1 Z1.25 F300
Z0.067
X94.882 Z-0.003
X94.905 Z-0.07
X94.943 Y34.214 Z-0.13
X94.993 Y34.216 Z-0.181
X95.054 Y34.217 Z-0.219
X95.121 Y34.219 Z-0.242
X95.191 Y34.22 Z-0.25
X95.509 Y34.228
G3 X95.818 Y34.553 I-0.008 J0.317
X74.362 Y34.027 I-10.728 J-0.263
X95.818 Y34.553 I10.728 J0.263
X95.493 Y34.863 I-0.317 J-0.008
G1 X95.176 Y34.855
X95.105 Y34.853 Z-0.242
X95.038 Y34.852 Z-0.219
X94.978 Y34.85 Z-0.181
X94.928 Y34.849 Z-0.13
X94.89 Y34.848 Z-0.07
X94.866 Z-0.003
X94.858 Y34.847 Z0.067
X94.874 Y34.213
Z-0.183
X94.882 Z-0.253
X94.905 Z-0.32
X94.943 Y34.214 Z-0.38
X94.993 Y34.216 Z-0.431
X95.054 Y34.217 Z-0.469
X95.121 Y34.219 Z-0.492
X95.191 Y34.22 Z-0.5
X95.509 Y34.228
G3 X95.818 Y34.553 I-0.008 J0.317
X74.362 Y34.027 I-10.728 J-0.263
X95.818 Y34.553 I10.728 J0.263
X95.493 Y34.863 I-0.317 J-0.008
G1 X95.176 Y34.855
X95.105 Y34.853 Z-0.492
X95.038 Y34.852 Z-0.469
X94.978 Y34.85 Z-0.431
X94.928 Y34.849 Z-0.38
X94.89 Y34.848 Z-0.32
X94.866 Z-0.253
X94.858 Y34.847 Z-0.183
X94.874 Y34.213
Z-0.433
X94.882 Z-0.503
X94.905 Z-0.57
X94.943 Y34.214 Z-0.63
X94.993 Y34.216 Z-0.681
X95.054 Y34.217 Z-0.719
X95.121 Y34.219 Z-0.742
X95.191 Y34.22 Z-0.75
X95.509 Y34.228
G3 X95.818 Y34.553 I-0.008 J0.317
X74.362 Y34.027 I-10.728 J-0.263
X95.818 Y34.553 I10.728 J0.263
X95.493 Y34.863 I-0.317 J-0.008
G1 X95.176 Y34.855
X95.105 Y34.853 Z-0.742
X95.038 Y34.852 Z-0.719
X94.978 Y34.85 Z-0.681
X94.928 Y34.849 Z-0.63
X94.89 Y34.848 Z-0.57
X94.866 Z-0.503
X94.858 Y34.847 Z-0.433
X94.874 Y34.213
Z-0.683
X94.882 Z-0.753
X94.905 Z-0.82
X94.943 Y34.214 Z-0.88
X94.993 Y34.216 Z-0.931
X95.054 Y34.217 Z-0.969
X95.121 Y34.219 Z-0.992
X95.191 Y34.22 Z-1
X95.509 Y34.228
G3 X95.818 Y34.553 I-0.008 J0.317
X74.362 Y34.027 I-10.728 J-0.263
X95.818 Y34.553 I10.728 J0.263
X95.493 Y34.863 I-0.317 J-0.008
G1 X95.176 Y34.855
X95.105 Y34.853 Z-0.992
X95.038 Y34.852 Z-0.969
X94.978 Y34.85 Z-0.931
X94.928 Y34.849 Z-0.88
X94.89 Y34.848 Z-0.82
X94.866 Z-0.753
X94.858 Y34.847 Z-0.683
X94.874 Y34.213
Z-0.933
X94.882 Z-1.003
X94.905 Z-1.07
X94.943 Y34.214 Z-1.13
X94.993 Y34.216 Z-1.181
X95.054 Y34.217 Z-1.219
X95.121 Y34.219 Z-1.242
X95.191 Y34.22 Z-1.25
X95.509 Y34.228
G3 X95.818 Y34.553 I-0.008 J0.317
X74.362 Y34.027 I-10.728 J-0.263
X95.818 Y34.553 I10.728 J0.263
X95.493 Y34.863 I-0.317 J-0.008
G1 X95.176 Y34.855
X95.105 Y34.853 Z-1.242
X95.038 Y34.852 Z-1.219
X94.978 Y34.85 Z-1.181
X94.928 Y34.849 Z-1.13
X94.89 Y34.848 Z-1.07
X94.866 Z-1.003
X94.858 Y34.847 Z-0.933
X94.874 Y34.213
Z-1.183
X94.882 Z-1.253
X94.905 Z-1.32
X94.943 Y34.214 Z-1.38
X94.993 Y34.216 Z-1.431
X95.054 Y34.217 Z-1.469
X95.121 Y34.219 Z-1.492
X95.191 Y34.22 Z-1.5
X95.509 Y34.228
G3 X95.818 Y34.553 I-0.008 J0.317
X74.362 Y34.027 I-10.728 J-0.263
X95.818 Y34.553 I10.728 J0.263
X95.493 Y34.863 I-0.317 J-0.008
G1 X95.176 Y34.855
X95.105 Y34.853 Z-1.492
X95.038 Y34.852 Z-1.469
X94.978 Y34.85 Z-1.431
X94.928 Y34.849 Z-1.38
X94.89 Y34.848 Z-1.32
X94.866 Z-1.253
X94.858 Y34.847 Z-1.183
X94.874 Y34.213
Z-1.433
X94.882 Z-1.503
X94.905 Z-1.57
X94.943 Y34.214 Z-1.63
X94.993 Y34.216 Z-1.681
X95.054 Y34.217 Z-1.719
X95.121 Y34.219 Z-1.742
X95.191 Y34.22 Z-1.75
X95.509 Y34.228
G3 X95.818 Y34.553 I-0.008 J0.317
X74.362 Y34.027 I-10.728 J-0.263
X95.818 Y34.553 I10.728 J0.263
X95.493 Y34.863 I-0.317 J-0.008
G1 X95.176 Y34.855
X95.105 Y34.853 Z-1.742
X95.038 Y34.852 Z-1.719
X94.978 Y34.85 Z-1.681
X94.928 Y34.849 Z-1.63
X94.89 Y34.848 Z-1.57
X94.866 Z-1.503
X94.858 Y34.847 Z-1.433
X94.874 Y34.213
Z-1.683
X94.882 Z-1.753
X94.905 Z-1.82
X94.943 Y34.214 Z-1.88
X94.993 Y34.216 Z-1.931
X95.054 Y34.217 Z-1.969
X95.121 Y34.219 Z-1.992
X95.191 Y34.22 Z-2
X95.509 Y34.228
G3 X95.818 Y34.553 I-0.008 J0.317
X74.362 Y34.027 I-10.728 J-0.263
X95.818 Y34.553 I10.728 J0.263
X95.493 Y34.863 I-0.317 J-0.008
G1 X95.176 Y34.855
X95.105 Y34.853 Z-1.992
X95.038 Y34.852 Z-1.969
X94.978 Y34.85 Z-1.931
X94.928 Y34.849 Z-1.88
X94.89 Y34.848 Z-1.82
X94.866 Z-1.753
X94.858 Y34.847 Z-1.683
X94.874 Y34.213
Z-1.933
X94.882 Z-2.003
X94.905 Z-2.07
X94.943 Y34.214 Z-2.13
X94.993 Y34.216 Z-2.181
X95.054 Y34.217 Z-2.219
X95.121 Y34.219 Z-2.242
X95.191 Y34.22 Z-2.25
X95.509 Y34.228
G3 X95.818 Y34.553 I-0.008 J0.317
X74.362 Y34.027 I-10.728 J-0.263
X95.818 Y34.553 I10.728 J0.263
X95.493 Y34.863 I-0.317 J-0.008
G1 X95.176 Y34.855
X95.105 Y34.853 Z-2.242
X95.038 Y34.852 Z-2.219
X94.978 Y34.85 Z-2.181
X94.928 Y34.849 Z-2.13
X94.89 Y34.848 Z-2.07
X94.866 Z-2.003
X94.858 Y34.847 Z-1.933
X94.874 Y34.213
Z-2.183
X94.882 Z-2.253
X94.905 Z-2.32
X94.943 Y34.214 Z-2.38
X94.993 Y34.216 Z-2.431
X95.054 Y34.217 Z-2.469
X95.121 Y34.219 Z-2.492
X95.191 Y34.22 Z-2.5
X95.509 Y34.228
G3 X95.818 Y34.553 I-0.008 J0.317
X74.362 Y34.027 I-10.728 J-0.263
X95.818 Y34.553 I10.728 J0.263
X95.493 Y34.863 I-0.317 J-0.008
G1 X95.176 Y34.855
X95.105 Y34.853 Z-2.492
X95.038 Y34.852 Z-2.469
X94.978 Y34.85 Z-2.431
X94.928 Y34.849 Z-2.38
X94.89 Y34.848 Z-2.32
X94.866 Z-2.253
X94.858 Y34.847 Z-2.183
X94.874 Y34.213
Z-2.433
X94.882 Z-2.503
X94.905 Z-2.57
X94.943 Y34.214 Z-2.63
X94.993 Y34.216 Z-2.681
X95.054 Y34.217 Z-2.719
X95.121 Y34.219 Z-2.742
X95.191 Y34.22 Z-2.75
X95.509 Y34.228
G3 X95.818 Y34.553 I-0.008 J0.317
X74.362 Y34.027 I-10.728 J-0.263
X95.818 Y34.553 I10.728 J0.263
X95.493 Y34.863 I-0.317 J-0.008
G1 X95.176 Y34.855
X95.105 Y34.853 Z-2.742
X95.038 Y34.852 Z-2.719
X94.978 Y34.85 Z-2.681
X94.928 Y34.849 Z-2.63
X94.89 Y34.848 Z-2.57
X94.866 Z-2.503
X94.858 Y34.847 Z-2.433
X94.874 Y34.213
Z-2.683
X94.882 Z-2.753
X94.905 Z-2.82
X94.943 Y34.214 Z-2.88
X94.993 Y34.216 Z-2.931
X95.054 Y34.217 Z-2.969
X95.121 Y34.219 Z-2.992
X95.191 Y34.22 Z-3
X95.509 Y34.228
G3 X95.818 Y34.553 I-0.008 J0.317
X74.362 Y34.027 I-10.728 J-0.263
X95.818 Y34.553 I10.728 J0.263
X95.493 Y34.863 I-0.317 J-0.008
G1 X95.176 Y34.855
X95.105 Y34.853 Z-2.992
X95.038 Y34.852 Z-2.969
X94.978 Y34.85 Z-2.931
X94.928 Y34.849 Z-2.88
X94.89 Y34.848 Z-2.82
X94.866 Z-2.753
X94.858 Y34.847 Z-2.683
X94.874 Y34.213
Z-2.933
X94.882 Z-3.003
X94.905 Z-3.07
X94.943 Y34.214 Z-3.13
X94.993 Y34.216 Z-3.181
X95.054 Y34.217 Z-3.219
X95.121 Y34.219 Z-3.242
X95.191 Y34.22 Z-3.25
X95.509 Y34.228
G3 X95.818 Y34.553 I-0.008 J0.317
X74.362 Y34.027 I-10.728 J-0.263
X95.818 Y34.553 I10.728 J0.263
X95.493 Y34.863 I-0.317 J-0.008
G1 X95.176 Y34.855
X95.105 Y34.853 Z-3.242
X95.038 Y34.852 Z-3.219
X94.978 Y34.85 Z-3.181
X94.928 Y34.849 Z-3.13
X94.89 Y34.848 Z-3.07
X94.866 Z-3.003
X94.858 Y34.847 Z-2.933
X94.874 Y34.213
Z-3.035
X94.882 Z-3.106
X94.905 Z-3.173
X94.943 Y34.214 Z-3.233
X94.993 Y34.216 Z-3.284
X95.054 Y34.217 Z-3.321
X95.121 Y34.219 Z-3.345
X95.191 Y34.22 Z-3.353
X95.509 Y34.228
G3 X95.818 Y34.553 I-0.008 J0.317
X74.362 Y34.027 I-10.728 J-0.263
X95.818 Y34.553 I10.728 J0.263
X95.493 Y34.863 I-0.317 J-0.008
G1 X95.176 Y34.855
X95.105 Y34.853 Z-3.345
X95.038 Y34.852 Z-3.321
X94.978 Y34.85 Z-3.284
X94.928 Y34.849 Z-3.233
X94.89 Y34.848 Z-3.173
X94.866 Z-3.106
X94.858 Y34.847 Z-3.035
G0 Z5
X106.172 Y33.972
G1 Z1.25 F300
Z0.067
G18 G2 X106.49 Z-0.25 I0.318
G1 X106.807
G17 G3 X107.124 Y34.29 J0.318
X105.219 I-0.952
X107.124 I0.952
X106.807 Y34.607 I-0.317
G1 X106.49
G18 G3 X106.172 Z0.067 K0.318
G1 Y33.972
Z-0.183
G2 X106.49 Z-0.5 I0.318
G1 X106.807
G17 G3 X107.124 Y34.29 J0.318
X105.219 I-0.952
X107.124 I0.952
X106.807 Y34.607 I-0.317
G1 X106.49
G18 G3 X106.172 Z-0.183 K0.317
G1 Y33.972
Z-0.433
G2 X106.49 Z-0.75 I0.318
G1 X106.807
G17 G3 X107.124 Y34.29 J0.318
X105.219 I-0.952
X107.124 I0.952
X106.807 Y34.607 I-0.317
G1 X106.49
G18 G3 X106.172 Z-0.433 K0.317
G1 Y33.972
Z-0.683
G2 X106.49 Z-1 I0.318
G1 X106.807
G17 G3 X107.124 Y34.29 J0.318
X105.219 I-0.952
X107.124 I0.952
X106.807 Y34.607 I-0.317
G1 X106.49
G18 G3 X106.172 Z-0.683 K0.317
G1 Y33.972
Z-0.933
G2 X106.49 Z-1.25 I0.318
G1 X106.807
G17 G3 X107.124 Y34.29 J0.318
X105.219 I-0.952
X107.124 I0.952
X106.807 Y34.607 I-0.317
G1 X106.49
G18 G3 X106.172 Z-0.933 K0.317
G1 Y33.972
Z-1.183
G2 X106.49 Z-1.5 I0.318
G1 X106.807
G17 G3 X107.124 Y34.29 J0.318
X105.219 I-0.952
X107.124 I0.952
X106.807 Y34.607 I-0.317
G1 X106.49
G18 G3 X106.172 Z-1.183 K0.317
G1 Y33.972
Z-1.433
G2 X106.49 Z-1.75 I0.318
G1 X106.807
G17 G3 X107.124 Y34.29 J0.318
X105.219 I-0.952
X107.124 I0.952
X106.807 Y34.607 I-0.317
G1 X106.49
G18 G3 X106.172 Z-1.433 K0.317
G1 Y33.972
Z-1.683
G2 X106.49 Z-2 I0.318
G1 X106.807
G17 G3 X107.124 Y34.29 J0.318
X105.219 I-0.952
X107.124 I0.952
X106.807 Y34.607 I-0.317
G1 X106.49
G18 G3 X106.172 Z-1.683 K0.317
G1 Y33.972
Z-1.933
G2 X106.49 Z-2.25 I0.318
G1 X106.807
G17 G3 X107.124 Y34.29 J0.318
X105.219 I-0.952
X107.124 I0.952
X106.807 Y34.607 I-0.317
G1 X106.49
G18 G3 X106.172 Z-1.933 K0.317
G1 Y33.972
Z-2.183
G2 X106.49 Z-2.5 I0.318
G1 X106.807
G17 G3 X107.124 Y34.29 J0.318
X105.219 I-0.952
X107.124 I0.952
X106.807 Y34.607 I-0.317
G1 X106.49
G18 G3 X106.172 Z-2.183 K0.318
G1 Y33.972
Z-2.433
G2 X106.49 Z-2.75 I0.318
G1 X106.807
G17 G3 X107.124 Y34.29 J0.318
X105.219 I-0.952
X107.124 I0.952
X106.807 Y34.607 I-0.317
G1 X106.49
G18 G3 X106.172 Z-2.433 K0.318
G1 Y33.972
Z-2.683
G2 X106.49 Z-3 I0.318
G1 X106.807
G17 G3 X107.124 Y34.29 J0.318
X105.219 I-0.952
X107.124 I0.952
X106.807 Y34.607 I-0.317
G1 X106.49
G18 G3 X106.172 Z-2.683 K0.318
G1 Y33.972
Z-2.933
G2 X106.49 Z-3.25 I0.318
G1 X106.807
G17 G3 X107.124 Y34.29 J0.318
X105.219 I-0.952
X107.124 I0.952
X106.807 Y34.607 I-0.317
G1 X106.49
G18 G3 X106.172 Z-2.933 K0.318
G1 Y33.972
Z-3.035
G2 X106.49 Z-3.353 I0.318
G1 X106.807
G17 G3 X107.124 Y34.29 J0.318
X105.219 I-0.952
X107.124 I0.952
X106.807 Y34.607 I-0.317
G1 X106.49
G18 G3 X106.172 Z-3.035 K0.317
G0 Z5
X74.03 Y51.916
G1 Z1.25 F300
Z0.067
X74.038 Z-0.003
X74.062 Y51.917 Z-0.07
X74.099 Z-0.13
X74.15 Y51.919 Z-0.181
X74.21 Y51.92 Z-0.219
X74.277 Y51.922 Z-0.242
X74.348 Y51.924 Z-0.25
X74.665 Y51.931
G17 G3 X74.975 Y52.257 I-0.008 J0.317
X73.07 Y52.21 I-0.952 J-0.023
X74.975 Y52.257 I0.952 J0.023
X74.649 Y52.566 I-0.317 J-0.008
G1 X74.332 Y52.558
X74.261 Y52.557 Z-0.242
X74.194 Y52.555 Z-0.219
X74.134 Y52.554 Z-0.181
X74.084 Y52.552 Z-0.13
X74.046 Y52.551 Z-0.07
X74.023 Z-0.003
X74.015 Z0.067
X74.03 Y51.916
Z-0.183
X74.038 Z-0.253
X74.062 Y51.917 Z-0.32
X74.099 Z-0.38
X74.15 Y51.919 Z-0.431
X74.21 Y51.92 Z-0.469
X74.277 Y51.922 Z-0.492
X74.348 Y51.924 Z-0.5
X74.665 Y51.931
G3 X74.975 Y52.257 I-0.008 J0.317
X73.07 Y52.21 I-0.952 J-0.023
X74.975 Y52.257 I0.952 J0.023
X74.649 Y52.566 I-0.317 J-0.008
G1 X74.332 Y52.558
X74.261 Y52.557 Z-0.492
X74.194 Y52.555 Z-0.469
X74.134 Y52.554 Z-0.431
X74.084 Y52.552 Z-0.38
X74.046 Y52.551 Z-0.32
X74.023 Z-0.253
X74.015 Z-0.183
X74.03 Y51.916
Z-0.433
X74.038 Z-0.503
X74.062 Y51.917 Z-0.57
X74.099 Z-0.63
X74.15 Y51.919 Z-0.681
X74.21 Y51.92 Z-0.719
X74.277 Y51.922 Z-0.742
X74.348 Y51.924 Z-0.75
X74.665 Y51.931
G3 X74.975 Y52.257 I-0.008 J0.317
X73.07 Y52.21 I-0.952 J-0.023
X74.975 Y52.257 I0.952 J0.023
X74.649 Y52.566 I-0.317 J-0.008
G1 X74.332 Y52.558
X74.261 Y52.557 Z-0.742
X74.194 Y52.555 Z-0.719
X74.134 Y52.554 Z-0.681
X74.084 Y52.552 Z-0.63
X74.046 Y52.551 Z-0.57
X74.023 Z-0.503
X74.015 Z-0.433
X74.03 Y51.916
Z-0.683
X74.038 Z-0.753
X74.062 Y51.917 Z-0.82
X74.099 Z-0.88
X74.15 Y51.919 Z-0.931
X74.21 Y51.92 Z-0.969
X74.277 Y51.922 Z-0.992
X74.348 Y51.924 Z-1
X74.665 Y51.931
G3 X74.975 Y52.257 I-0.008 J0.317
X73.07 Y52.21 I-0.952 J-0.023
X74.975 Y52.257 I0.952 J0.023
X74.649 Y52.566 I-0.317 J-0.008
G1 X74.332 Y52.558
X74.261 Y52.557 Z-0.992
X74.194 Y52.555 Z-0.969
X74.134 Y52.554 Z-0.931
X74.084 Y52.552 Z-0.88
X74.046 Y52.551 Z-0.82
X74.023 Z-0.753
X74.015 Z-0.683
X74.03 Y51.916
Z-0.933
X74.038 Z-1.003
X74.062 Y51.917 Z-1.07
X74.099 Z-1.13
X74.15 Y51.919 Z-1.181
X74.21 Y51.92 Z-1.219
X74.277 Y51.922 Z-1.242
X74.348 Y51.924 Z-1.25
X74.665 Y51.931
G3 X74.975 Y52.257 I-0.008 J0.317
X73.07 Y52.21 I-0.952 J-0.023
X74.975 Y52.257 I0.952 J0.023
X74.649 Y52.566 I-0.317 J-0.008
G1 X74.332 Y52.558
X74.261 Y52.557 Z-1.242
X74.194 Y52.555 Z-1.219
X74.134 Y52.554 Z-1.181
X74.084 Y52.552 Z-1.13
X74.046 Y52.551 Z-1.07
X74.023 Z-1.003
X74.015 Z-0.933
X74.03 Y51.916
Z-1.183
X74.038 Z-1.253
X74.062 Y51.917 Z-1.32
X74.099 Z-1.38
X74.15 Y51.919 Z-1.431
X74.21 Y51.92 Z-1.469
X74.277 Y51.922 Z-1.492
X74.348 Y51.924 Z-1.5
X74.665 Y51.931
G3 X74.975 Y52.257 I-0.008 J0.317
X73.07 Y52.21 I-0.952 J-0.023
X74.975 Y52.257 I0.952 J0.023
X74.649 Y52.566 I-0.317 J-0.008
G1 X74.332 Y52.558
X74.261 Y52.557 Z-1.492
X74.194 Y52.555 Z-1.469
X74.134 Y52.554 Z-1.431
X74.084 Y52.552 Z-1.38
X74.046 Y52.551 Z-1.32
X74.023 Z-1.253
X74.015 Z-1.183
X74.03 Y51.916
Z-1.433
X74.038 Z-1.503
X74.062 Y51.917 Z-1.57
X74.099 Z-1.63
X74.15 Y51.919 Z-1.681
X74.21 Y51.92 Z-1.719
X74.277 Y51.922 Z-1.742
X74.348 Y51.924 Z-1.75
X74.665 Y51.931
G3 X74.975 Y52.257 I-0.008 J0.317
X73.07 Y52.21 I-0.952 J-0.023
X74.975 Y52.257 I0.952 J0.023
X74.649 Y52.566 I-0.317 J-0.008
G1 X74.332 Y52.558
X74.261 Y52.557 Z-1.742
X74.194 Y52.555 Z-1.719
X74.134 Y52.554 Z-1.681
X74.084 Y52.552 Z-1.63
X74.046 Y52.551 Z-1.57
X74.023 Z-1.503
X74.015 Z-1.433
X74.03 Y51.916
Z-1.683
X74.038 Z-1.753
X74.062 Y51.917 Z-1.82
X74.099 Z-1.88
X74.15 Y51.919 Z-1.931
X74.21 Y51.92 Z-1.969
X74.277 Y51.922 Z-1.992
X74.348 Y51.924 Z-2
X74.665 Y51.931
G3 X74.975 Y52.257 I-0.008 J0.317
X73.07 Y52.21 I-0.952 J-0.023
X74.975 Y52.257 I0.952 J0.023
X74.649 Y52.566 I-0.317 J-0.008
G1 X74.332 Y52.558
X74.261 Y52.557 Z-1.992
X74.194 Y52.555 Z-1.969
X74.134 Y52.554 Z-1.931
X74.084 Y52.552 Z-1.88
X74.046 Y52.551 Z-1.82
X74.023 Z-1.753
X74.015 Z-1.683
X74.03 Y51.916
Z-1.933
X74.038 Z-2.003
X74.062 Y51.917 Z-2.07
X74.099 Z-2.13
X74.15 Y51.919 Z-2.181
X74.21 Y51.92 Z-2.219
X74.277 Y51.922 Z-2.242
X74.348 Y51.924 Z-2.25
X74.665 Y51.931
G3 X74.975 Y52.257 I-0.008 J0.317
X73.07 Y52.21 I-0.952 J-0.023
X74.975 Y52.257 I0.952 J0.023
X74.649 Y52.566 I-0.317 J-0.008
G1 X74.332 Y52.558
X74.261 Y52.557 Z-2.242
X74.194 Y52.555 Z-2.219
X74.134 Y52.554 Z-2.181
X74.084 Y52.552 Z-2.13
X74.046 Y52.551 Z-2.07
X74.023 Z-2.003
X74.015 Z-1.933
X74.03 Y51.916
Z-2.183
X74.038 Z-2.253
X74.062 Y51.917 Z-2.32
X74.099 Z-2.38
X74.15 Y51.919 Z-2.431
X74.21 Y51.92 Z-2.469
X74.277 Y51.922 Z-2.492
X74.348 Y51.924 Z-2.5
X74.665 Y51.931
G3 X74.975 Y52.257 I-0.008 J0.317
X73.07 Y52.21 I-0.952 J-0.023
X74.975 Y52.257 I0.952 J0.023
X74.649 Y52.566 I-0.317 J-0.008
G1 X74.332 Y52.558
X74.261 Y52.557 Z-2.492
X74.194 Y52.555 Z-2.469
X74.134 Y52.554 Z-2.431
X74.084 Y52.552 Z-2.38
X74.046 Y52.551 Z-2.32
X74.023 Z-2.253
X74.015 Z-2.183
X74.03 Y51.916
Z-2.433
X74.038 Z-2.503
X74.062 Y51.917 Z-2.57
X74.099 Z-2.63
X74.15 Y51.919 Z-2.681
X74.21 Y51.92 Z-2.719
X74.277 Y51.922 Z-2.742
X74.348 Y51.924 Z-2.75
X74.665 Y51.931
G3 X74.975 Y52.257 I-0.008 J0.317
X73.07 Y52.21 I-0.952 J-0.023
X74.975 Y52.257 I0.952 J0.023
X74.649 Y52.566 I-0.317 J-0.008
G1 X74.332 Y52.558
X74.261 Y52.557 Z-2.742
X74.194 Y52.555 Z-2.719
X74.134 Y52.554 Z-2.681
X74.084 Y52.552 Z-2.63
X74.046 Y52.551 Z-2.57
X74.023 Z-2.503
X74.015 Z-2.433
X74.03 Y51.916
Z-2.683
X74.038 Z-2.753
X74.062 Y51.917 Z-2.82
X74.099 Z-2.88
X74.15 Y51.919 Z-2.931
X74.21 Y51.92 Z-2.969
X74.277 Y51.922 Z-2.992
X74.348 Y51.924 Z-3
X74.665 Y51.931
G3 X74.975 Y52.257 I-0.008 J0.317
X73.07 Y52.21 I-0.952 J-0.023
X74.975 Y52.257 I0.952 J0.023
X74.649 Y52.566 I-0.317 J-0.008
G1 X74.332 Y52.558
X74.261 Y52.557 Z-2.992
X74.194 Y52.555 Z-2.969
X74.134 Y52.554 Z-2.931
X74.084 Y52.552 Z-2.88
X74.046 Y52.551 Z-2.82
X74.023 Z-2.753
X74.015 Z-2.683
X74.03 Y51.916
Z-2.933
X74.038 Z-3.003
X74.062 Y51.917 Z-3.07
X74.099 Z-3.13
X74.15 Y51.919 Z-3.181
X74.21 Y51.92 Z-3.219
X74.277 Y51.922 Z-3.242
X74.348 Y51.924 Z-3.25
X74.665 Y51.931
G3 X74.975 Y52.257 I-0.008 J0.317
X73.07 Y52.21 I-0.952 J-0.023
X74.975 Y52.257 I0.952 J0.023
X74.649 Y52.566 I-0.317 J-0.008
G1 X74.332 Y52.558
X74.261 Y52.557 Z-3.242
X74.194 Y52.555 Z-3.219
X74.134 Y52.554 Z-3.181
X74.084 Y52.552 Z-3.13
X74.046 Y52.551 Z-3.07
X74.023 Z-3.003
X74.015 Z-2.933
X74.03 Y51.916
Z-3.035
X74.038 Z-3.106
X74.062 Y51.917 Z-3.173
X74.099 Z-3.233
X74.15 Y51.919 Z-3.284
X74.21 Y51.92 Z-3.321
X74.277 Y51.922 Z-3.345
X74.348 Y51.924 Z-3.353
X74.665 Y51.931
G3 X74.975 Y52.257 I-0.008 J0.317
X73.07 Y52.21 I-0.952 J-0.023
X74.975 Y52.257 I0.952 J0.023
X74.649 Y52.566 I-0.317 J-0.008
G1 X74.332 Y52.558
X74.261 Y52.557 Z-3.345
X74.194 Y52.555 Z-3.321
X74.134 Y52.554 Z-3.284
X74.084 Y52.552 Z-3.233
X74.046 Y52.551 Z-3.173
X74.023 Z-3.106
X74.015 Z-3.035
G0 Z5
X74.022 Y16.029
G1 Z1.25 F300
Z0.067
G18 G2 X74.34 Z-0.25 I0.317
G1 X74.657
G17 G3 X74.975 Y16.347 J0.317
X73.07 I-0.952
X74.975 I0.952
X74.657 Y16.664 I-0.317
G1 X74.34
G18 G3 X74.022 Z0.067 K0.318
G1 Y16.029
Z-0.183
G2 X74.34 Z-0.5 I0.317
G1 X74.657
G17 G3 X74.975 Y16.347 J0.317
X73.07 I-0.952
X74.975 I0.952
X74.657 Y16.664 I-0.317
G1 X74.34
G18 G3 X74.022 Z-0.183 K0.317
G1 Y16.029
Z-0.433
G2 X74.34 Z-0.75 I0.317
G1 X74.657
G17 G3 X74.975 Y16.347 J0.317
X73.07 I-0.952
X74.975 I0.952
X74.657 Y16.664 I-0.317
G1 X74.34
G18 G3 X74.022 Z-0.433 K0.317
G1 Y16.029
Z-0.683
G2 X74.34 Z-1 I0.317
G1 X74.657
G17 G3 X74.975 Y16.347 J0.317
X73.07 I-0.952
X74.975 I0.952
X74.657 Y16.664 I-0.317
G1 X74.34
G18 G3 X74.022 Z-0.683 K0.317
G1 Y16.029
Z-0.933
G2 X74.34 Z-1.25 I0.317
G1 X74.657
G17 G3 X74.975 Y16.347 J0.317
X73.07 I-0.952
X74.975 I0.952
X74.657 Y16.664 I-0.317
G1 X74.34
G18 G3 X74.022 Z-0.933 K0.317
G1 Y16.029
Z-1.183
G2 X74.34 Z-1.5 I0.317
G1 X74.657
G17 G3 X74.975 Y16.347 J0.317
X73.07 I-0.952
X74.975 I0.952
X74.657 Y16.664 I-0.317
G1 X74.34
G18 G3 X74.022 Z-1.183 K0.317
G1 Y16.029
Z-1.433
G2 X74.34 Z-1.75 I0.317
G1 X74.657
G17 G3 X74.975 Y16.347 J0.317
X73.07 I-0.952
X74.975 I0.952
X74.657 Y16.664 I-0.317
G1 X74.34
G18 G3 X74.022 Z-1.433 K0.317
G1 Y16.029
Z-1.683
G2 X74.34 Z-2 I0.317
G1 X74.657
G17 G3 X74.975 Y16.347 J0.317
X73.07 I-0.952
X74.975 I0.952
X74.657 Y16.664 I-0.317
G1 X74.34
G18 G3 X74.022 Z-1.683 K0.317
G1 Y16.029
Z-1.933
G2 X74.34 Z-2.25 I0.317
G1 X74.657
G17 G3 X74.975 Y16.347 J0.317
X73.07 I-0.952
X74.975 I0.952
X74.657 Y16.664 I-0.317
G1 X74.34
G18 G3 X74.022 Z-1.933 K0.317
G1 Y16.029
Z-2.183
G2 X74.34 Z-2.5 I0.317
G1 X74.657
G17 G3 X74.975 Y16.347 J0.317
X73.07 I-0.952
X74.975 I0.952
X74.657 Y16.664 I-0.317
G1 X74.34
G18 G3 X74.022 Z-2.183 K0.318
G1 Y16.029
Z-2.433
G2 X74.34 Z-2.75 I0.317
G1 X74.657
G17 G3 X74.975 Y16.347 J0.317
X73.07 I-0.952
X74.975 I0.952
X74.657 Y16.664 I-0.317
G1 X74.34
G18 G3 X74.022 Z-2.433 K0.318
G1 Y16.029
Z-2.683
G2 X74.34 Z-3 I0.317
G1 X74.657
G17 G3 X74.975 Y16.347 J0.317
X73.07 I-0.952
X74.975 I0.952
X74.657 Y16.664 I-0.317
G1 X74.34
G18 G3 X74.022 Z-2.683 K0.318
G1 Y16.029
Z-2.933
G2 X74.34 Z-3.25 I0.317
G1 X74.657
G17 G3 X74.975 Y16.347 J0.317
X73.07 I-0.952
X74.975 I0.952
X74.657 Y16.664 I-0.317
G1 X74.34
G18 G3 X74.022 Z-2.933 K0.318
G1 Y16.029
Z-3.035
G2 X74.34 Z-3.353 I0.317
G1 X74.657
G17 G3 X74.975 Y16.347 J0.317
X73.07 I-0.952
X74.975 I0.952
X74.657 Y16.664 I-0.317
G1 X74.34
G18 G3 X74.022 Z-3.035 K0.317
G0 Z5
X34.316 Y8.627
G1 Z1.25 F300
Z0.067
G2 X34.633 Z-0.25 I0.317
G1 X34.951
G17 G3 X35.268 Y8.945 J0.318
G1 Y29.155
G3 X33.243 I-1.013
G1 Y8.945
G3 X35.268 I1.013
X34.951 Y9.262 I-0.318
G1 X34.633
G18 G3 X34.316 Z0.067 K0.318
G1 Y8.627
Z-0.183
G2 X34.633 Z-0.5 I0.317
G1 X34.951
G17 G3 X35.268 Y8.945 J0.318
G1 Y29.155
G3 X33.243 I-1.013
G1 Y8.945
G3 X35.268 I1.013
X34.951 Y9.262 I-0.318
G1 X34.633
G18 G3 X34.316 Z-0.183 K0.317
G1 Y8.627
Z-0.433
G2 X34.633 Z-0.75 I0.317
G1 X34.951
G17 G3 X35.268 Y8.945 J0.318
G1 Y29.155
G3 X33.243 I-1.013
G1 Y8.945
G3 X35.268 I1.013
X34.951 Y9.262 I-0.318
G1 X34.633
G18 G3 X34.316 Z-0.433 K0.317
G1 Y8.627
Z-0.683
G2 X34.633 Z-1 I0.317
G1 X34.951
G17 G3 X35.268 Y8.945 J0.318
G1 Y29.155
G3 X33.243 I-1.013
G1 Y8.945
G3 X35.268 I1.013
X34.951 Y9.262 I-0.318
G1 X34.633
G18 G3 X34.316 Z-0.683 K0.317
G1 Y8.627
Z-0.933
G2 X34.633 Z-1.25 I0.317
G1 X34.951
G17 G3 X35.268 Y8.945 J0.318
G1 Y29.155
G3 X33.243 I-1.013
G1 Y8.945
G3 X35.268 I1.013
X34.951 Y9.262 I-0.318
G1 X34.633
G18 G3 X34.316 Z-0.933 K0.317
G1 Y8.627
Z-1.183
G2 X34.633 Z-1.5 I0.317
G1 X34.951
G17 G3 X35.268 Y8.945 J0.318
G1 Y29.155
G3 X33.243 I-1.013
G1 Y8.945
G3 X35.268 I1.013
X34.951 Y9.262 I-0.318
G1 X34.633
G18 G3 X34.316 Z-1.183 K0.317
G1 Y8.627
Z-1.433
G2 X34.633 Z-1.75 I0.317
G1 X34.951
G17 G3 X35.268 Y8.945 J0.318
G1 Y29.155
G3 X33.243 I-1.013
G1 Y8.945
G3 X35.268 I1.013
X34.951 Y9.262 I-0.318
G1 X34.633
G18 G3 X34.316 Z-1.433 K0.317
G1 Y8.627
Z-1.683
G2 X34.633 Z-2 I0.317
G1 X34.951
G17 G3 X35.268 Y8.945 J0.318
G1 Y29.155
G3 X33.243 I-1.013
G1 Y8.945
G3 X35.268 I1.013
X34.951 Y9.262 I-0.318
G1 X34.633
G18 G3 X34.316 Z-1.683 K0.317
G1 Y8.627
Z-1.933
G2 X34.633 Z-2.25 I0.317
G1 X34.951
G17 G3 X35.268 Y8.945 J0.318
G1 Y29.155
G3 X33.243 I-1.013
G1 Y8.945
G3 X35.268 I1.013
X34.951 Y9.262 I-0.318
G1 X34.633
G18 G3 X34.316 Z-1.933 K0.317
G1 Y8.627
Z-2.183
G2 X34.633 Z-2.5 I0.317
G1 X34.951
G17 G3 X35.268 Y8.945 J0.318
G1 Y29.155
G3 X33.243 I-1.013
G1 Y8.945
G3 X35.268 I1.013
X34.951 Y9.262 I-0.318
G1 X34.633
G18 G3 X34.316 Z-2.183 K0.318
G1 Y8.627
Z-2.433
G2 X34.633 Z-2.75 I0.317
G1 X34.951
G17 G3 X35.268 Y8.945 J0.318
G1 Y29.155
G3 X33.243 I-1.013
G1 Y8.945
G3 X35.268 I1.013
X34.951 Y9.262 I-0.318
G1 X34.633
G18 G3 X34.316 Z-2.433 K0.318
G1 Y8.627
Z-2.683
G2 X34.633 Z-3 I0.317
G1 X34.951
G17 G3 X35.268 Y8.945 J0.318
G1 Y29.155
G3 X33.243 I-1.013
G1 Y8.945
G3 X35.268 I1.013
X34.951 Y9.262 I-0.318
G1 X34.633
G18 G3 X34.316 Z-2.683 K0.318
G1 Y8.627
Z-2.933
G2 X34.633 Z-3.25 I0.317
G1 X34.951
G17 G3 X35.268 Y8.945 J0.318
G1 Y29.155
G3 X33.243 I-1.013
G1 Y8.945
G3 X35.268 I1.013
X34.951 Y9.262 I-0.318
G1 X34.633
G18 G3 X34.316 Z-2.933 K0.318
G1 Y8.627
Z-3.035
G2 X34.633 Z-3.353 I0.317
G1 X34.951
G17 G3 X35.268 Y8.945 J0.318
G1 Y29.155
G3 X33.243 I-1.013
G1 Y8.945
G3 X35.268 I1.013
X34.951 Y9.262 I-0.318
G1 X34.633
G18 G3 X34.316 Z-3.035 K0.317
G0 Z5
X8.46 Y8.626
G1 Z1.25 F300
Z0.067
X8.468 Z-0.003
X8.492 Z-0.07
X8.53 Z-0.13
X8.58 Z-0.181
X8.64 Z-0.219
X8.707 Z-0.242
X8.778 Y8.625 Z-0.25
X9.095 Y8.624
G17 G3 X9.414 Y8.941 I0.001 J0.317
G1 X9.467 Y29.154
G3 X8.457 Y30.169 I-1.012 J0.003
X7.442 Y29.159 I-0.003 J-1.012
G1 X7.389 Y8.947
G3 X8.398 Y7.931 I1.013 J-0.003
X9.414 Y8.941 I0.003 J1.013
X9.097 Y9.259 I-0.317 J0.001
G1 X8.779 Y9.26
X8.709 Y9.261 Z-0.242
X8.642 Z-0.219
X8.581 Z-0.181
X8.531 Z-0.13
X8.493 Z-0.07
X8.47 Z-0.003
X8.462 Z0.067
X8.46 Y8.626
Z-0.183
X8.468 Z-0.253
X8.492 Z-0.32
X8.53 Z-0.38
X8.58 Z-0.431
X8.64 Z-0.469
X8.707 Z-0.492
X8.778 Y8.625 Z-0.5
X9.095 Y8.624
G3 X9.414 Y8.941 I0.001 J0.317
G1 X9.467 Y29.154
G3 X8.457 Y30.169 I-1.012 J0.003
X7.442 Y29.159 I-0.003 J-1.012
G1 X7.389 Y8.947
G3 X8.398 Y7.931 I1.013 J-0.003
X9.414 Y8.941 I0.003 J1.013
X9.097 Y9.259 I-0.317 J0.001
G1 X8.779 Y9.26
X8.709 Y9.261 Z-0.492
X8.642 Z-0.469
X8.581 Z-0.431
X8.531 Z-0.38
X8.493 Z-0.32
X8.47 Z-0.253
X8.462 Z-0.183
X8.46 Y8.626
Z-0.433
X8.468 Z-0.503
X8.492 Z-0.57
X8.53 Z-0.63
X8.58 Z-0.681
X8.64 Z-0.719
X8.707 Z-0.742
X8.778 Y8.625 Z-0.75
X9.095 Y8.624
G3 X9.414 Y8.941 I0.001 J0.317
G1 X9.467 Y29.154
G3 X8.457 Y30.169 I-1.012 J0.003
X7.442 Y29.159 I-0.003 J-1.012
G1 X7.389 Y8.947
G3 X8.398 Y7.931 I1.013 J-0.003
X9.414 Y8.941 I0.003 J1.013
X9.097 Y9.259 I-0.317 J0.001
G1 X8.779 Y9.26
X8.709 Y9.261 Z-0.742
X8.642 Z-0.719
X8.581 Z-0.681
X8.531 Z-0.63
X8.493 Z-0.57
X8.47 Z-0.503
X8.462 Z-0.433
X8.46 Y8.626
Z-0.683
X8.468 Z-0.753
X8.492 Z-0.82
X8.53 Z-0.88
X8.58 Z-0.931
X8.64 Z-0.969
X8.707 Z-0.992
X8.778 Y8.625 Z-1
X9.095 Y8.624
G3 X9.414 Y8.941 I0.001 J0.317
G1 X9.467 Y29.154
G3 X8.457 Y30.169 I-1.012 J0.003
X7.442 Y29.159 I-0.003 J-1.012
G1 X7.389 Y8.947
G3 X8.398 Y7.931 I1.013 J-0.003
X9.414 Y8.941 I0.003 J1.013
X9.097 Y9.259 I-0.317 J0.001
G1 X8.779 Y9.26
X8.709 Y9.261 Z-0.992
X8.642 Z-0.969
X8.581 Z-0.931
X8.531 Z-0.88
X8.493 Z-0.82
X8.47 Z-0.753
X8.462 Z-0.683
X8.46 Y8.626
Z-0.933
X8.468 Z-1.003
X8.492 Z-1.07
X8.53 Z-1.13
X8.58 Z-1.181
X8.64 Z-1.219
X8.707 Z-1.242
X8.778 Y8.625 Z-1.25
X9.095 Y8.624
G3 X9.414 Y8.941 I0.001 J0.317
G1 X9.467 Y29.154
G3 X8.457 Y30.169 I-1.012 J0.003
X7.442 Y29.159 I-0.003 J-1.012
G1 X7.389 Y8.947
G3 X8.398 Y7.931 I1.013 J-0.003
X9.414 Y8.941 I0.003 J1.013
X9.097 Y9.259 I-0.317 J0.001
G1 X8.779 Y9.26
X8.709 Y9.261 Z-1.242
X8.642 Z-1.219
X8.581 Z-1.181
X8.531 Z-1.13
X8.493 Z-1.07
X8.47 Z-1.003
X8.462 Z-0.933
X8.46 Y8.626
Z-1.183
X8.468 Z-1.253
X8.492 Z-1.32
X8.53 Z-1.38
X8.58 Z-1.431
X8.64 Z-1.469
X8.707 Z-1.492
X8.778 Y8.625 Z-1.5
X9.095 Y8.624
G3 X9.414 Y8.941 I0.001 J0.317
G1 X9.467 Y29.154
G3 X8.457 Y30.169 I-1.012 J0.003
X7.442 Y29.159 I-0.003 J-1.012
G1 X7.389 Y8.947
G3 X8.398 Y7.931 I1.013 J-0.003
X9.414 Y8.941 I0.003 J1.013
X9.097 Y9.259 I-0.317 J0.001
G1 X8.779 Y9.26
X8.709 Y9.261 Z-1.492
X8.642 Z-1.469
X8.581 Z-1.431
X8.531 Z-1.38
X8.493 Z-1.32
X8.47 Z-1.253
X8.462 Z-1.183
X8.46 Y8.626
Z-1.433
X8.468 Z-1.503
X8.492 Z-1.57
X8.53 Z-1.63
X8.58 Z-1.681
X8.64 Z-1.719
X8.707 Z-1.742
X8.778 Y8.625 Z-1.75
X9.095 Y8.624
G3 X9.414 Y8.941 I0.001 J0.317
G1 X9.467 Y29.154
G3 X8.457 Y30.169 I-1.012 J0.003
X7.442 Y29.159 I-0.003 J-1.012
G1 X7.389 Y8.947
G3 X8.398 Y7.931 I1.013 J-0.003
X9.414 Y8.941 I0.003 J1.013
X9.097 Y9.259 I-0.317 J0.001
G1 X8.779 Y9.26
X8.709 Y9.261 Z-1.742
X8.642 Z-1.719
X8.581 Z-1.681
X8.531 Z-1.63
X8.493 Z-1.57
X8.47 Z-1.503
X8.462 Z-1.433
X8.46 Y8.626
Z-1.683
X8.468 Z-1.753
X8.492 Z-1.82
X8.53 Z-1.88
X8.58 Z-1.931
X8.64 Z-1.969
X8.707 Z-1.992
X8.778 Y8.625 Z-2
X9.095 Y8.624
G3 X9.414 Y8.941 I0.001 J0.317
G1 X9.467 Y29.154
G3 X8.457 Y30.169 I-1.012 J0.003
X7.442 Y29.159 I-0.003 J-1.012
G1 X7.389 Y8.947
G3 X8.398 Y7.931 I1.013 J-0.003
X9.414 Y8.941 I0.003 J1.013
X9.097 Y9.259 I-0.317 J0.001
G1 X8.779 Y9.26
X8.709 Y9.261 Z-1.992
X8.642 Z-1.969
X8.581 Z-1.931
X8.531 Z-1.88
X8.493 Z-1.82
X8.47 Z-1.753
X8.462 Z-1.683
X8.46 Y8.626
Z-1.933
X8.468 Z-2.003
X8.492 Z-2.07
X8.53 Z-2.13
X8.58 Z-2.181
X8.64 Z-2.219
X8.707 Z-2.242
X8.778 Y8.625 Z-2.25
X9.095 Y8.624
G3 X9.414 Y8.941 I0.001 J0.317
G1 X9.467 Y29.154
G3 X8.457 Y30.169 I-1.012 J0.003
X7.442 Y29.159 I-0.003 J-1.012
G1 X7.389 Y8.947
G3 X8.398 Y7.931 I1.013 J-0.003
X9.414 Y8.941 I0.003 J1.013
X9.097 Y9.259 I-0.317 J0.001
G1 X8.779 Y9.26
X8.709 Y9.261 Z-2.242
X8.642 Z-2.219
X8.581 Z-2.181
X8.531 Z-2.13
X8.493 Z-2.07
X8.47 Z-2.003
X8.462 Z-1.933
X8.46 Y8.626
Z-2.183
X8.468 Z-2.253
X8.492 Z-2.32
X8.53 Z-2.38
X8.58 Z-2.431
X8.64 Z-2.469
X8.707 Z-2.492
X8.778 Y8.625 Z-2.5
X9.095 Y8.624
G3 X9.414 Y8.941 I0.001 J0.317
G1 X9.467 Y29.154
G3 X8.457 Y30.169 I-1.012 J0.003
X7.442 Y29.159 I-0.003 J-1.012
G1 X7.389 Y8.947
G3 X8.398 Y7.931 I1.013 J-0.003
X9.414 Y8.941 I0.003 J1.013
X9.097 Y9.259 I-0.317 J0.001
G1 X8.779 Y9.26
X8.709 Y9.261 Z-2.492
X8.642 Z-2.469
X8.581 Z-2.431
X8.531 Z-2.38
X8.493 Z-2.32
X8.47 Z-2.253
X8.462 Z-2.183
X8.46 Y8.626
Z-2.433
X8.468 Z-2.503
X8.492 Z-2.57
X8.53 Z-2.63
X8.58 Z-2.681
X8.64 Z-2.719
X8.707 Z-2.742
X8.778 Y8.625 Z-2.75
X9.095 Y8.624
G3 X9.414 Y8.941 I0.001 J0.317
G1 X9.467 Y29.154
G3 X8.457 Y30.169 I-1.012 J0.003
X7.442 Y29.159 I-0.003 J-1.012
G1 X7.389 Y8.947
G3 X8.398 Y7.931 I1.013 J-0.003
X9.414 Y8.941 I0.003 J1.013
X9.097 Y9.259 I-0.317 J0.001
G1 X8.779 Y9.26
X8.709 Y9.261 Z-2.742
X8.642 Z-2.719
X8.581 Z-2.681
X8.531 Z-2.63
X8.493 Z-2.57
X8.47 Z-2.503
X8.462 Z-2.433
X8.46 Y8.626
Z-2.683
X8.468 Z-2.753
X8.492 Z-2.82
X8.53 Z-2.88
X8.58 Z-2.931
X8.64 Z-2.969
X8.707 Z-2.992
X8.778 Y8.625 Z-3
X9.095 Y8.624
G3 X9.414 Y8.941 I0.001 J0.317
G1 X9.467 Y29.154
G3 X8.457 Y30.169 I-1.012 J0.003
X7.442 Y29.159 I-0.003 J-1.012
G1 X7.389 Y8.947
G3 X8.398 Y7.931 I1.013 J-0.003
X9.414 Y8.941 I0.003 J1.013
X9.097 Y9.259 I-0.317 J0.001
G1 X8.779 Y9.26
X8.709 Y9.261 Z-2.992
X8.642 Z-2.969
X8.581 Z-2.931
X8.531 Z-2.88
X8.493 Z-2.82
X8.47 Z-2.753
X8.462 Z-2.683
X8.46 Y8.626
Z-2.933
X8.468 Z-3.003
X8.492 Z-3.07
X8.53 Z-3.13
X8.58 Z-3.181
X8.64 Z-3.219
X8.707 Z-3.242
X8.778 Y8.625 Z-3.25
X9.095 Y8.624
G3 X9.414 Y8.941 I0.001 J0.317
G1 X9.467 Y29.154
G3 X8.457 Y30.169 I-1.012 J0.003
X7.442 Y29.159 I-0.003 J-1.012
G1 X7.389 Y8.947
G3 X8.398 Y7.931 I1.013 J-0.003
X9.414 Y8.941 I0.003 J1.013
X9.097 Y9.259 I-0.317 J0.001
G1 X8.779 Y9.26
X8.709 Y9.261 Z-3.242
X8.642 Z-3.219
X8.581 Z-3.181
X8.531 Z-3.13
X8.493 Z-3.07
X8.47 Z-3.003
X8.462 Z-2.933
X8.46 Y8.626
Z-3.035
X8.468 Z-3.106
X8.492 Z-3.173
X8.53 Z-3.233
X8.58 Z-3.284
X8.64 Z-3.321
X8.707 Z-3.345
X8.778 Y8.625 Z-3.353
X9.095 Y8.624
G3 X9.414 Y8.941 I0.001 J0.317
G1 X9.467 Y29.154
G3 X8.457 Y30.169 I-1.012 J0.003
X7.442 Y29.159 I-0.003 J-1.012
G1 X7.389 Y8.947
G3 X8.398 Y7.931 I1.013 J-0.003
X9.414 Y8.941 I0.003 J1.013
X9.097 Y9.259 I-0.317 J0.001
G1 X8.779 Y9.26
X8.709 Y9.261 Z-3.345
X8.642 Z-3.321
X8.581 Z-3.284
X8.531 Z-3.233
X8.493 Z-3.173
X8.47 Z-3.106
X8.462 Z-3.035
G0 Z5
X8.792 Y38.992
G1 Z1.25 F300
Z0.067
G18 G2 X9.11 Z-0.25 I0.318
G1 X9.427
G17 G3 X9.745 Y39.31 J0.318
G1 Y59.75
G3 X7.72 I-1.012
G1 Y39.31
G3 X9.745 I1.012
X9.427 Y39.627 I-0.318
G1 X9.11
G18 G3 X8.792 Z0.067 K0.318
G1 Y38.992
Z-0.183
G2 X9.11 Z-0.5 I0.318
G1 X9.427
G17 G3 X9.745 Y39.31 J0.318
G1 Y59.75
G3 X7.72 I-1.012
G1 Y39.31
G3 X9.745 I1.012
X9.427 Y39.627 I-0.318
G1 X9.11
G18 G3 X8.792 Z-0.183 K0.317
G1 Y38.992
Z-0.433
G2 X9.11 Z-0.75 I0.318
G1 X9.427
G17 G3 X9.745 Y39.31 J0.318
G1 Y59.75
G3 X7.72 I-1.012
G1 Y39.31
G3 X9.745 I1.012
X9.427 Y39.627 I-0.318
G1 X9.11
G18 G3 X8.792 Z-0.433 K0.317
G1 Y38.992
Z-0.683
G2 X9.11 Z-1 I0.318
G1 X9.427
G17 G3 X9.745 Y39.31 J0.318
G1 Y59.75
G3 X7.72 I-1.012
G1 Y39.31
G3 X9.745 I1.012
X9.427 Y39.627 I-0.318
G1 X9.11
G18 G3 X8.792 Z-0.683 K0.317
G1 Y38.992
Z-0.933
G2 X9.11 Z-1.25 I0.318
G1 X9.427
G17 G3 X9.745 Y39.31 J0.318
G1 Y59.75
G3 X7.72 I-1.012
G1 Y39.31
G3 X9.745 I1.012
X9.427 Y39.627 I-0.318
G1 X9.11
G18 G3 X8.792 Z-0.933 K0.317
G1 Y38.992
Z-1.183
G2 X9.11 Z-1.5 I0.318
G1 X9.427
G17 G3 X9.745 Y39.31 J0.318
G1 Y59.75
G3 X7.72 I-1.012
G1 Y39.31
G3 X9.745 I1.012
X9.427 Y39.627 I-0.318
G1 X9.11
G18 G3 X8.792 Z-1.183 K0.317
G1 Y38.992
Z-1.433
G2 X9.11 Z-1.75 I0.318
G1 X9.427
G17 G3 X9.745 Y39.31 J0.318
G1 Y59.75
G3 X7.72 I-1.012
G1 Y39.31
G3 X9.745 I1.012
X9.427 Y39.627 I-0.318
G1 X9.11
G18 G3 X8.792 Z-1.433 K0.317
G1 Y38.992
Z-1.683
G2 X9.11 Z-2 I0.318
G1 X9.427
G17 G3 X9.745 Y39.31 J0.318
G1 Y59.75
G3 X7.72 I-1.012
G1 Y39.31
G3 X9.745 I1.012
X9.427 Y39.627 I-0.318
G1 X9.11
G18 G3 X8.792 Z-1.683 K0.317
G1 Y38.992
Z-1.933
G2 X9.11 Z-2.25 I0.318
G1 X9.427
G17 G3 X9.745 Y39.31 J0.318
G1 Y59.75
G3 X7.72 I-1.012
G1 Y39.31
G3 X9.745 I1.012
X9.427 Y39.627 I-0.318
G1 X9.11
G18 G3 X8.792 Z-1.933 K0.317
G1 Y38.992
Z-2.183
G2 X9.11 Z-2.5 I0.318
G1 X9.427
G17 G3 X9.745 Y39.31 J0.318
G1 Y59.75
G3 X7.72 I-1.012
G1 Y39.31
G3 X9.745 I1.012
X9.427 Y39.627 I-0.318
G1 X9.11
G18 G3 X8.792 Z-2.183 K0.318
G1 Y38.992
Z-2.433
G2 X9.11 Z-2.75 I0.318
G1 X9.427
G17 G3 X9.745 Y39.31 J0.318
G1 Y59.75
G3 X7.72 I-1.012
G1 Y39.31
G3 X9.745 I1.012
X9.427 Y39.627 I-0.318
G1 X9.11
G18 G3 X8.792 Z-2.433 K0.318
G1 Y38.992
Z-2.683
G2 X9.11 Z-3 I0.318
G1 X9.427
G17 G3 X9.745 Y39.31 J0.318
G1 Y59.75
G3 X7.72 I-1.012
G1 Y39.31
G3 X9.745 I1.012
X9.427 Y39.627 I-0.318
G1 X9.11
G18 G3 X8.792 Z-2.683 K0.318
G1 Y38.992
Z-2.933
G2 X9.11 Z-3.25 I0.318
G1 X9.427
G17 G3 X9.745 Y39.31 J0.318
G1 Y59.75
G3 X7.72 I-1.012
G1 Y39.31
G3 X9.745 I1.012
X9.427 Y39.627 I-0.318
G1 X9.11
G18 G3 X8.792 Z-2.933 K0.318
G1 Y38.992
Z-3.035
G2 X9.11 Z-3.353 I0.318
G1 X9.427
G17 G3 X9.745 Y39.31 J0.318
G1 Y59.75
G3 X7.72 I-1.012
G1 Y39.31
G3 X9.745 I1.012
X9.427 Y39.627 I-0.318
G1 X9.11
G18 G3 X8.792 Z-3.035 K0.317
G0 Z5
X34.35 Y39.053
G1 Z1.25 F300
Z0.067
G2 X34.667 Z-0.25 I0.318
G1 X34.985
G17 G3 X35.303 Y39.37 J0.317
G1 Y59.69
G3 X33.278 I-1.013
G1 Y39.37
G3 X35.303 I1.013
X34.985 Y39.688 I-0.318
G1 X34.667
G18 G3 X34.35 Z0.067 K0.318
G1 Y39.053
Z-0.183
G2 X34.667 Z-0.5 I0.318
G1 X34.985
G17 G3 X35.303 Y39.37 J0.317
G1 Y59.69
G3 X33.278 I-1.013
G1 Y39.37
G3 X35.303 I1.013
X34.985 Y39.688 I-0.318
G1 X34.667
G18 G3 X34.35 Z-0.183 K0.317
G1 Y39.053
Z-0.433
G2 X34.667 Z-0.75 I0.318
G1 X34.985
G17 G3 X35.303 Y39.37 J0.317
G1 Y59.69
G3 X33.278 I-1.013
G1 Y39.37
G3 X35.303 I1.013
X34.985 Y39.688 I-0.318
G1 X34.667
G18 G3 X34.35 Z-0.433 K0.317
G1 Y39.053
Z-0.683
G2 X34.667 Z-1 I0.318
G1 X34.985
G17 G3 X35.303 Y39.37 J0.317
G1 Y59.69
G3 X33.278 I-1.013
G1 Y39.37
G3 X35.303 I1.013
X34.985 Y39.688 I-0.318
G1 X34.667
G18 G3 X34.35 Z-0.683 K0.317
G1 Y39.053
Z-0.933
G2 X34.667 Z-1.25 I0.318
G1 X34.985
G17 G3 X35.303 Y39.37 J0.317
G1 Y59.69
G3 X33.278 I-1.013
G1 Y39.37
G3 X35.303 I1.013
X34.985 Y39.688 I-0.318
G1 X34.667
G18 G3 X34.35 Z-0.933 K0.317
G1 Y39.053
Z-1.183
G2 X34.667 Z-1.5 I0.318
G1 X34.985
G17 G3 X35.303 Y39.37 J0.317
G1 Y59.69
G3 X33.278 I-1.013
G1 Y39.37
G3 X35.303 I1.013
X34.985 Y39.688 I-0.318
G1 X34.667
G18 G3 X34.35 Z-1.183 K0.317
G1 Y39.053
Z-1.433
G2 X34.667 Z-1.75 I0.318
G1 X34.985
G17 G3 X35.303 Y39.37 J0.317
G1 Y59.69
G3 X33.278 I-1.013
G1 Y39.37
G3 X35.303 I1.013
X34.985 Y39.688 I-0.318
G1 X34.667
G18 G3 X34.35 Z-1.433 K0.317
G1 Y39.053
Z-1.683
G2 X34.667 Z-2 I0.318
G1 X34.985
G17 G3 X35.303 Y39.37 J0.317
G1 Y59.69
G3 X33.278 I-1.013
G1 Y39.37
G3 X35.303 I1.013
X34.985 Y39.688 I-0.318
G1 X34.667
G18 G3 X34.35 Z-1.683 K0.317
G1 Y39.053
Z-1.933
G2 X34.667 Z-2.25 I0.318
G1 X34.985
G17 G3 X35.303 Y39.37 J0.317
G1 Y59.69
G3 X33.278 I-1.013
G1 Y39.37
G3 X35.303 I1.013
X34.985 Y39.688 I-0.318
G1 X34.667
G18 G3 X34.35 Z-1.933 K0.317
G1 Y39.053
Z-2.183
G2 X34.667 Z-2.5 I0.318
G1 X34.985
G17 G3 X35.303 Y39.37 J0.317
G1 Y59.69
G3 X33.278 I-1.013
G1 Y39.37
G3 X35.303 I1.013
X34.985 Y39.688 I-0.318
G1 X34.667
G18 G3 X34.35 Z-2.183 K0.318
G1 Y39.053
Z-2.433
G2 X34.667 Z-2.75 I0.318
G1 X34.985
G17 G3 X35.303 Y39.37 J0.317
G1 Y59.69
G3 X33.278 I-1.013
G1 Y39.37
G3 X35.303 I1.013
X34.985 Y39.688 I-0.318
G1 X34.667
G18 G3 X34.35 Z-2.433 K0.318
G1 Y39.053
Z-2.683
G2 X34.667 Z-3 I0.318
G1 X34.985
G17 G3 X35.303 Y39.37 J0.317
G1 Y59.69
G3 X33.278 I-1.013
G1 Y39.37
G3 X35.303 I1.013
X34.985 Y39.688 I-0.318
G1 X34.667
G18 G3 X34.35 Z-2.683 K0.318
G1 Y39.053
Z-2.933
G2 X34.667 Z-3.25 I0.318
G1 X34.985
G17 G3 X35.303 Y39.37 J0.317
G1 Y59.69
G3 X33.278 I-1.013
G1 Y39.37
G3 X35.303 I1.013
X34.985 Y39.688 I-0.318
G1 X34.667
G18 G3 X34.35 Z-2.933 K0.318
G1 Y39.053
Z-3.035
G2 X34.667 Z-3.353 I0.318
G1 X34.985
G17 G3 X35.303 Y39.37 J0.317
G1 Y59.69
G3 X33.278 I-1.013
G1 Y39.37
G3 X35.303 I1.013
X34.985 Y39.688 I-0.318
G1 X34.667
G18 G3 X34.35 Z-3.035 K0.317
G0 Z15
G17
M9
M30
%
