%
(1)
(Motor Contour)
(T1  D=3.175 CR=0 - ZMIN=-3.353 - flat end mill)
G90 G94
G17
G21

(2D Contour8)
M9
T1 M6
S10000 M3
G54
M9
G0 X4.762 Y71.12
Z15
Z5
G1 Z1.25 F300
Z0.067
G19 G2 Y70.802 Z-0.25 J-0.318
G1 Y70.485
G17 G3 X5.08 Y70.168 I0.318
G1 X85.09
G2 X114.885 Y54.277 J-35.878
X120.967 Y34.29 I-29.795 J-19.987
X85.09 Y-1.587 I-35.878
G1 X5.08
G2 X-1.587 Y5.08 J6.667
G1 Y63.5
G2 X5.08 Y70.168 I6.667
G3 X5.398 Y70.485 J0.317
G1 Y70.802
G19 G3 Y71.12 Z0.067 K0.318
G0 Z5
X4.762
G1 Z1 F300
Z-0.183
G2 Y70.802 Z-0.5 J-0.318
G1 Y70.485
G17 G3 X5.08 Y70.168 I0.318
G1 X85.09
G2 X114.885 Y54.277 J-35.878
X120.967 Y34.29 I-29.795 J-19.987
X85.09 Y-1.587 I-35.878
G1 X5.08
G2 X-1.587 Y5.08 J6.667
G1 Y63.5
G2 X5.08 Y70.168 I6.667
G3 X5.398 Y70.485 J0.317
G1 Y70.802
G19 G3 Y71.12 Z-0.183 K0.317
G0 Z5
X4.762
G1 Z0.75 F300
Z-0.433
G2 Y70.802 Z-0.75 J-0.318
G1 Y70.485
G17 G3 X5.08 Y70.168 I0.318
G1 X85.09
G2 X114.885 Y54.277 J-35.878
X120.967 Y34.29 I-29.795 J-19.987
X85.09 Y-1.587 I-35.878
G1 X5.08
G2 X-1.587 Y5.08 J6.667
G1 Y63.5
G2 X5.08 Y70.168 I6.667
G3 X5.398 Y70.485 J0.317
G1 Y70.802
G19 G3 Y71.12 Z-0.433 K0.317
G0 Z5
X4.762
G1 Z0.5 F300
Z-0.683
G2 Y70.802 Z-1 J-0.318
G1 Y70.485
G17 G3 X5.08 Y70.168 I0.318
G1 X85.09
G2 X114.885 Y54.277 J-35.878
X120.967 Y34.29 I-29.795 J-19.987
X85.09 Y-1.587 I-35.878
G1 X5.08
G2 X-1.587 Y5.08 J6.667
G1 Y63.5
G2 X5.08 Y70.168 I6.667
G3 X5.398 Y70.485 J0.317
G1 Y70.802
G19 G3 Y71.12 Z-0.683 K0.317
G0 Z5
X4.762
G1 Z0.25 F300
Z-0.933
G2 Y70.802 Z-1.25 J-0.318
G1 Y70.485
G17 G3 X5.08 Y70.168 I0.318
G1 X85.09
G2 X114.885 Y54.277 J-35.878
X120.967 Y34.29 I-29.795 J-19.987
X85.09 Y-1.587 I-35.878
G1 X5.08
G2 X-1.587 Y5.08 J6.667
G1 Y63.5
G2 X5.08 Y70.168 I6.667
G3 X5.398 Y70.485 J0.317
G1 Y70.802
G19 G3 Y71.12 Z-0.933 K0.317
G0 Z5
X4.762
G1 Z0 F300
Z-1.183
G2 Y70.802 Z-1.5 J-0.318
G1 Y70.485
G17 G3 X5.08 Y70.168 I0.318
G1 X85.09
G2 X114.885 Y54.277 J-35.878
X120.967 Y34.29 I-29.795 J-19.987
X85.09 Y-1.587 I-35.878
G1 X5.08
G2 X-1.587 Y5.08 J6.667
G1 Y63.5
G2 X5.08 Y70.168 I6.667
G3 X5.398 Y70.485 J0.317
G1 Y70.802
G19 G3 Y71.12 Z-1.183 K0.317
G0 Z5
X4.762
G1 Z-0.25 F300
Z-1.433
G2 Y70.802 Z-1.75 J-0.318
G1 Y70.485
G17 G3 X5.08 Y70.168 I0.318
G1 X85.09
G2 X114.885 Y54.277 J-35.878
X120.967 Y34.29 I-29.795 J-19.987
X85.09 Y-1.587 I-35.878
G1 X5.08
G2 X-1.587 Y5.08 J6.667
G1 Y63.5
G2 X5.08 Y70.168 I6.667
G3 X5.398 Y70.485 J0.317
G1 Y70.802
G19 G3 Y71.12 Z-1.433 K0.317
G0 Z5
X4.762
G1 Z-0.5 F300
Z-1.683
G2 Y70.802 Z-2 J-0.318
G1 Y70.485
G17 G3 X5.08 Y70.168 I0.318
G1 X85.09
G2 X114.885 Y54.277 J-35.878
X120.967 Y34.29 I-29.795 J-19.987
X85.09 Y-1.587 I-35.878
G1 X5.08
G2 X-1.587 Y5.08 J6.667
G1 Y63.5
G2 X5.08 Y70.168 I6.667
G3 X5.398 Y70.485 J0.317
G1 Y70.802
G19 G3 Y71.12 Z-1.683 K0.317
G0 Z5
X4.762
G1 Z-0.75 F300
Z-1.933
G2 Y70.802 Z-2.25 J-0.318
G1 Y70.485
G17 G3 X5.08 Y70.168 I0.318
G1 X85.09
G2 X114.885 Y54.277 J-35.878
X120.967 Y34.29 I-29.795 J-19.987
X85.09 Y-1.587 I-35.878
G1 X5.08
G2 X-1.587 Y5.08 J6.667
G1 Y63.5
G2 X5.08 Y70.168 I6.667
G3 X5.398 Y70.485 J0.317
G1 Y70.802
G19 G3 Y71.12 Z-1.933 K0.317
G0 Z5
X4.762
G1 Z-1 F300
Z-2.183
G2 Y70.802 Z-2.5 J-0.318
G1 Y70.485
G17 G3 X5.08 Y70.168 I0.318
G1 X85.09
G2 X114.885 Y54.277 J-35.878
X120.967 Y34.29 I-29.795 J-19.987
X85.09 Y-1.587 I-35.878
G1 X5.08
G2 X-1.587 Y5.08 J6.667
G1 Y63.5
G2 X5.08 Y70.168 I6.667
G3 X5.398 Y70.485 J0.317
G1 Y70.802
G19 G3 Y71.12 Z-2.183 K0.318
G0 Z5
X4.762
G1 Z-1.25 F300
Z-2.433
G2 Y70.802 Z-2.75 J-0.318
G1 Y70.485
G17 G3 X5.08 Y70.168 I0.318
G1 X85.09
G2 X114.885 Y54.277 J-35.878
X120.967 Y34.29 I-29.795 J-19.987
X85.09 Y-1.587 I-35.878
G1 X5.08
G2 X-1.587 Y5.08 J6.667
G1 Y63.5
G2 X5.08 Y70.168 I6.667
G3 X5.398 Y70.485 J0.317
G1 Y70.802
G19 G3 Y71.12 Z-2.433 K0.318
G0 Z5
X4.762
G1 Z-1.5 F300
Z-2.683
G2 Y70.802 Z-3 J-0.318
G1 Y70.485
G17 G3 X5.08 Y70.168 I0.318
G1 X85.09
G2 X114.885 Y54.277 J-35.878
X120.967 Y34.29 I-29.795 J-19.987
X85.09 Y-1.587 I-35.878
G1 X5.08
G2 X-1.587 Y5.08 J6.667
G1 Y63.5
G2 X5.08 Y70.168 I6.667
G3 X5.398 Y70.485 J0.317
G1 Y70.802
G19 G3 Y71.12 Z-2.683 K0.318
G0 Z5
X4.762
G1 Z-1.75 F300
Z-2.933
G2 Y70.802 Z-3.25 J-0.318
G1 Y70.485
G17 G3 X5.08 Y70.168 I0.318
G1 X85.09
G2 X114.885 Y54.277 J-35.878
X120.967 Y34.29 I-29.795 J-19.987
X85.09 Y-1.587 I-35.878
G1 X5.08
G2 X-1.587 Y5.08 J6.667
G1 Y63.5
G2 X5.08 Y70.168 I6.667
G3 X5.398 Y70.485 J0.317
G1 Y70.802
G19 G3 Y71.12 Z-2.933 K0.318
G0 Z5
X4.762
G1 Z-2 F300
Z-3.035
G2 Y70.802 Z-3.353 J-0.318
G1 Y70.485
G17 G3 X5.08 Y70.168 I0.318
G1 X85.09
G2 X114.885 Y54.277 J-35.878
X120.967 Y34.29 I-29.795 J-19.987
X85.09 Y-1.587 I-35.878
G1 X5.08
G2 X-1.587 Y5.08 J6.667
G1 Y63.5
G2 X5.08 Y70.168 I6.667
G3 X5.398 Y70.485 J0.317
G1 Y70.802
G19 G3 Y71.12 Z-3.035 K0.317
G0 Z15
G17
M9
M30
%
