%
(1)
(Motor Contour)
(T1  D=3.175 CR=0 - ZMIN=-3.353 - flat end mill)
G90 G94
G17
G21

(2D Contour11)
M9
T1 M6
S10000 M3
G54
M9
G0 X31.253 Y25.105
Z15
Z5
G1 Z1.25 F300
Z0.067
Y25.113 Z-0.003
Y25.136 Z-0.07
Y25.174 Z-0.13
Y25.224 Z-0.181
X31.254 Y25.284 Z-0.219
Y25.351 Z-0.242
Y25.422 Z-0.25
X31.256 Y25.74
G3 X30.94 Y26.059 I-0.317 J0.002
X30.929 Y23.984 I-0.005 J-1.037
G1 X39.06 Y23.941
G3 X39.071 Y26.016 I0.005 J1.037
G1 X30.94 Y26.059
G3 X30.621 Y25.743 I-0.002 J-0.317
G1 X30.619 Y25.425
Y25.355 Z-0.242
Y25.288 Z-0.219
X30.618 Y25.227 Z-0.181
Y25.177 Z-0.13
Y25.139 Z-0.07
Y25.116 Z-0.003
Y25.108 Z0.067
X31.253 Y25.105
Z-0.183
Y25.113 Z-0.253
Y25.136 Z-0.32
Y25.174 Z-0.38
Y25.224 Z-0.431
X31.254 Y25.284 Z-0.469
Y25.351 Z-0.492
Y25.422 Z-0.5
X31.256 Y25.74
G3 X30.94 Y26.059 I-0.317 J0.002
X30.929 Y23.984 I-0.005 J-1.037
G1 X39.06 Y23.941
G3 X39.071 Y26.016 I0.005 J1.037
G1 X30.94 Y26.059
G3 X30.621 Y25.743 I-0.002 J-0.317
G1 X30.619 Y25.425
Y25.355 Z-0.492
Y25.288 Z-0.469
X30.618 Y25.227 Z-0.431
Y25.177 Z-0.38
Y25.139 Z-0.32
Y25.116 Z-0.253
Y25.108 Z-0.183
X31.253 Y25.105
Z-0.433
Y25.113 Z-0.503
Y25.136 Z-0.57
Y25.174 Z-0.63
Y25.224 Z-0.681
X31.254 Y25.284 Z-0.719
Y25.351 Z-0.742
Y25.422 Z-0.75
X31.256 Y25.74
G3 X30.94 Y26.059 I-0.317 J0.002
X30.929 Y23.984 I-0.005 J-1.037
G1 X39.06 Y23.941
G3 X39.071 Y26.016 I0.005 J1.037
G1 X30.94 Y26.059
G3 X30.621 Y25.743 I-0.002 J-0.317
G1 X30.619 Y25.425
Y25.355 Z-0.742
Y25.288 Z-0.719
X30.618 Y25.227 Z-0.681
Y25.177 Z-0.63
Y25.139 Z-0.57
Y25.116 Z-0.503
Y25.108 Z-0.433
X31.253 Y25.105
Z-0.683
Y25.113 Z-0.753
Y25.136 Z-0.82
Y25.174 Z-0.88
Y25.224 Z-0.931
X31.254 Y25.284 Z-0.969
Y25.351 Z-0.992
Y25.422 Z-1
X31.256 Y25.74
G3 X30.94 Y26.059 I-0.317 J0.002
X30.929 Y23.984 I-0.005 J-1.037
G1 X39.06 Y23.941
G3 X39.071 Y26.016 I0.005 J1.037
G1 X30.94 Y26.059
G3 X30.621 Y25.743 I-0.002 J-0.317
G1 X30.619 Y25.425
Y25.355 Z-0.992
Y25.288 Z-0.969
X30.618 Y25.227 Z-0.931
Y25.177 Z-0.88
Y25.139 Z-0.82
Y25.116 Z-0.753
Y25.108 Z-0.683
X31.253 Y25.105
Z-0.933
Y25.113 Z-1.003
Y25.136 Z-1.07
Y25.174 Z-1.13
Y25.224 Z-1.181
X31.254 Y25.284 Z-1.219
Y25.351 Z-1.242
Y25.422 Z-1.25
X31.256 Y25.74
G3 X30.94 Y26.059 I-0.317 J0.002
X30.929 Y23.984 I-0.005 J-1.037
G1 X39.06 Y23.941
G3 X39.071 Y26.016 I0.005 J1.037
G1 X30.94 Y26.059
G3 X30.621 Y25.743 I-0.002 J-0.317
G1 X30.619 Y25.425
Y25.355 Z-1.242
Y25.288 Z-1.219
X30.618 Y25.227 Z-1.181
Y25.177 Z-1.13
Y25.139 Z-1.07
Y25.116 Z-1.003
Y25.108 Z-0.933
X31.253 Y25.105
Z-1.183
Y25.113 Z-1.253
Y25.136 Z-1.32
Y25.174 Z-1.38
Y25.224 Z-1.431
X31.254 Y25.284 Z-1.469
Y25.351 Z-1.492
Y25.422 Z-1.5
X31.256 Y25.74
G3 X30.94 Y26.059 I-0.317 J0.002
X30.929 Y23.984 I-0.005 J-1.037
G1 X39.06 Y23.941
G3 X39.071 Y26.016 I0.005 J1.037
G1 X30.94 Y26.059
G3 X30.621 Y25.743 I-0.002 J-0.317
G1 X30.619 Y25.425
Y25.355 Z-1.492
Y25.288 Z-1.469
X30.618 Y25.227 Z-1.431
Y25.177 Z-1.38
Y25.139 Z-1.32
Y25.116 Z-1.253
Y25.108 Z-1.183
X31.253 Y25.105
Z-1.433
Y25.113 Z-1.503
Y25.136 Z-1.57
Y25.174 Z-1.63
Y25.224 Z-1.681
X31.254 Y25.284 Z-1.719
Y25.351 Z-1.742
Y25.422 Z-1.75
X31.256 Y25.74
G3 X30.94 Y26.059 I-0.317 J0.002
X30.929 Y23.984 I-0.005 J-1.037
G1 X39.06 Y23.941
G3 X39.071 Y26.016 I0.005 J1.037
G1 X30.94 Y26.059
G3 X30.621 Y25.743 I-0.002 J-0.317
G1 X30.619 Y25.425
Y25.355 Z-1.742
Y25.288 Z-1.719
X30.618 Y25.227 Z-1.681
Y25.177 Z-1.63
Y25.139 Z-1.57
Y25.116 Z-1.503
Y25.108 Z-1.433
X31.253 Y25.105
Z-1.683
Y25.113 Z-1.753
Y25.136 Z-1.82
Y25.174 Z-1.88
Y25.224 Z-1.931
X31.254 Y25.284 Z-1.969
Y25.351 Z-1.992
Y25.422 Z-2
X31.256 Y25.74
G3 X30.94 Y26.059 I-0.317 J0.002
X30.929 Y23.984 I-0.005 J-1.037
G1 X39.06 Y23.941
G3 X39.071 Y26.016 I0.005 J1.037
G1 X30.94 Y26.059
G3 X30.621 Y25.743 I-0.002 J-0.317
G1 X30.619 Y25.425
Y25.355 Z-1.992
Y25.288 Z-1.969
X30.618 Y25.227 Z-1.931
Y25.177 Z-1.88
Y25.139 Z-1.82
Y25.116 Z-1.753
Y25.108 Z-1.683
X31.253 Y25.105
Z-1.933
Y25.113 Z-2.003
Y25.136 Z-2.07
Y25.174 Z-2.13
Y25.224 Z-2.181
X31.254 Y25.284 Z-2.219
Y25.351 Z-2.242
Y25.422 Z-2.25
X31.256 Y25.74
G3 X30.94 Y26.059 I-0.317 J0.002
X30.929 Y23.984 I-0.005 J-1.037
G1 X39.06 Y23.941
G3 X39.071 Y26.016 I0.005 J1.037
G1 X30.94 Y26.059
G3 X30.621 Y25.743 I-0.002 J-0.317
G1 X30.619 Y25.425
Y25.355 Z-2.242
Y25.288 Z-2.219
X30.618 Y25.227 Z-2.181
Y25.177 Z-2.13
Y25.139 Z-2.07
Y25.116 Z-2.003
Y25.108 Z-1.933
X31.253 Y25.105
Z-2.183
Y25.113 Z-2.253
Y25.136 Z-2.32
Y25.174 Z-2.38
Y25.224 Z-2.431
X31.254 Y25.284 Z-2.469
Y25.351 Z-2.492
Y25.422 Z-2.5
X31.256 Y25.74
G3 X30.94 Y26.059 I-0.317 J0.002
X30.929 Y23.984 I-0.005 J-1.037
G1 X39.06 Y23.941
G3 X39.071 Y26.016 I0.005 J1.037
G1 X30.94 Y26.059
G3 X30.621 Y25.743 I-0.002 J-0.317
G1 X30.619 Y25.425
Y25.355 Z-2.492
Y25.288 Z-2.469
X30.618 Y25.227 Z-2.431
Y25.177 Z-2.38
Y25.139 Z-2.32
Y25.116 Z-2.253
Y25.108 Z-2.183
X31.253 Y25.105
Z-2.433
Y25.113 Z-2.503
Y25.136 Z-2.57
Y25.174 Z-2.63
Y25.224 Z-2.681
X31.254 Y25.284 Z-2.719
Y25.351 Z-2.742
Y25.422 Z-2.75
X31.256 Y25.74
G3 X30.94 Y26.059 I-0.317 J0.002
X30.929 Y23.984 I-0.005 J-1.037
G1 X39.06 Y23.941
G3 X39.071 Y26.016 I0.005 J1.037
G1 X30.94 Y26.059
G3 X30.621 Y25.743 I-0.002 J-0.317
G1 X30.619 Y25.425
Y25.355 Z-2.742
Y25.288 Z-2.719
X30.618 Y25.227 Z-2.681
Y25.177 Z-2.63
Y25.139 Z-2.57
Y25.116 Z-2.503
Y25.108 Z-2.433
X31.253 Y25.105
Z-2.683
Y25.113 Z-2.753
Y25.136 Z-2.82
Y25.174 Z-2.88
Y25.224 Z-2.931
X31.254 Y25.284 Z-2.969
Y25.351 Z-2.992
Y25.422 Z-3
X31.256 Y25.74
G3 X30.94 Y26.059 I-0.317 J0.002
X30.929 Y23.984 I-0.005 J-1.037
G1 X39.06 Y23.941
G3 X39.071 Y26.016 I0.005 J1.037
G1 X30.94 Y26.059
G3 X30.621 Y25.743 I-0.002 J-0.317
G1 X30.619 Y25.425
Y25.355 Z-2.992
Y25.288 Z-2.969
X30.618 Y25.227 Z-2.931
Y25.177 Z-2.88
Y25.139 Z-2.82
Y25.116 Z-2.753
Y25.108 Z-2.683
X31.253 Y25.105
Z-2.933
Y25.113 Z-3.003
Y25.136 Z-3.07
Y25.174 Z-3.13
Y25.224 Z-3.181
X31.254 Y25.284 Z-3.219
Y25.351 Z-3.242
Y25.422 Z-3.25
X31.256 Y25.74
G3 X30.94 Y26.059 I-0.317 J0.002
X30.929 Y23.984 I-0.005 J-1.037
G1 X39.06 Y23.941
G3 X39.071 Y26.016 I0.005 J1.037
G1 X30.94 Y26.059
G3 X30.621 Y25.743 I-0.002 J-0.317
G1 X30.619 Y25.425
Y25.355 Z-3.242
Y25.288 Z-3.219
X30.618 Y25.227 Z-3.181
Y25.177 Z-3.13
Y25.139 Z-3.07
Y25.116 Z-3.003
Y25.108 Z-2.933
X31.253 Y25.105
Z-3.035
Y25.113 Z-3.106
Y25.136 Z-3.173
Y25.174 Z-3.233
Y25.224 Z-3.284
X31.254 Y25.284 Z-3.321
Y25.351 Z-3.345
Y25.422 Z-3.353
X31.256 Y25.74
G3 X30.94 Y26.059 I-0.317 J0.002
X30.929 Y23.984 I-0.005 J-1.037
G1 X39.06 Y23.941
G3 X39.071 Y26.016 I0.005 J1.037
G1 X30.94 Y26.059
G3 X30.621 Y25.743 I-0.002 J-0.317
G1 X30.619 Y25.425
Y25.355 Z-3.345
Y25.288 Z-3.321
X30.618 Y25.227 Z-3.284
Y25.177 Z-3.233
Y25.139 Z-3.173
Y25.116 Z-3.106
Y25.108 Z-3.035
G0 Z5
X51.317 Y25.087
G1 Z1.25 F300
Z0.067
Y25.095 Z-0.003
Y25.119 Z-0.07
Y25.157 Z-0.13
Y25.207 Z-0.181
Y25.267 Z-0.219
Y25.334 Z-0.242
Y25.405 Z-0.25
Y25.722
G3 X51 Y26.04 I-0.318
X50.999 Y23.965 I-0.001 J-1.038
G1 X59 Y23.96
G3 X59.001 Y26.035 I0.001 J1.038
G1 X51 Y26.04
G3 X50.682 Y25.723 J-0.318
G1 Y25.405
Y25.335 Z-0.242
Y25.267 Z-0.219
Y25.207 Z-0.181
Y25.157 Z-0.13
Y25.119 Z-0.07
Y25.096 Z-0.003
Y25.088 Z0.067
X51.317 Y25.087
Z-0.183
Y25.095 Z-0.253
Y25.119 Z-0.32
Y25.157 Z-0.38
Y25.207 Z-0.431
Y25.267 Z-0.469
Y25.334 Z-0.492
Y25.405 Z-0.5
Y25.722
G3 X51 Y26.04 I-0.318
X50.999 Y23.965 I-0.001 J-1.038
G1 X59 Y23.96
G3 X59.001 Y26.035 I0.001 J1.038
G1 X51 Y26.04
G3 X50.682 Y25.723 J-0.318
G1 Y25.405
Y25.335 Z-0.492
Y25.267 Z-0.469
Y25.207 Z-0.431
Y25.157 Z-0.38
Y25.119 Z-0.32
Y25.096 Z-0.253
Y25.088 Z-0.183
X51.317 Y25.087
Z-0.433
Y25.095 Z-0.503
Y25.119 Z-0.57
Y25.157 Z-0.63
Y25.207 Z-0.681
Y25.267 Z-0.719
Y25.334 Z-0.742
Y25.405 Z-0.75
Y25.722
G3 X51 Y26.04 I-0.318
X50.999 Y23.965 I-0.001 J-1.038
G1 X59 Y23.96
G3 X59.001 Y26.035 I0.001 J1.038
G1 X51 Y26.04
G3 X50.682 Y25.723 J-0.318
G1 Y25.405
Y25.335 Z-0.742
Y25.267 Z-0.719
Y25.207 Z-0.681
Y25.157 Z-0.63
Y25.119 Z-0.57
Y25.096 Z-0.503
Y25.088 Z-0.433
X51.317 Y25.087
Z-0.683
Y25.095 Z-0.753
Y25.119 Z-0.82
Y25.157 Z-0.88
Y25.207 Z-0.931
Y25.267 Z-0.969
Y25.334 Z-0.992
Y25.405 Z-1
Y25.722
G3 X51 Y26.04 I-0.318
X50.999 Y23.965 I-0.001 J-1.038
G1 X59 Y23.96
G3 X59.001 Y26.035 I0.001 J1.038
G1 X51 Y26.04
G3 X50.682 Y25.723 J-0.318
G1 Y25.405
Y25.335 Z-0.992
Y25.267 Z-0.969
Y25.207 Z-0.931
Y25.157 Z-0.88
Y25.119 Z-0.82
Y25.096 Z-0.753
Y25.088 Z-0.683
X51.317 Y25.087
Z-0.933
Y25.095 Z-1.003
Y25.119 Z-1.07
Y25.157 Z-1.13
Y25.207 Z-1.181
Y25.267 Z-1.219
Y25.334 Z-1.242
Y25.405 Z-1.25
Y25.722
G3 X51 Y26.04 I-0.318
X50.999 Y23.965 I-0.001 J-1.038
G1 X59 Y23.96
G3 X59.001 Y26.035 I0.001 J1.038
G1 X51 Y26.04
G3 X50.682 Y25.723 J-0.318
G1 Y25.405
Y25.335 Z-1.242
Y25.267 Z-1.219
Y25.207 Z-1.181
Y25.157 Z-1.13
Y25.119 Z-1.07
Y25.096 Z-1.003
Y25.088 Z-0.933
X51.317 Y25.087
Z-1.183
Y25.095 Z-1.253
Y25.119 Z-1.32
Y25.157 Z-1.38
Y25.207 Z-1.431
Y25.267 Z-1.469
Y25.334 Z-1.492
Y25.405 Z-1.5
Y25.722
G3 X51 Y26.04 I-0.318
X50.999 Y23.965 I-0.001 J-1.038
G1 X59 Y23.96
G3 X59.001 Y26.035 I0.001 J1.038
G1 X51 Y26.04
G3 X50.682 Y25.723 J-0.318
G1 Y25.405
Y25.335 Z-1.492
Y25.267 Z-1.469
Y25.207 Z-1.431
Y25.157 Z-1.38
Y25.119 Z-1.32
Y25.096 Z-1.253
Y25.088 Z-1.183
X51.317 Y25.087
Z-1.433
Y25.095 Z-1.503
Y25.119 Z-1.57
Y25.157 Z-1.63
Y25.207 Z-1.681
Y25.267 Z-1.719
Y25.334 Z-1.742
Y25.405 Z-1.75
Y25.722
G3 X51 Y26.04 I-0.318
X50.999 Y23.965 I-0.001 J-1.038
G1 X59 Y23.96
G3 X59.001 Y26.035 I0.001 J1.038
G1 X51 Y26.04
G3 X50.682 Y25.723 J-0.318
G1 Y25.405
Y25.335 Z-1.742
Y25.267 Z-1.719
Y25.207 Z-1.681
Y25.157 Z-1.63
Y25.119 Z-1.57
Y25.096 Z-1.503
Y25.088 Z-1.433
X51.317 Y25.087
Z-1.683
Y25.095 Z-1.753
Y25.119 Z-1.82
Y25.157 Z-1.88
Y25.207 Z-1.931
Y25.267 Z-1.969
Y25.334 Z-1.992
Y25.405 Z-2
Y25.722
G3 X51 Y26.04 I-0.318
X50.999 Y23.965 I-0.001 J-1.038
G1 X59 Y23.96
G3 X59.001 Y26.035 I0.001 J1.038
G1 X51 Y26.04
G3 X50.682 Y25.723 J-0.318
G1 Y25.405
Y25.335 Z-1.992
Y25.267 Z-1.969
Y25.207 Z-1.931
Y25.157 Z-1.88
Y25.119 Z-1.82
Y25.096 Z-1.753
Y25.088 Z-1.683
X51.317 Y25.087
Z-1.933
Y25.095 Z-2.003
Y25.119 Z-2.07
Y25.157 Z-2.13
Y25.207 Z-2.181
Y25.267 Z-2.219
Y25.334 Z-2.242
Y25.405 Z-2.25
Y25.722
G3 X51 Y26.04 I-0.318
X50.999 Y23.965 I-0.001 J-1.038
G1 X59 Y23.96
G3 X59.001 Y26.035 I0.001 J1.038
G1 X51 Y26.04
G3 X50.682 Y25.723 J-0.318
G1 Y25.405
Y25.335 Z-2.242
Y25.267 Z-2.219
Y25.207 Z-2.181
Y25.157 Z-2.13
Y25.119 Z-2.07
Y25.096 Z-2.003
Y25.088 Z-1.933
X51.317 Y25.087
Z-2.183
Y25.095 Z-2.253
Y25.119 Z-2.32
Y25.157 Z-2.38
Y25.207 Z-2.431
Y25.267 Z-2.469
Y25.334 Z-2.492
Y25.405 Z-2.5
Y25.722
G3 X51 Y26.04 I-0.318
X50.999 Y23.965 I-0.001 J-1.038
G1 X59 Y23.96
G3 X59.001 Y26.035 I0.001 J1.038
G1 X51 Y26.04
G3 X50.682 Y25.723 J-0.318
G1 Y25.405
Y25.335 Z-2.492
Y25.267 Z-2.469
Y25.207 Z-2.431
Y25.157 Z-2.38
Y25.119 Z-2.32
Y25.096 Z-2.253
Y25.088 Z-2.183
X51.317 Y25.087
Z-2.433
Y25.095 Z-2.503
Y25.119 Z-2.57
Y25.157 Z-2.63
Y25.207 Z-2.681
Y25.267 Z-2.719
Y25.334 Z-2.742
Y25.405 Z-2.75
Y25.722
G3 X51 Y26.04 I-0.318
X50.999 Y23.965 I-0.001 J-1.038
G1 X59 Y23.96
G3 X59.001 Y26.035 I0.001 J1.038
G1 X51 Y26.04
G3 X50.682 Y25.723 J-0.318
G1 Y25.405
Y25.335 Z-2.742
Y25.267 Z-2.719
Y25.207 Z-2.681
Y25.157 Z-2.63
Y25.119 Z-2.57
Y25.096 Z-2.503
Y25.088 Z-2.433
X51.317 Y25.087
Z-2.683
Y25.095 Z-2.753
Y25.119 Z-2.82
Y25.157 Z-2.88
Y25.207 Z-2.931
Y25.267 Z-2.969
Y25.334 Z-2.992
Y25.405 Z-3
Y25.722
G3 X51 Y26.04 I-0.318
X50.999 Y23.965 I-0.001 J-1.038
G1 X59 Y23.96
G3 X59.001 Y26.035 I0.001 J1.038
G1 X51 Y26.04
G3 X50.682 Y25.723 J-0.318
G1 Y25.405
Y25.335 Z-2.992
Y25.267 Z-2.969
Y25.207 Z-2.931
Y25.157 Z-2.88
Y25.119 Z-2.82
Y25.096 Z-2.753
Y25.088 Z-2.683
X51.317 Y25.087
Z-2.933
Y25.095 Z-3.003
Y25.119 Z-3.07
Y25.157 Z-3.13
Y25.207 Z-3.181
Y25.267 Z-3.219
Y25.334 Z-3.242
Y25.405 Z-3.25
Y25.722
G3 X51 Y26.04 I-0.318
X50.999 Y23.965 I-0.001 J-1.038
G1 X59 Y23.96
G3 X59.001 Y26.035 I0.001 J1.038
G1 X51 Y26.04
G3 X50.682 Y25.723 J-0.318
G1 Y25.405
Y25.335 Z-3.242
Y25.267 Z-3.219
Y25.207 Z-3.181
Y25.157 Z-3.13
Y25.119 Z-3.07
Y25.096 Z-3.003
Y25.088 Z-2.933
X51.317 Y25.087
Z-3.035
Y25.095 Z-3.106
Y25.119 Z-3.173
Y25.157 Z-3.233
Y25.207 Z-3.284
Y25.267 Z-3.321
Y25.334 Z-3.345
Y25.405 Z-3.353
Y25.722
G3 X51 Y26.04 I-0.318
X50.999 Y23.965 I-0.001 J-1.038
G1 X59 Y23.96
G3 X59.001 Y26.035 I0.001 J1.038
G1 X51 Y26.04
G3 X50.682 Y25.723 J-0.318
G1 Y25.405
Y25.335 Z-3.345
Y25.267 Z-3.321
Y25.207 Z-3.284
Y25.157 Z-3.233
Y25.119 Z-3.173
Y25.096 Z-3.106
Y25.088 Z-3.035
G0 Z5
X74.285 Y39.682
G1 Z1.25 F300
Z0.067
G18 G2 X74.603 Z-0.25 I0.317
G1 X74.92
G17 G3 X75.238 Y40 J0.318
X73.162 I-1.038
X75.238 I1.038
X74.92 Y40.318 I-0.318
G1 X74.603
G18 G3 X74.285 Z0.067 K0.318
G1 Y39.682
Z-0.183
G2 X74.603 Z-0.5 I0.317
G1 X74.92
G17 G3 X75.238 Y40 J0.318
X73.162 I-1.038
X75.238 I1.038
X74.92 Y40.318 I-0.318
G1 X74.603
G18 G3 X74.285 Z-0.183 K0.317
G1 Y39.682
Z-0.433
G2 X74.603 Z-0.75 I0.317
G1 X74.92
G17 G3 X75.238 Y40 J0.318
X73.162 I-1.038
X75.238 I1.038
X74.92 Y40.318 I-0.318
G1 X74.603
G18 G3 X74.285 Z-0.433 K0.317
G1 Y39.682
Z-0.683
G2 X74.603 Z-1 I0.317
G1 X74.92
G17 G3 X75.238 Y40 J0.318
X73.162 I-1.038
X75.238 I1.038
X74.92 Y40.318 I-0.318
G1 X74.603
G18 G3 X74.285 Z-0.683 K0.317
G1 Y39.682
Z-0.933
G2 X74.603 Z-1.25 I0.317
G1 X74.92
G17 G3 X75.238 Y40 J0.318
X73.162 I-1.038
X75.238 I1.038
X74.92 Y40.318 I-0.318
G1 X74.603
G18 G3 X74.285 Z-0.933 K0.317
G1 Y39.682
Z-1.183
G2 X74.603 Z-1.5 I0.317
G1 X74.92
G17 G3 X75.238 Y40 J0.318
X73.162 I-1.038
X75.238 I1.038
X74.92 Y40.318 I-0.318
G1 X74.603
G18 G3 X74.285 Z-1.183 K0.317
G1 Y39.682
Z-1.433
G2 X74.603 Z-1.75 I0.317
G1 X74.92
G17 G3 X75.238 Y40 J0.318
X73.162 I-1.038
X75.238 I1.038
X74.92 Y40.318 I-0.318
G1 X74.603
G18 G3 X74.285 Z-1.433 K0.317
G1 Y39.682
Z-1.683
G2 X74.603 Z-2 I0.317
G1 X74.92
G17 G3 X75.238 Y40 J0.318
X73.162 I-1.038
X75.238 I1.038
X74.92 Y40.318 I-0.318
G1 X74.603
G18 G3 X74.285 Z-1.683 K0.317
G1 Y39.682
Z-1.933
G2 X74.603 Z-2.25 I0.317
G1 X74.92
G17 G3 X75.238 Y40 J0.318
X73.162 I-1.038
X75.238 I1.038
X74.92 Y40.318 I-0.318
G1 X74.603
G18 G3 X74.285 Z-1.933 K0.317
G1 Y39.682
Z-2.183
G2 X74.603 Z-2.5 I0.317
G1 X74.92
G17 G3 X75.238 Y40 J0.318
X73.162 I-1.038
X75.238 I1.038
X74.92 Y40.318 I-0.318
G1 X74.603
G18 G3 X74.285 Z-2.183 K0.318
G1 Y39.682
Z-2.433
G2 X74.603 Z-2.75 I0.317
G1 X74.92
G17 G3 X75.238 Y40 J0.318
X73.162 I-1.038
X75.238 I1.038
X74.92 Y40.318 I-0.318
G1 X74.603
G18 G3 X74.285 Z-2.433 K0.318
G1 Y39.682
Z-2.683
G2 X74.603 Z-3 I0.317
G1 X74.92
G17 G3 X75.238 Y40 J0.318
X73.162 I-1.038
X75.238 I1.038
X74.92 Y40.318 I-0.318
G1 X74.603
G18 G3 X74.285 Z-2.683 K0.318
G1 Y39.682
Z-2.933
G2 X74.603 Z-3.25 I0.317
G1 X74.92
G17 G3 X75.238 Y40 J0.318
X73.162 I-1.038
X75.238 I1.038
X74.92 Y40.318 I-0.318
G1 X74.603
G18 G3 X74.285 Z-2.933 K0.318
G1 Y39.682
Z-3.035
G2 X74.603 Z-3.353 I0.317
G1 X74.92
G17 G3 X75.238 Y40 J0.318
X73.162 I-1.038
X75.238 I1.038
X74.92 Y40.318 I-0.318
G1 X74.603
G18 G3 X74.285 Z-3.035 K0.317
G0 Z5
X12.785 Y39.682
G1 Z1.25 F300
Z0.067
G2 X13.102 Z-0.25 I0.318
G1 X13.42
G17 G3 X13.738 Y40 J0.318
X11.662 I-1.038
X13.738 I1.038
X13.42 Y40.318 I-0.318
G1 X13.102
G18 G3 X12.785 Z0.067 K0.318
G1 Y39.682
Z-0.183
G2 X13.102 Z-0.5 I0.318
G1 X13.42
G17 G3 X13.738 Y40 J0.318
X11.662 I-1.038
X13.738 I1.038
X13.42 Y40.318 I-0.318
G1 X13.102
G18 G3 X12.785 Z-0.183 K0.317
G1 Y39.682
Z-0.433
G2 X13.102 Z-0.75 I0.318
G1 X13.42
G17 G3 X13.738 Y40 J0.318
X11.662 I-1.038
X13.738 I1.038
X13.42 Y40.318 I-0.318
G1 X13.102
G18 G3 X12.785 Z-0.433 K0.317
G1 Y39.682
Z-0.683
G2 X13.102 Z-1 I0.318
G1 X13.42
G17 G3 X13.738 Y40 J0.318
X11.662 I-1.038
X13.738 I1.038
X13.42 Y40.318 I-0.318
G1 X13.102
G18 G3 X12.785 Z-0.683 K0.317
G1 Y39.682
Z-0.933
G2 X13.102 Z-1.25 I0.318
G1 X13.42
G17 G3 X13.738 Y40 J0.318
X11.662 I-1.038
X13.738 I1.038
X13.42 Y40.318 I-0.318
G1 X13.102
G18 G3 X12.785 Z-0.933 K0.317
G1 Y39.682
Z-1.183
G2 X13.102 Z-1.5 I0.318
G1 X13.42
G17 G3 X13.738 Y40 J0.318
X11.662 I-1.038
X13.738 I1.038
X13.42 Y40.318 I-0.318
G1 X13.102
G18 G3 X12.785 Z-1.183 K0.317
G1 Y39.682
Z-1.433
G2 X13.102 Z-1.75 I0.318
G1 X13.42
G17 G3 X13.738 Y40 J0.318
X11.662 I-1.038
X13.738 I1.038
X13.42 Y40.318 I-0.318
G1 X13.102
G18 G3 X12.785 Z-1.433 K0.317
G1 Y39.682
Z-1.683
G2 X13.102 Z-2 I0.318
G1 X13.42
G17 G3 X13.738 Y40 J0.318
X11.662 I-1.038
X13.738 I1.038
X13.42 Y40.318 I-0.318
G1 X13.102
G18 G3 X12.785 Z-1.683 K0.317
G1 Y39.682
Z-1.933
G2 X13.102 Z-2.25 I0.318
G1 X13.42
G17 G3 X13.738 Y40 J0.318
X11.662 I-1.038
X13.738 I1.038
X13.42 Y40.318 I-0.318
G1 X13.102
G18 G3 X12.785 Z-1.933 K0.317
G1 Y39.682
Z-2.183
G2 X13.102 Z-2.5 I0.318
G1 X13.42
G17 G3 X13.738 Y40 J0.318
X11.662 I-1.038
X13.738 I1.038
X13.42 Y40.318 I-0.318
G1 X13.102
G18 G3 X12.785 Z-2.183 K0.318
G1 Y39.682
Z-2.433
G2 X13.102 Z-2.75 I0.318
G1 X13.42
G17 G3 X13.738 Y40 J0.318
X11.662 I-1.038
X13.738 I1.038
X13.42 Y40.318 I-0.318
G1 X13.102
G18 G3 X12.785 Z-2.433 K0.318
G1 Y39.682
Z-2.683
G2 X13.102 Z-3 I0.318
G1 X13.42
G17 G3 X13.738 Y40 J0.318
X11.662 I-1.038
X13.738 I1.038
X13.42 Y40.318 I-0.318
G1 X13.102
G18 G3 X12.785 Z-2.683 K0.318
G1 Y39.682
Z-2.933
G2 X13.102 Z-3.25 I0.318
G1 X13.42
G17 G3 X13.738 Y40 J0.318
X11.662 I-1.038
X13.738 I1.038
X13.42 Y40.318 I-0.318
G1 X13.102
G18 G3 X12.785 Z-2.933 K0.318
G1 Y39.682
Z-3.035
G2 X13.102 Z-3.353 I0.318
G1 X13.42
G17 G3 X13.738 Y40 J0.318
X11.662 I-1.038
X13.738 I1.038
X13.42 Y40.318 I-0.318
G1 X13.102
G18 G3 X12.785 Z-3.035 K0.317
G0 Z5
X10.085 Y9.682
G1 Z1.25 F300
Z0.067
G2 X10.403 Z-0.25 I0.318
G1 X10.72
G17 G3 X11.038 Y10 J0.318
X8.962 I-1.038
X11.038 I1.038
X10.72 Y10.318 I-0.318
G1 X10.403
G18 G3 X10.085 Z0.067 K0.318
G1 Y9.682
Z-0.183
G2 X10.403 Z-0.5 I0.318
G1 X10.72
G17 G3 X11.038 Y10 J0.318
X8.962 I-1.038
X11.038 I1.038
X10.72 Y10.318 I-0.318
G1 X10.403
G18 G3 X10.085 Z-0.183 K0.317
G1 Y9.682
Z-0.433
G2 X10.403 Z-0.75 I0.318
G1 X10.72
G17 G3 X11.038 Y10 J0.318
X8.962 I-1.038
X11.038 I1.038
X10.72 Y10.318 I-0.318
G1 X10.403
G18 G3 X10.085 Z-0.433 K0.317
G1 Y9.682
Z-0.683
G2 X10.403 Z-1 I0.318
G1 X10.72
G17 G3 X11.038 Y10 J0.318
X8.962 I-1.038
X11.038 I1.038
X10.72 Y10.318 I-0.318
G1 X10.403
G18 G3 X10.085 Z-0.683 K0.317
G1 Y9.682
Z-0.933
G2 X10.403 Z-1.25 I0.318
G1 X10.72
G17 G3 X11.038 Y10 J0.318
X8.962 I-1.038
X11.038 I1.038
X10.72 Y10.318 I-0.318
G1 X10.403
G18 G3 X10.085 Z-0.933 K0.317
G1 Y9.682
Z-1.183
G2 X10.403 Z-1.5 I0.318
G1 X10.72
G17 G3 X11.038 Y10 J0.318
X8.962 I-1.038
X11.038 I1.038
X10.72 Y10.318 I-0.318
G1 X10.403
G18 G3 X10.085 Z-1.183 K0.317
G1 Y9.682
Z-1.433
G2 X10.403 Z-1.75 I0.318
G1 X10.72
G17 G3 X11.038 Y10 J0.318
X8.962 I-1.038
X11.038 I1.038
X10.72 Y10.318 I-0.318
G1 X10.403
G18 G3 X10.085 Z-1.433 K0.317
G1 Y9.682
Z-1.683
G2 X10.403 Z-2 I0.318
G1 X10.72
G17 G3 X11.038 Y10 J0.318
X8.962 I-1.038
X11.038 I1.038
X10.72 Y10.318 I-0.318
G1 X10.403
G18 G3 X10.085 Z-1.683 K0.317
G1 Y9.682
Z-1.933
G2 X10.403 Z-2.25 I0.318
G1 X10.72
G17 G3 X11.038 Y10 J0.318
X8.962 I-1.038
X11.038 I1.038
X10.72 Y10.318 I-0.318
G1 X10.403
G18 G3 X10.085 Z-1.933 K0.317
G1 Y9.682
Z-2.183
G2 X10.403 Z-2.5 I0.318
G1 X10.72
G17 G3 X11.038 Y10 J0.318
X8.962 I-1.038
X11.038 I1.038
X10.72 Y10.318 I-0.318
G1 X10.403
G18 G3 X10.085 Z-2.183 K0.318
G1 Y9.682
Z-2.433
G2 X10.403 Z-2.75 I0.318
G1 X10.72
G17 G3 X11.038 Y10 J0.318
X8.962 I-1.038
X11.038 I1.038
X10.72 Y10.318 I-0.318
G1 X10.403
G18 G3 X10.085 Z-2.433 K0.318
G1 Y9.682
Z-2.683
G2 X10.403 Z-3 I0.318
G1 X10.72
G17 G3 X11.038 Y10 J0.318
X8.962 I-1.038
X11.038 I1.038
X10.72 Y10.318 I-0.318
G1 X10.403
G18 G3 X10.085 Z-2.683 K0.318
G1 Y9.682
Z-2.933
G2 X10.403 Z-3.25 I0.318
G1 X10.72
G17 G3 X11.038 Y10 J0.318
X8.962 I-1.038
X11.038 I1.038
X10.72 Y10.318 I-0.318
G1 X10.403
G18 G3 X10.085 Z-2.933 K0.318
G1 Y9.682
Z-3.035
G2 X10.403 Z-3.353 I0.318
G1 X10.72
G17 G3 X11.038 Y10 J0.318
X8.962 I-1.038
X11.038 I1.038
X10.72 Y10.318 I-0.318
G1 X10.403
G18 G3 X10.085 Z-3.035 K0.317
G0 Z15
G17
M9
M30
%
