%
(1)
(Motor Contour)
(T1  D=3.175 CR=0 - ZMIN=-3.353 - flat end mill)
G90 G94
G17
G21

(2D Contour12)
M9
T1 M6
S10000 M3
G54
M9
G0 X80.238 Y-2.54
Z15
Z5
G1 Z1.25 F300
Z0.067
G19 G3 Y-2.223 Z-0.25 J0.317
G1 Y-1.905
G17 G3 X79.92 Y-1.587 I-0.318
G1 X5.08
G2 X-0.619 Y1.619 J6.668
X-1.587 Y5.08 I5.699 J3.461
G1 Y44.92
G2 X5.08 Y51.588 I6.667
G1 X79.92
G2 X86.588 Y44.92 J-6.668
G1 Y5.08
G2 X79.92 Y-1.587 I-6.668
G3 X79.603 Y-1.905 J-0.317
G1 Y-2.223
G19 G2 Y-2.54 Z0.067 K0.318
G1 X80.238
Z-0.183
G3 Y-2.223 Z-0.5 J0.317
G1 Y-1.905
G17 G3 X79.92 Y-1.587 I-0.318
G1 X5.08
G2 X-0.619 Y1.619 J6.668
X-1.587 Y5.08 I5.699 J3.461
G1 Y44.92
G2 X5.08 Y51.588 I6.667
G1 X79.92
G2 X86.588 Y44.92 J-6.668
G1 Y5.08
G2 X79.92 Y-1.587 I-6.668
G3 X79.603 Y-1.905 J-0.317
G1 Y-2.223
G19 G2 Y-2.54 Z-0.183 K0.317
G1 X80.238
Z-0.433
G3 Y-2.223 Z-0.75 J0.317
G1 Y-1.905
G17 G3 X79.92 Y-1.587 I-0.318
G1 X5.08
G2 X-0.619 Y1.619 J6.668
X-1.587 Y5.08 I5.699 J3.461
G1 Y44.92
G2 X5.08 Y51.588 I6.667
G1 X79.92
G2 X86.588 Y44.92 J-6.668
G1 Y5.08
G2 X79.92 Y-1.587 I-6.668
G3 X79.603 Y-1.905 J-0.317
G1 Y-2.223
G19 G2 Y-2.54 Z-0.433 K0.317
G1 X80.238
Z-0.683
G3 Y-2.223 Z-1 J0.317
G1 Y-1.905
G17 G3 X79.92 Y-1.587 I-0.318
G1 X5.08
G2 X-0.619 Y1.619 J6.668
X-1.587 Y5.08 I5.699 J3.461
G1 Y44.92
G2 X5.08 Y51.588 I6.667
G1 X79.92
G2 X86.588 Y44.92 J-6.668
G1 Y5.08
G2 X79.92 Y-1.587 I-6.668
G3 X79.603 Y-1.905 J-0.317
G1 Y-2.223
G19 G2 Y-2.54 Z-0.683 K0.317
G1 X80.238
Z-0.933
G3 Y-2.223 Z-1.25 J0.317
G1 Y-1.905
G17 G3 X79.92 Y-1.587 I-0.318
G1 X5.08
G2 X-0.619 Y1.619 J6.668
X-1.587 Y5.08 I5.699 J3.461
G1 Y44.92
G2 X5.08 Y51.588 I6.667
G1 X79.92
G2 X86.588 Y44.92 J-6.668
G1 Y5.08
G2 X79.92 Y-1.587 I-6.668
G3 X79.603 Y-1.905 J-0.317
G1 Y-2.223
G19 G2 Y-2.54 Z-0.933 K0.317
G1 X80.238
Z-1.183
G3 Y-2.223 Z-1.5 J0.317
G1 Y-1.905
G17 G3 X79.92 Y-1.587 I-0.318
G1 X5.08
G2 X-0.619 Y1.619 J6.668
X-1.587 Y5.08 I5.699 J3.461
G1 Y44.92
G2 X5.08 Y51.588 I6.667
G1 X79.92
G2 X86.588 Y44.92 J-6.668
G1 Y5.08
G2 X79.92 Y-1.587 I-6.668
G3 X79.603 Y-1.905 J-0.317
G1 Y-2.223
G19 G2 Y-2.54 Z-1.183 K0.317
G1 X80.238
Z-1.433
G3 Y-2.223 Z-1.75 J0.317
G1 Y-1.905
G17 G3 X79.92 Y-1.587 I-0.318
G1 X5.08
G2 X-0.619 Y1.619 J6.668
X-1.587 Y5.08 I5.699 J3.461
G1 Y44.92
G2 X5.08 Y51.588 I6.667
G1 X79.92
G2 X86.588 Y44.92 J-6.668
G1 Y5.08
G2 X79.92 Y-1.587 I-6.668
G3 X79.603 Y-1.905 J-0.317
G1 Y-2.223
G19 G2 Y-2.54 Z-1.433 K0.317
G1 X80.238
Z-1.683
G3 Y-2.223 Z-2 J0.317
G1 Y-1.905
G17 G3 X79.92 Y-1.587 I-0.318
G1 X5.08
G2 X-0.619 Y1.619 J6.668
X-1.587 Y5.08 I5.699 J3.461
G1 Y44.92
G2 X5.08 Y51.588 I6.667
G1 X79.92
G2 X86.588 Y44.92 J-6.668
G1 Y5.08
G2 X79.92 Y-1.587 I-6.668
G3 X79.603 Y-1.905 J-0.317
G1 Y-2.223
G19 G2 Y-2.54 Z-1.683 K0.317
G1 X80.238
Z-1.933
G3 Y-2.223 Z-2.25 J0.317
G1 Y-1.905
G17 G3 X79.92 Y-1.587 I-0.318
G1 X5.08
G2 X-0.619 Y1.619 J6.668
X-1.587 Y5.08 I5.699 J3.461
G1 Y44.92
G2 X5.08 Y51.588 I6.667
G1 X79.92
G2 X86.588 Y44.92 J-6.668
G1 Y5.08
G2 X79.92 Y-1.587 I-6.668
G3 X79.603 Y-1.905 J-0.317
G1 Y-2.223
G19 G2 Y-2.54 Z-1.933 K0.317
G1 X80.238
Z-2.183
G3 Y-2.223 Z-2.5 J0.317
G1 Y-1.905
G17 G3 X79.92 Y-1.587 I-0.318
G1 X5.08
G2 X-0.619 Y1.619 J6.668
X-1.587 Y5.08 I5.699 J3.461
G1 Y44.92
G2 X5.08 Y51.588 I6.667
G1 X79.92
G2 X86.588 Y44.92 J-6.668
G1 Y5.08
G2 X79.92 Y-1.587 I-6.668
G3 X79.603 Y-1.905 J-0.317
G1 Y-2.223
G19 G2 Y-2.54 Z-2.183 K0.318
G1 X80.238
Z-2.433
G3 Y-2.223 Z-2.75 J0.317
G1 Y-1.905
G17 G3 X79.92 Y-1.587 I-0.318
G1 X5.08
G2 X-0.619 Y1.619 J6.668
X-1.587 Y5.08 I5.699 J3.461
G1 Y44.92
G2 X5.08 Y51.588 I6.667
G1 X79.92
G2 X86.588 Y44.92 J-6.668
G1 Y5.08
G2 X79.92 Y-1.587 I-6.668
G3 X79.603 Y-1.905 J-0.317
G1 Y-2.223
G19 G2 Y-2.54 Z-2.433 K0.318
G1 X80.238
Z-2.683
G3 Y-2.223 Z-3 J0.317
G1 Y-1.905
G17 G3 X79.92 Y-1.587 I-0.318
G1 X5.08
G2 X-0.619 Y1.619 J6.668
X-1.587 Y5.08 I5.699 J3.461
G1 Y44.92
G2 X5.08 Y51.588 I6.667
G1 X79.92
G2 X86.588 Y44.92 J-6.668
G1 Y5.08
G2 X79.92 Y-1.587 I-6.668
G3 X79.603 Y-1.905 J-0.317
G1 Y-2.223
G19 G2 Y-2.54 Z-2.683 K0.318
G1 X80.238
Z-2.933
G3 Y-2.223 Z-3.25 J0.317
G1 Y-1.905
G17 G3 X79.92 Y-1.587 I-0.318
G1 X5.08
G2 X-0.619 Y1.619 J6.668
X-1.587 Y5.08 I5.699 J3.461
G1 Y44.92
G2 X5.08 Y51.588 I6.667
G1 X79.92
G2 X86.588 Y44.92 J-6.668
G1 Y5.08
G2 X79.92 Y-1.587 I-6.668
G3 X79.603 Y-1.905 J-0.317
G1 Y-2.223
G19 G2 Y-2.54 Z-2.933 K0.318
G1 X80.238
Z-3.035
G3 Y-2.223 Z-3.353 J0.317
G1 Y-1.905
G17 G3 X79.92 Y-1.587 I-0.318
G1 X5.08
G2 X-0.619 Y1.619 J6.668
X-1.587 Y5.08 I5.699 J3.461
G1 Y44.92
G2 X5.08 Y51.588 I6.667
G1 X79.92
G2 X86.588 Y44.92 J-6.668
G1 Y5.08
G2 X79.92 Y-1.587 I-6.668
G3 X79.603 Y-1.905 J-0.317
G1 Y-2.223
G19 G2 Y-2.54 Z-3.035 K0.317
G0 Z15
G17
M9
M30
%
