%
(1001)
(Contour)
(T1  D=3.175 CR=0 - ZMIN=-3.302 - flat end mill)
G90 G94
G17
G21

(Bore1)
M9
T1 M6
S10000 M3
G54
M8
G0 X79.058 Y45.851
Z15
Z2
G1 Z0.317 F300
G19 G2 Y45.534 Z0 J-0.318
G1 Y45.375
G17 G3 X79.375 Y45.057 I0.317
Y46.383 Z-0.125 J0.663
Y45.057 Z-0.25 J-0.663
Y46.383 Z-0.375 J0.663
Y45.057 Z-0.5 J-0.663
Y46.383 Z-0.625 J0.663
Y45.057 Z-0.75 J-0.663
Y46.383 Z-0.875 J0.663
Y45.057 Z-1 J-0.663
Y46.383 Z-1.125 J0.663
Y45.057 Z-1.25 J-0.663
Y46.383 Z-1.375 J0.663
Y45.058 Z-1.5 J-0.663
Y46.383 Z-1.625 J0.663
Y45.058 Z-1.75 J-0.663
Y46.383 Z-1.875 J0.663
Y45.058 Z-2 J-0.663
Y46.383 Z-2.125 J0.663
Y45.058 Z-2.25 J-0.663
Y46.383 Z-2.375 J0.663
Y45.058 Z-2.5 J-0.663
Y46.383 Z-2.625 J0.663
Y45.058 Z-2.75 J-0.663
Y46.383 Z-2.875 J0.663
Y45.058 Z-3 J-0.663
Y46.383 Z-3.125 J0.662
Y45.058 Z-3.25 J-0.662
X80.015 Y45.547 Z-3.302 J0.662
X78.735 Y45.893 I-0.64 J0.173
X80.015 Y45.547 I0.64 J-0.173
X79.791 Y45.937 I-0.307 J0.083
G1 X79.638 Y45.978
X79.569 Y45.996 Z-3.294
X79.505 Y46.014 Z-3.271
X79.447 Y46.03 Z-3.233
X79.398 Y46.043 Z-3.182
X79.361 Y46.053 Z-3.122
X79.339 Y46.059 Z-3.055
X79.331 Y46.061 Z-2.984
G0 Z5
X60.007 Y45.851
Z2
G1 Z0.317 F300
G19 G2 Y45.534 Z0 J-0.318
G1 Y45.375
G17 G3 X60.325 Y45.057 I0.318
Y46.383 Z-0.125 J0.663
Y45.057 Z-0.25 J-0.663
Y46.383 Z-0.375 J0.663
Y45.057 Z-0.5 J-0.663
Y46.383 Z-0.625 J0.663
Y45.057 Z-0.75 J-0.663
Y46.383 Z-0.875 J0.663
Y45.057 Z-1 J-0.663
Y46.383 Z-1.125 J0.663
Y45.057 Z-1.25 J-0.663
Y46.383 Z-1.375 J0.663
Y45.058 Z-1.5 J-0.663
Y46.383 Z-1.625 J0.663
Y45.058 Z-1.75 J-0.663
Y46.383 Z-1.875 J0.663
Y45.058 Z-2 J-0.663
Y46.383 Z-2.125 J0.663
Y45.058 Z-2.25 J-0.663
Y46.383 Z-2.375 J0.663
Y45.058 Z-2.5 J-0.663
Y46.383 Z-2.625 J0.663
Y45.058 Z-2.75 J-0.663
Y46.383 Z-2.875 J0.663
Y45.058 Z-3 J-0.663
Y46.383 Z-3.125 J0.662
Y45.058 Z-3.25 J-0.662
X60.965 Y45.547 Z-3.302 J0.662
X59.685 Y45.893 I-0.64 J0.173
X60.965 Y45.547 I0.64 J-0.173
X60.741 Y45.937 I-0.307 J0.083
G1 X60.588 Y45.978
X60.519 Y45.996 Z-3.294
X60.455 Y46.014 Z-3.271
X60.397 Y46.03 Z-3.233
X60.348 Y46.043 Z-3.182
X60.311 Y46.053 Z-3.122
X60.289 Y46.059 Z-3.055
X60.281 Y46.061 Z-2.984
G0 Z5
X29.683 Y40.906
Z2
G1 Z0.317 F300
G19 G2 Y40.589 Z0 J-0.318
G1 Y40.43
G17 G3 X30 Y40.112 I0.317
Y42.438 Z-0.125 J1.163
Y40.112 Z-0.25 J-1.163
Y42.438 Z-0.375 J1.163
Y40.112 Z-0.5 J-1.163
Y42.438 Z-0.625 J1.163
Y40.112 Z-0.75 J-1.163
Y42.438 Z-0.875 J1.163
Y40.113 Z-1 J-1.163
Y42.438 Z-1.125 J1.163
Y40.113 Z-1.25 J-1.163
Y42.438 Z-1.375 J1.163
Y40.113 Z-1.5 J-1.163
Y42.438 Z-1.625 J1.163
Y40.113 Z-1.75 J-1.163
Y42.438 Z-1.875 J1.163
Y40.113 Z-2 J-1.163
Y42.438 Z-2.125 J1.163
Y40.113 Z-2.25 J-1.163
Y42.438 Z-2.375 J1.163
Y40.113 Z-2.5 J-1.163
Y42.438 Z-2.625 J1.163
Y40.113 Z-2.75 J-1.163
Y42.438 Z-2.875 J1.163
Y40.113 Z-3 J-1.163
Y42.438 Z-3.125 J1.162
Y40.113 Z-3.25 J-1.162
X31.122 Y40.972 Z-3.302 J1.162
X28.878 Y41.578 I-1.122 J0.303
X31.122 Y40.972 I1.122 J-0.303
X30.899 Y41.361 I-0.307 J0.083
G1 X30.745 Y41.403
X30.677 Y41.421 Z-3.294
X30.612 Y41.438 Z-3.271
X30.554 Y41.454 Z-3.233
X30.506 Y41.467 Z-3.182
X30.469 Y41.477 Z-3.122
X30.446 Y41.483 Z-3.055
X30.439 Y41.485 Z-2.984
G0 Z5
X9.682 Y40.906
Z2
G1 Z0.317 F300
G19 G2 Y40.589 Z0 J-0.318
G1 Y40.43
G17 G3 X10 Y40.112 I0.318
Y42.438 Z-0.125 J1.163
Y40.112 Z-0.25 J-1.163
Y42.438 Z-0.375 J1.163
Y40.112 Z-0.5 J-1.163
Y42.438 Z-0.625 J1.163
Y40.112 Z-0.75 J-1.163
Y42.438 Z-0.875 J1.163
Y40.112 Z-1 J-1.163
Y42.438 Z-1.125 J1.163
Y40.112 Z-1.25 J-1.163
Y42.438 Z-1.375 J1.163
Y40.112 Z-1.5 J-1.163
Y42.438 Z-1.625 J1.163
Y40.113 Z-1.75 J-1.163
Y42.438 Z-1.875 J1.163
Y40.113 Z-2 J-1.163
Y42.438 Z-2.125 J1.163
Y40.113 Z-2.25 J-1.163
Y42.438 Z-2.375 J1.163
Y40.113 Z-2.5 J-1.163
Y42.438 Z-2.625 J1.163
Y40.113 Z-2.75 J-1.163
Y42.438 Z-2.875 J1.163
Y40.113 Z-3 J-1.163
Y42.438 Z-3.125 J1.163
Y40.113 Z-3.25 J-1.163
X11.122 Y40.972 Z-3.302 J1.163
X8.878 Y41.578 I-1.122 J0.303
X11.122 Y40.972 I1.122 J-0.303
X10.899 Y41.361 I-0.307 J0.083
G1 X10.745 Y41.403
X10.677 Y41.421 Z-3.294
X10.612 Y41.438 Z-3.271
X10.554 Y41.454 Z-3.233
X10.506 Y41.467 Z-3.182
X10.469 Y41.477 Z-3.122
X10.446 Y41.483 Z-3.055
X10.439 Y41.485 Z-2.984
G0 Z5
X9.682 Y9.156
Z2
G1 Z0.317 F300
G19 G2 Y8.839 Z0 J-0.318
G1 Y8.68
G17 G3 X10 Y8.363 I0.318
Y10.687 Z-0.125 J1.162
Y8.363 Z-0.25 J-1.162
Y10.687 Z-0.375 J1.162
Y8.363 Z-0.5 J-1.162
Y10.687 Z-0.625 J1.162
Y8.363 Z-0.75 J-1.162
Y10.687 Z-0.875 J1.162
Y8.363 Z-1 J-1.162
Y10.687 Z-1.125 J1.162
Y8.363 Z-1.25 J-1.162
Y10.687 Z-1.375 J1.162
Y8.362 Z-1.5 J-1.162
Y10.687 Z-1.625 J1.162
Y8.362 Z-1.75 J-1.162
Y10.687 Z-1.875 J1.162
Y8.362 Z-2 J-1.162
Y10.687 Z-2.125 J1.162
Y8.362 Z-2.25 J-1.162
Y10.687 Z-2.375 J1.162
Y8.362 Z-2.5 J-1.162
Y10.687 Z-2.625 J1.162
Y8.362 Z-2.75 J-1.162
Y10.687 Z-2.875 J1.162
Y8.362 Z-3 J-1.162
Y10.687 Z-3.125 J1.162
Y8.362 Z-3.25 J-1.162
X11.122 Y9.222 Z-3.302 J1.162
X8.878 Y9.828 I-1.122 J0.303
X11.122 Y9.222 I1.122 J-0.303
X10.899 Y9.611 I-0.307 J0.083
G1 X10.745 Y9.653
X10.677 Y9.671 Z-3.294
X10.612 Y9.688 Z-3.271
X10.554 Y9.704 Z-3.233
X10.506 Y9.717 Z-3.182
X10.469 Y9.727 Z-3.122
X10.446 Y9.733 Z-3.055
X10.439 Y9.735 Z-2.984
G0 Z5
X29.683 Y9.156
Z2
G1 Z0.317 F300
G19 G2 Y8.839 Z0 J-0.318
G1 Y8.68
G17 G3 X30 Y8.363 I0.317
Y10.687 Z-0.125 J1.162
Y8.363 Z-0.25 J-1.162
Y10.687 Z-0.375 J1.162
Y8.363 Z-0.5 J-1.162
Y10.687 Z-0.625 J1.162
Y8.363 Z-0.75 J-1.162
Y10.687 Z-0.875 J1.162
Y8.363 Z-1 J-1.162
Y10.687 Z-1.125 J1.162
Y8.363 Z-1.25 J-1.162
Y10.687 Z-1.375 J1.162
Y8.363 Z-1.5 J-1.162
Y10.687 Z-1.625 J1.162
Y8.363 Z-1.75 J-1.162
Y10.687 Z-1.875 J1.162
Y8.363 Z-2 J-1.162
Y10.687 Z-2.125 J1.162
Y8.363 Z-2.25 J-1.162
Y10.687 Z-2.375 J1.162
Y8.363 Z-2.5 J-1.162
Y10.687 Z-2.625 J1.162
Y8.363 Z-2.75 J-1.162
Y10.687 Z-2.875 J1.162
Y8.363 Z-3 J-1.162
Y10.687 Z-3.125 J1.162
Y8.363 Z-3.25 J-1.162
X31.122 Y9.222 Z-3.302 J1.162
X28.878 Y9.828 I-1.122 J0.303
X31.122 Y9.222 I1.122 J-0.303
X30.899 Y9.611 I-0.307 J0.083
G1 X30.745 Y9.653
X30.677 Y9.671 Z-3.294
X30.612 Y9.688 Z-3.271
X30.554 Y9.704 Z-3.233
X30.506 Y9.717 Z-3.182
X30.469 Y9.727 Z-3.122
X30.446 Y9.733 Z-3.055
X30.439 Y9.735 Z-2.984
G0 Z5
X60.007 Y5.211
Z2
G1 Z0.317 F300
G19 G2 Y4.894 Z0 J-0.317
G1 Y4.735
G17 G3 X60.325 Y4.418 I0.318
Y5.742 Z-0.125 J0.662
Y4.418 Z-0.25 J-0.662
Y5.742 Z-0.375 J0.662
Y4.418 Z-0.5 J-0.662
Y5.742 Z-0.625 J0.662
Y4.418 Z-0.75 J-0.662
Y5.742 Z-0.875 J0.662
Y4.418 Z-1 J-0.662
Y5.742 Z-1.125 J0.662
Y4.418 Z-1.25 J-0.662
Y5.742 Z-1.375 J0.662
Y4.418 Z-1.5 J-0.662
Y5.742 Z-1.625 J0.662
Y4.418 Z-1.75 J-0.662
Y5.742 Z-1.875 J0.662
Y4.418 Z-2 J-0.662
Y5.742 Z-2.125 J0.662
Y4.418 Z-2.25 J-0.662
Y5.742 Z-2.375 J0.662
Y4.418 Z-2.5 J-0.662
Y5.742 Z-2.625 J0.662
Y4.418 Z-2.75 J-0.662
Y5.742 Z-2.875 J0.662
Y4.418 Z-3 J-0.662
Y5.742 Z-3.125 J0.662
Y4.418 Z-3.25 J-0.662
X60.965 Y4.907 Z-3.302 J0.662
X59.685 Y5.253 I-0.64 J0.173
X60.965 Y4.907 I0.64 J-0.173
X60.741 Y5.297 I-0.307 J0.083
G1 X60.588 Y5.338
X60.519 Y5.356 Z-3.294
X60.455 Y5.374 Z-3.271
X60.397 Y5.39 Z-3.233
X60.348 Y5.403 Z-3.182
X60.311 Y5.413 Z-3.122
X60.289 Y5.419 Z-3.055
X60.281 Y5.421 Z-2.984
G0 Z5
X79.058 Y5.211
Z2
G1 Z0.317 F300
G19 G2 Y4.894 Z0 J-0.317
G1 Y4.735
G17 G3 X79.375 Y4.418 I0.317
Y5.742 Z-0.125 J0.662
Y4.418 Z-0.25 J-0.662
Y5.742 Z-0.375 J0.662
Y4.418 Z-0.5 J-0.662
Y5.742 Z-0.625 J0.662
Y4.418 Z-0.75 J-0.662
Y5.742 Z-0.875 J0.662
Y4.418 Z-1 J-0.662
Y5.742 Z-1.125 J0.662
Y4.418 Z-1.25 J-0.662
Y5.742 Z-1.375 J0.662
Y4.418 Z-1.5 J-0.662
Y5.742 Z-1.625 J0.662
Y4.418 Z-1.75 J-0.662
Y5.742 Z-1.875 J0.662
Y4.418 Z-2 J-0.662
Y5.742 Z-2.125 J0.662
Y4.418 Z-2.25 J-0.662
Y5.742 Z-2.375 J0.662
Y4.418 Z-2.5 J-0.662
Y5.742 Z-2.625 J0.662
Y4.418 Z-2.75 J-0.662
Y5.742 Z-2.875 J0.662
Y4.418 Z-3 J-0.662
Y5.742 Z-3.125 J0.662
Y4.418 Z-3.25 J-0.662
X80.015 Y4.907 Z-3.302 J0.662
X78.735 Y5.253 I-0.64 J0.173
X80.015 Y4.907 I0.64 J-0.173
X79.791 Y5.297 I-0.307 J0.083
G1 X79.638 Y5.338
X79.569 Y5.356 Z-3.294
X79.505 Y5.374 Z-3.271
X79.447 Y5.39 Z-3.233
X79.398 Y5.403 Z-3.182
X79.361 Y5.413 Z-3.122
X79.339 Y5.419 Z-3.055
X79.331 Y5.421 Z-2.984
G0 Z15

(2D Pocket1)
M8
X64.716 Y15.226
Z15
Z5
G1 Z2.817 F300
G19 G3 Y15.532 Z2.5 J0.318
G1 Y39.053 Z1.679
X64.59 Z1.674
Y11.748 Z0.721
X64.716 Z0.716
Y39.053 Z-0.237
X64.59 Z-0.242
Y38.814 Z-0.25
Y11.748
X64.716
Y39.053
X64.59
Y38.814
Y31.655 Z-0.5
Y11.748
X64.716
Y39.053
X64.59
Y31.655
Y24.496 Z-0.75
Y11.748
X64.716
Y39.053
X64.59
Y31.655
Y24.496
Y17.337 Z-1
Y11.748
X64.716
Y39.053
X64.59
Y24.496
Y17.337
Y11.748 Z-1.195
X64.716 Z-1.2
Y13.19 Z-1.25
Y39.053
X64.59
Y17.337
Y11.748
X64.716
Y13.19
Y20.349 Z-1.5
Y39.053
X64.59
Y11.748
X64.716
Y20.349
Y27.508 Z-1.75
Y39.053
X64.59
Y11.748
X64.716
Y20.349
Y27.508
Y34.667 Z-2
Y39.053
X64.59
Y11.748
X64.716
Y27.508
Y34.667
Y39.053 Z-2.153
X64.59 Z-2.158
Y36.406 Z-2.25
Y11.748
X64.716
Y34.667
Y39.053
X64.59
Y36.406
Y29.247 Z-2.5
Y11.748
X64.716
Y39.053
X64.59
Y29.247
Y22.088 Z-2.75
Y11.748
X64.716
Y39.053
X64.59
Y29.247
Y22.088
Y14.929 Z-3
Y11.748
X64.716
Y39.053
X64.59
Y22.088
Y14.929
Y11.748 Z-3.111
X64.716 Z-3.116
Y12.763 Z-3.151
Y39.053
X64.59
Y14.929
Y11.748
X64.716
Y12.763
Y17.087 Z-3.302
Y39.053
X64.59
Y11.748
X64.716
Y17.087
G3 Y17.405 Z-2.985 K0.318
G0 Z5
X48.588 Y35.447
G1 Z2.817 F300
G2 Y35.141 Z2.5 J-0.318
G1 Y11.748 Z1.683
X48.715 Z1.679
Y39.053 Z0.725
X48.588 Z0.721
Y11.748 Z-0.233
X48.715 Z-0.237
Y12.113 Z-0.25
Y39.053
X48.588
Y11.748
X48.715
Y12.113
Y19.272 Z-0.5
Y39.053
X48.588
Y11.748
X48.715
Y19.272
Y26.431 Z-0.75
Y39.053
X48.588
Y11.748
X48.715
Y19.272
Y26.431
Y33.59 Z-1
Y39.053
X48.588
Y11.748
X48.715
Y26.431
Y33.59
Y39.053 Z-1.191
X48.588 Z-1.195
Y37.483 Z-1.25
Y11.748
X48.715
Y33.59
Y39.053
X48.588
Y37.483
Y30.324 Z-1.5
Y11.748
X48.715
Y39.053
X48.588
Y30.324
Y23.165 Z-1.75
Y11.748
X48.715
Y39.053
X48.588
Y30.324
Y23.165
Y16.006 Z-2
Y11.748
X48.715
Y39.053
X48.588
Y23.165
Y16.006
Y11.748 Z-2.149
X48.715 Z-2.153
Y14.521 Z-2.25
Y39.053
X48.588
Y16.006
Y11.748
X48.715
Y14.521
Y21.68 Z-2.5
Y39.053
X48.588
Y11.748
X48.715
Y21.68
Y28.839 Z-2.75
Y39.053
X48.588
Y11.748
X48.715
Y21.68
Y28.839
Y35.998 Z-3
Y39.053
X48.588
Y11.748
X48.715
Y28.839
Y35.998
Y39.053 Z-3.107
X48.588 Z-3.111
Y37.91 Z-3.151
Y11.748
X48.715
Y35.998
Y39.053
X48.588
Y37.91
Y33.586 Z-3.302
Y11.748
X48.715
Y39.053
X48.588
Y33.586
G2 Y33.268 Z-2.985 K0.318
G0 Z15
G17

(2D Contour1)
M8
G0 X6.032 Y53.34
Z15
Z5
G1 Z1.25 F300
Z0.067
G19 G2 Y53.022 Z-0.25 J-0.318
G1 Y52.705
G17 G3 X6.35 Y52.388 I0.318
G1 X82.55
G2 X90.488 Y44.45 J-7.938
G1 Y6.35
G2 X82.55 Y-1.587 I-7.938
G1 X6.35
G2 X-1.587 Y6.35 J7.937
G1 Y44.45
G2 X6.35 Y52.388 I7.937
G3 X6.668 Y52.705 J0.318
G1 Y53.022
G19 G3 Y53.34 Z0.067 K0.318
G0 Z5
X6.032
G1 Z1 F300
Z-0.183
G2 Y53.022 Z-0.5 J-0.318
G1 Y52.705
G17 G3 X6.35 Y52.388 I0.318
G1 X82.55
G2 X90.488 Y44.45 J-7.938
G1 Y6.35
G2 X82.55 Y-1.587 I-7.938
G1 X6.35
G2 X-1.587 Y6.35 J7.937
G1 Y44.45
G2 X6.35 Y52.388 I7.937
G3 X6.668 Y52.705 J0.318
G1 Y53.022
G19 G3 Y53.34 Z-0.183 K0.317
G0 Z5
X6.032
G1 Z0.75 F300
Z-0.433
G2 Y53.022 Z-0.75 J-0.318
G1 Y52.705
G17 G3 X6.35 Y52.388 I0.318
G1 X82.55
G2 X90.488 Y44.45 J-7.938
G1 Y6.35
G2 X82.55 Y-1.587 I-7.938
G1 X6.35
G2 X-1.587 Y6.35 J7.937
G1 Y44.45
G2 X6.35 Y52.388 I7.937
G3 X6.668 Y52.705 J0.318
G1 Y53.022
G19 G3 Y53.34 Z-0.433 K0.317
G0 Z5
X6.032
G1 Z0.5 F300
Z-0.683
G2 Y53.022 Z-1 J-0.318
G1 Y52.705
G17 G3 X6.35 Y52.388 I0.318
G1 X82.55
G2 X90.488 Y44.45 J-7.938
G1 Y6.35
G2 X82.55 Y-1.587 I-7.938
G1 X6.35
G2 X-1.587 Y6.35 J7.937
G1 Y44.45
G2 X6.35 Y52.388 I7.937
G3 X6.668 Y52.705 J0.318
G1 Y53.022
G19 G3 Y53.34 Z-0.683 K0.317
G0 Z5
X6.032
G1 Z0.25 F300
Z-0.933
G2 Y53.022 Z-1.25 J-0.318
G1 Y52.705
G17 G3 X6.35 Y52.388 I0.318
G1 X82.55
G2 X90.488 Y44.45 J-7.938
G1 Y6.35
G2 X82.55 Y-1.587 I-7.938
G1 X6.35
G2 X-1.587 Y6.35 J7.937
G1 Y44.45
G2 X6.35 Y52.388 I7.937
G3 X6.668 Y52.705 J0.318
G1 Y53.022
G19 G3 Y53.34 Z-0.933 K0.317
G0 Z5
X6.032
G1 Z0 F300
Z-1.183
G2 Y53.022 Z-1.5 J-0.318
G1 Y52.705
G17 G3 X6.35 Y52.388 I0.318
G1 X82.55
G2 X90.488 Y44.45 J-7.938
G1 Y6.35
G2 X82.55 Y-1.587 I-7.938
G1 X6.35
G2 X-1.587 Y6.35 J7.937
G1 Y44.45
G2 X6.35 Y52.388 I7.937
G3 X6.668 Y52.705 J0.318
G1 Y53.022
G19 G3 Y53.34 Z-1.183 K0.317
G0 Z5
X6.032
G1 Z-0.25 F300
Z-1.433
G2 Y53.022 Z-1.75 J-0.318
G1 Y52.705
G17 G3 X6.35 Y52.388 I0.318
G1 X82.55
G2 X90.488 Y44.45 J-7.938
G1 Y6.35
G2 X82.55 Y-1.587 I-7.938
G1 X6.35
G2 X-1.587 Y6.35 J7.937
G1 Y44.45
G2 X6.35 Y52.388 I7.937
G3 X6.668 Y52.705 J0.318
G1 Y53.022
G19 G3 Y53.34 Z-1.433 K0.317
G0 Z5
X6.032
G1 Z-0.5 F300
Z-1.683
G2 Y53.022 Z-2 J-0.318
G1 Y52.705
G17 G3 X6.35 Y52.388 I0.318
G1 X82.55
G2 X90.488 Y44.45 J-7.938
G1 Y6.35
G2 X82.55 Y-1.587 I-7.938
G1 X6.35
G2 X-1.587 Y6.35 J7.937
G1 Y44.45
G2 X6.35 Y52.388 I7.937
G3 X6.668 Y52.705 J0.318
G1 Y53.022
G19 G3 Y53.34 Z-1.683 K0.317
G0 Z5
X6.032
G1 Z-0.75 F300
Z-1.933
G2 Y53.022 Z-2.25 J-0.318
G1 Y52.705
G17 G3 X6.35 Y52.388 I0.318
G1 X82.55
G2 X90.488 Y44.45 J-7.938
G1 Y6.35
G2 X82.55 Y-1.587 I-7.938
G1 X6.35
G2 X-1.587 Y6.35 J7.937
G1 Y44.45
G2 X6.35 Y52.388 I7.937
G3 X6.668 Y52.705 J0.318
G1 Y53.022
G19 G3 Y53.34 Z-1.933 K0.317
G0 Z5
X6.032
G1 Z-1 F300
Z-2.183
G2 Y53.022 Z-2.5 J-0.318
G1 Y52.705
G17 G3 X6.35 Y52.388 I0.318
G1 X82.55
G2 X90.488 Y44.45 J-7.938
G1 Y6.35
G2 X82.55 Y-1.587 I-7.938
G1 X6.35
G2 X-1.587 Y6.35 J7.937
G1 Y44.45
G2 X6.35 Y52.388 I7.937
G3 X6.668 Y52.705 J0.318
G1 Y53.022
G19 G3 Y53.34 Z-2.183 K0.318
G0 Z5
X6.032
G1 Z-1.25 F300
Z-2.433
G2 Y53.022 Z-2.75 J-0.318
G1 Y52.705
G17 G3 X6.35 Y52.388 I0.318
G1 X17.408
Z-2.508
X23.758
Z-2.75
X71.835
Z-2.508
X78.185
Z-2.75
X82.55
G2 X90.488 Y44.45 J-7.938
G1 Y6.35
G2 X82.55 Y-1.587 I-7.938
G1 X79.652
Z-2.508
X73.302
Z-2.75
X21.053
Z-2.508
X14.703
Z-2.75
X6.35
G2 X-1.587 Y6.35 J7.937
G1 Y44.45
G2 X6.35 Y52.388 I7.937
G3 X6.668 Y52.705 J0.318
G1 Y53.022
G19 G3 Y53.34 Z-2.433 K0.318
G0 Z5
X6.032
G1 Z-1.5 F300
Z-2.683
G2 Y53.022 Z-3 J-0.318
G1 Y52.705
G17 G3 X6.35 Y52.388 I0.318
G1 X17.408
Z-2.508
X23.758
Z-3
X71.835
Z-2.508
X78.185
Z-3
X82.55
G2 X90.488 Y44.45 J-7.938
G1 Y6.35
G2 X82.55 Y-1.587 I-7.938
G1 X79.652
Z-2.508
X73.302
Z-3
X21.053
Z-2.508
X14.703
Z-3
X6.35
G2 X-1.587 Y6.35 J7.937
G1 Y44.45
G2 X6.35 Y52.388 I7.937
G3 X6.668 Y52.705 J0.318
G1 Y53.022
G19 G3 Y53.34 Z-2.683 K0.318
G0 Z5
X6.032
G1 Z-1.75 F300
Z-2.834
G2 Y53.022 Z-3.151 J-0.318
G1 Y52.705
G17 G3 X6.35 Y52.388 I0.318
G1 X17.408
Z-2.508
X23.758
Z-3.151
X71.835
Z-2.508
X78.185
Z-3.151
X82.55
G2 X90.488 Y44.45 J-7.938
G1 Y6.35
G2 X82.55 Y-1.587 I-7.938
G1 X79.652
Z-2.508
X73.302
Z-3.151
X21.053
Z-2.508
X14.703
Z-3.151
X6.35
G2 X-1.587 Y6.35 J7.937
G1 Y44.45
G2 X6.35 Y52.388 I7.937
G3 X6.668 Y52.705 J0.318
G1 Y53.022
G19 G3 Y53.34 Z-2.834 K0.318
G0 Z5
X6.032
G1 Z-1.901 F300
Z-2.985
G2 Y53.022 Z-3.302 J-0.318
G1 Y52.705
G17 G3 X6.35 Y52.388 I0.318
G1 X17.408
Z-2.508
X23.758
Z-3.302
X71.835
Z-2.508
X78.185
Z-3.302
X82.55
G2 X90.488 Y44.45 J-7.938
G1 Y6.35
G2 X82.55 Y-1.587 I-7.938
G1 X79.652
Z-2.508
X73.302
Z-3.302
X21.053
Z-2.508
X14.703
Z-3.302
X6.35
G2 X-1.587 Y6.35 J7.937
G1 Y44.45
G2 X6.35 Y52.388 I7.937
G3 X6.668 Y52.705 J0.318
G1 Y53.022
G19 G3 Y53.34 Z-2.985 K0.318
G0 Z15
G17
M9
M30
%
