%
(1001)
(Contour)
(T1  D=3.175 CR=0 - ZMIN=-5.08 - flat end mill)
G90 G94
G17
G21

(Bore1)
M9
T1 M6
S10000 M3
G54
M9
G0 X130.81 Y2.54
Z15
Z1.683
G1 Z0 F762
X130.754 Y2.596
G3 X130.697 Y2.54 J-0.056
X130.922 Z-0.5 I0.113
X130.827 Y2.651 Z-0.726 I-0.113
X130.793 Y2.429 Z-1.226 I-0.017 J-0.111
X130.827 Y2.651 Z-1.726 I0.017 J0.111
X130.76 Y2.439 Z-2.177 I-0.017 J-0.111
X130.86 Y2.641 Z-2.677 I0.05 J0.101
X130.718 Y2.604 Z-2.903 I-0.05 J-0.101
X130.902 Y2.476 Z-3.403 I0.092 J-0.064
X130.718 Y2.604 Z-3.903 I-0.092 J0.064
X130.879 Y2.451 Z-4.354 I0.092 J-0.064
X130.741 Y2.629 Z-4.854 I-0.069 J0.089
X130.711 Y2.486 Z-5.08 I0.069 J-0.089
X130.909 Y2.594 I0.099 J0.054
X130.711 Y2.486 I-0.099 J-0.054
X130.788 Y2.464 I0.049 J0.027
G1 X130.81 Y2.54
G0 Z5
Y50.8
Z1.683
G1 Z0 F762
X130.754 Y50.856
G3 X130.697 Y50.8 J-0.056
X130.922 Z-0.5 I0.113
X130.827 Y50.911 Z-0.726 I-0.113
X130.793 Y50.689 Z-1.226 I-0.017 J-0.111
X130.917 Y50.766 Z-1.451 I0.017 J0.111
X130.703 Y50.834 Z-1.951 I-0.107 J0.034
X130.76 Y50.699 Z-2.177 I0.107 J-0.034
X130.86 Y50.901 Z-2.677 I0.05 J0.101
X130.718 Y50.864 Z-2.903 I-0.05 J-0.101
X130.902 Y50.736 Z-3.403 I0.092 J-0.064
X130.718 Y50.864 Z-3.903 I-0.092 J0.064
X130.902 Y50.736 Z-4.403 I0.092 J-0.064
X130.718 Y50.864 Z-4.903 I-0.092 J0.064
X130.711 Y50.746 Z-5.08 I0.092 J-0.064
X130.909 Y50.854 I0.099 J0.054
X130.711 Y50.746 I-0.099 J-0.054
X130.788 Y50.724 I0.049 J0.027
G1 X130.81 Y50.8
G0 Z5
X2.54
Z1.683
G1 Z0 F762
X2.484 Y50.856
G3 X2.428 Y50.8 J-0.056
X2.653 Z-0.5 I0.112
X2.427 Z-1 I-0.113
X2.653 Z-1.5 I0.113
X2.427 Z-2 I-0.113
X2.653 Z-2.5 I0.113
X2.427 Z-3 I-0.113
X2.653 Z-3.5 I0.113
X2.427 Z-4 I-0.113
X2.653 Z-4.5 I0.113
X2.427 Z-5 I-0.113
X2.441 Y50.746 Z-5.08 I0.113
X2.639 Y50.854 I0.099 J0.054
X2.441 Y50.746 I-0.099 J-0.054
X2.518 Y50.724 I0.049 J0.027
G1 X2.54 Y50.8
G0 Z5
Y2.54
Z1.683
G1 Z0 F762
X2.484 Y2.596
G3 X2.428 Y2.54 J-0.056
X2.652 Z-0.5 I0.112
X2.428 Z-1 I-0.112
X2.652 Z-1.5 I0.112
X2.428 Z-2 I-0.112
X2.652 Z-2.5 I0.112
X2.428 Z-3 I-0.112
X2.652 Z-3.5 I0.112
X2.428 Z-4 I-0.112
X2.652 Z-4.5 I0.112
X2.428 Z-5 I-0.112
X2.441 Y2.486 Z-5.08 I0.112
X2.639 Y2.594 I0.099 J0.054
X2.441 Y2.486 I-0.099 J-0.054
X2.518 Y2.464 I0.049 J0.027
G1 X2.54 Y2.54
G0 Z15

(2D Contour2)
M8
X133.667 Y-2.54
Z15
Z5
G1 Z2 F762
Z-0.683
G19 G3 Y-2.223 Z-1 J0.317
G1 Y-1.905
G17 G3 X133.35 Y-1.587 I-0.317
G1 X0
G2 X-1.587 Y0 J1.587
G1 Y53.34
G2 X0 Y54.928 I1.587
G1 X133.35
G2 X134.938 Y53.34 J-1.588
G1 Y0
G2 X133.35 Y-1.587 I-1.587
G3 X133.033 Y-1.905 J-0.317
G1 Y-2.223
G19 G2 Y-2.54 Z-0.683 K0.317
G0 Z5
X133.667
G1 Z1 F762
Z-1.683
G3 Y-2.223 Z-2 J0.317
G1 Y-1.905
G17 G3 X133.35 Y-1.587 I-0.317
G1 X0
G2 X-1.587 Y0 J1.587
G1 Y53.34
G2 X0 Y54.928 I1.587
G1 X133.35
G2 X134.938 Y53.34 J-1.588
G1 Y0
G2 X133.35 Y-1.587 I-1.587
G3 X133.033 Y-1.905 J-0.317
G1 Y-2.223
G19 G2 Y-2.54 Z-1.683 K0.317
G0 Z5
X133.667
G1 Z0 F762
Z-2.683
G3 Y-2.223 Z-3 J0.317
G1 Y-1.905
G17 G3 X133.35 Y-1.587 I-0.317
G1 X0
G2 X-1.587 Y0 J1.587
G1 Y53.34
G2 X0 Y54.928 I1.587
G1 X133.35
G2 X134.938 Y53.34 J-1.588
G1 Y0
G2 X133.35 Y-1.587 I-1.587
G3 X133.033 Y-1.905 J-0.317
G1 Y-2.223
G19 G2 Y-2.54 Z-2.683 K0.318
G0 Z5
X133.667
G1 Z-1 F762
Z-3.683
G3 Y-2.223 Z-4 J0.317
G1 Y-1.905
G17 G3 X133.35 Y-1.587 I-0.317
G1 X0
G2 X-1.587 Y0 J1.587
G1 Y53.34
G2 X0 Y54.928 I1.587
G1 X133.35
G2 X134.938 Y53.34 J-1.588
G1 Y0
G2 X133.35 Y-1.587 I-1.587
G3 X133.033 Y-1.905 J-0.317
G1 Y-2.223
G19 G2 Y-2.54 Z-3.683 K0.318
G0 Z5
X133.667
G1 Z-2 F762
Z-4.223
G3 Y-2.223 Z-4.54 J0.317
G1 Y-1.905
G17 G3 X133.35 Y-1.587 I-0.317
G1 X102.851
Z-4.08
X97.175
Z-4.54
X36.175
Z-4.08
X30.5
Z-4.54
X0
G2 X-1.587 Y0 J1.587
G1 Y23.833
Z-4.08
Y29.507
Z-4.54
Y53.34
G2 X0 Y54.928 I1.587
G1 X30.5
Z-4.08
X36.175
Z-4.54
X97.175
Z-4.08
X102.851
Z-4.54
X133.35
G2 X134.938 Y53.34 J-1.588
G1 Y29.507
Z-4.08
Y23.833
Z-4.54
Y0
G2 X133.35 Y-1.587 I-1.587
G3 X133.033 Y-1.905 J-0.317
G1 Y-2.223
G19 G2 Y-2.54 Z-4.223 K0.318
G0 Z5
X133.667
G1 Z-2.54 F762
Z-4.763
G3 Y-2.223 Z-5.08 J0.317
G1 Y-1.905
G17 G3 X133.35 Y-1.587 I-0.317
G1 X102.851
Z-4.08
X97.175
Z-5.08
X36.175
Z-4.08
X30.5
Z-5.08
X0
G2 X-1.587 Y0 J1.587
G1 Y23.833
Z-4.08
Y29.507
Z-5.08
Y53.34
G2 X0 Y54.928 I1.587
G1 X30.5
Z-4.08
X36.175
Z-5.08
X97.175
Z-4.08
X102.851
Z-5.08
X133.35
G2 X134.938 Y53.34 J-1.588
G1 Y29.507
Z-4.08
Y23.833
Z-5.08
Y0
G2 X133.35 Y-1.587 I-1.587
G3 X133.033 Y-1.905 J-0.317
G1 Y-2.223
G19 G2 Y-2.54 Z-4.763 K0.318
G0 Z15
G17
M9
M30
%
