; G-Code generated by Simplify3D(R) Version 3.1.1
; Aug 22, 2017 at 6:10:05 PM
; Settings Summary
;   processName,Process1
;   applyToModels,arduino-mount-base
;   profileName,FlashForge Creator Pro(2) (modified)
;   profileVersion,2015-05-01 08:00:00
;   baseProfile,
;   printMaterial,PLA
;   printQuality,Medium
;   printExtruders,Left Extruder Only
;   extruderName,Right Extruder,Left Extruder
;   extruderToolheadNumber,0,1
;   extruderDiameter,0.4,0.4
;   extruderAutoWidth,0,0
;   extruderWidth,0.4,0.4
;   extrusionMultiplier,0.9,0.9
;   extruderUseRetract,1,1
;   extruderRetractionDistance,1,1
;   extruderExtraRestartDistance,0,0
;   extruderRetractionZLift,0,0
;   extruderRetractionSpeed,1200,1200
;   extruderUseCoasting,0,0
;   extruderCoastingDistance,0.2,0.2
;   extruderUseWipe,0,0
;   extruderWipeDistance,5,5
;   primaryExtruder,1
;   layerHeight,0.2
;   topSolidLayers,3
;   bottomSolidLayers,3
;   perimeterOutlines,2
;   printPerimetersInsideOut,1
;   startPointOption,2
;   startPointOriginX,0
;   startPointOriginY,0
;   startPointOriginZ,0
;   sequentialIslands,0
;   spiralVaseMode,0
;   firstLayerHeightPercentage,90
;   firstLayerWidthPercentage,100
;   firstLayerUnderspeed,0.5
;   useRaft,0
;   raftExtruder,1
;   raftLayers,3
;   raftOffset,3
;   raftSeparationDistance,0.14
;   raftInfill,85
;   disableRaftBaseLayers,0
;   useSkirt,1
;   skirtExtruder,1
;   skirtLayers,1
;   skirtOutlines,2
;   skirtOffset,4
;   usePrimePillar,0
;   primePillarExtruder,999
;   primePillarWidth,12
;   primePillarLocation,7
;   primePillarSpeedMultiplier,1
;   useOozeShield,0
;   oozeShieldExtruder,999
;   oozeShieldOffset,2
;   oozeShieldOutlines,1
;   oozeShieldSidewallShape,1
;   oozeShieldSidewallAngle,30
;   oozeShieldSpeedMultiplier,1
;   infillExtruder,1
;   internalInfillPattern,Rectilinear
;   externalInfillPattern,Rectilinear
;   infillPercentage,20
;   outlineOverlapPercentage,20
;   infillExtrusionWidthPercentage,100
;   minInfillLength,5
;   infillLayerInterval,1
;   infillAngles,45,-45
;   overlapInfillAngles,0
;   generateSupport,1
;   supportExtruder,1
;   supportInfillPercentage,30
;   supportExtraInflation,0
;   denseSupportLayers,0
;   denseSupportInfillPercentage,70
;   supportLayerInterval,1
;   supportHorizontalPartOffset,0.3
;   supportUpperSeparationLayers,1
;   supportLowerSeparationLayers,1
;   supportType,0
;   supportGridSpacing,4
;   maxOverhangAngle,45
;   supportAngles,0
;   temperatureName,Right Extruder,Left Extruder,Heated Build Platform
;   temperatureNumber,0,1,0
;   temperatureSetpointCount,1,1,1
;   temperatureSetpointLayers,1,1,1
;   temperatureSetpointTemperatures,0,230,60
;   temperatureStabilizeAtStartup,0,0,0
;   temperatureHeatedBed,0,0,1
;   temperatureRelayBetweenLayers,0,0,0
;   temperatureRelayBetweenLoops,0,0,0
;   fanLayers,1,2
;   fanSpeeds,0,100
;   blipFanToFullPower,0
;   adjustSpeedForCooling,1
;   minSpeedLayerTime,15
;   minCoolingSpeedSlowdown,20
;   increaseFanForCooling,0
;   minFanLayerTime,45
;   maxCoolingFanSpeed,100
;   increaseFanForBridging,1
;   bridgingFanSpeed,100
;   use5D,1
;   relativeEdistances,1
;   allowEaxisZeroing,0
;   independentExtruderAxes,1
;   includeM10123,0
;   stickySupport,1
;   applyToolheadOffsets,0
;   gcodeXoffset,0
;   gcodeYoffset,0
;   gcodeZoffset,0
;   overrideMachineDefinition,1
;   machineTypeOverride,0
;   strokeXoverride,225
;   strokeYoverride,145
;   strokeZoverride,150
;   originOffsetXoverride,112.5
;   originOffsetYoverride,72.5
;   originOffsetZoverride,0
;   homeXdirOverride,1
;   homeYdirOverride,1
;   homeZdirOverride,-1
;   flipXoverride,1
;   flipYoverride,-1
;   flipZoverride,1
;   toolheadOffsets,0,0|34,0|0,0|0,0|0,0|0,0
;   overrideFirmwareConfiguration,1
;   firmwareTypeOverride,MakerBot/Sailfish Firmware
;   GPXconfigOverride,r1d
;   baudRateOverride,115200
;   overridePrinterModels,1
;   printerModelsOverride,FlashForge_CreatorPro.stl
;   startingGcode,; **** Replicator 1 dual start.gcode ****,M73 P0 ; enable build progress,G162 X Y F3000 ; home XY maximum,G161 Z F1200 ; home Z minimum,G92 Z-5 ; set Z to -5,G1 Z0 ; move Z to 0,G161 Z F100 ; home Z slowly,M132 X Y Z A B ; recall home offsets,M135 T0 ; load right extruder offsets,G1 X150 Y-70 Z30 F9000 ; move to wait position right hand side of the table,G130 X20 Y20 Z20 A20 B20 ; lower stepper Vrefs while heating,M126 S[fan_speed_pwm],M140 S[bed0_temperature] T0,M134 T0 ; stabilize bed temperature,M104 S[extruder1_temperature] T1,M133 T1 ; stabilize left extruder temperature,G130 X127 Y127 Z40 A127 B127 ; default stepper Vrefs,G92 A0 B0 ; zero extruders,G1 Z0.4 ; position nozzle,M135 T1 ; left tool,G1 X110 Y-70 E30 F300 ; move nozzle,G1 X120 Y-70 Z0.15 F1200 ; slow wipe,G1 X110 Y-70 Z0.5 F1200 ; lift,G92 A0 B0 ; zero extruders,M73 P1 ;@body (notify GPX body has started),; **** end of start.gcode ****
;   layerChangeGcode,
;   retractionGcode,
;   toolChangeGcode,
;   endingGcode,; **** Replicator 1 dual end.gcode ****,M73 P100 ; end build progress,G1 Z150 F1000 ; send Z axis to bottom of machine,M140 S0 T0 ; cool down HBP,M104 S0 T0 ; cool down right extruder,M104 S0 T1 ; cool down left extruder,M127 ; stop blower fan,G162 X Y F3000 ; home XY maximum,M18 ; disable stepper,M72 P1 ; play Ta-Da song,; **** end of end.gcode ****
;   exportFileFormat,x3g
;   celebration,0
;   celebrationSong,Random Song
;   postProcessing,
;   defaultSpeed,3600
;   outlineUnderspeed,0.5
;   solidInfillUnderspeed,0.8
;   supportUnderspeed,0.8
;   rapidXYspeed,4200
;   rapidZspeed,1200
;   minBridgingArea,50
;   bridgingExtraInflation,0
;   bridgingExtrusionMultiplier,1
;   bridgingSpeedMultiplier,0.8
;   filamentDiameter,1.75
;   filamentPricePerKg,46
;   filamentDensity,1.25
;   useMinPrintHeight,0
;   minPrintHeight,0
;   useMaxPrintHeight,0
;   maxPrintHeight,0
;   useDiaphragm,0
;   diaphragmLayerInterval,20
;   robustSlicing,1
;   mergeAllIntoSolid,0
;   onlyRetractWhenCrossingOutline,1
;   retractBetweenLayers,1
;   useRetractionMinTravel,0
;   retractionMinTravel,3
;   retractWhileWiping,0
;   onlyWipeOutlines,1
;   avoidCrossingOutline,0
;   maxMovementDetourFactor,3
;   toolChangeRetractionDistance,12
;   toolChangeExtraRestartDistance,-0.5
;   toolChangeRetractionSpeed,600
;   allowThinWallGapFill,1
;   thinWallAllowedOverlapPercentage,10
;   horizontalSizeCompensation,0
G90
M83
; **** Replicator 1 dual start.gcode ****
M73 P0 ; enable build progress
G162 X Y F3000 ; home XY maximum
G161 Z F1200 ; home Z minimum
G92 Z-5 ; set Z to -5
G1 Z0 ; move Z to 0
G161 Z F100 ; home Z slowly
M132 X Y Z A B ; recall home offsets
M135 T0 ; load right extruder offsets
G1 X150 Y-70 Z30 F9000 ; move to wait position right hand side of the table
G130 X20 Y20 Z20 A20 B20 ; lower stepper Vrefs while heating
M127
M140 S60 T0
M134 T0 ; stabilize bed temperature
M104 S230 T1
M133 T1 ; stabilize left extruder temperature
G130 X127 Y127 Z40 A127 B127 ; default stepper Vrefs
G92 A0 B0 ; zero extruders
G1 Z0.4 ; position nozzle
M135 T1 ; left tool
G1 X110 Y-70 E30 F300 ; move nozzle
G1 X120 Y-70 Z0.15 F1200 ; slow wipe
G1 X110 Y-70 Z0.5 F1200 ; lift
G92 A0 B0 ; zero extruders
M73 P1 ;@body (notify GPX body has started)
; **** end of start.gcode ****
G1 E-1.0000 F1200
G1 Z0.180 F1200
; layer 1, Z = 0.18
M135 T1
; tool H0.200 W0.400
; skirt
G1 X-68.451 Y-31.270 F4200
G1 E1.0000 F360
G1 X68.451 Y-31.270 E4.0981 F1800
G1 X68.672 Y-31.179 E0.0071
G1 X71.184 Y-28.667 E0.1063
G1 X71.275 Y-28.446 E0.0071
G1 X71.275 Y28.446 E1.7030
G1 X71.184 Y28.667 E0.0071
G1 X68.672 Y31.179 E0.1063
G1 X68.451 Y31.270 E0.0071
G1 X-68.451 Y31.270 E4.0981
G1 X-68.672 Y31.179 E0.0071
G1 X-71.184 Y28.667 E0.1063
G1 X-71.275 Y28.446 E0.0071
G1 X-71.275 Y-28.446 E1.7030
G1 X-71.184 Y-28.667 E0.0071
G1 X-68.672 Y-31.179 E0.1063
G1 X-68.451 Y-31.270 E0.0071
G1 X-68.372 Y-30.870 F4200
G1 X68.372 Y-30.870 E4.0933 F1800
G1 X68.445 Y-30.840 E0.0024
G1 X70.845 Y-28.440 E0.1016
G1 X70.875 Y-28.367 E0.0024
G1 X70.875 Y28.367 E1.6983
G1 X70.845 Y28.440 E0.0024
G1 X68.445 Y30.840 E0.1016
G1 X68.372 Y30.870 E0.0024
G1 X-68.372 Y30.870 E4.0933
G1 X-68.445 Y30.840 E0.0024
G1 X-70.845 Y28.440 E0.1016
G1 X-70.875 Y28.367 E0.0024
G1 X-70.875 Y-28.367 E1.6983
G1 X-70.845 Y-28.440 E0.0024
G1 X-68.445 Y-30.840 E0.1016
G1 X-68.372 Y-30.870 E0.0024
G1 E-1.0000 F1200
; inner perimeter
G1 X-66.075 Y-26.070 F4200
G1 E1.0000 F1200
G1 X66.075 Y-26.070 E3.9558 F1350
G1 X66.075 Y26.070 E1.5608
G1 X-66.075 Y26.070 E3.9558
G1 X-66.075 Y-26.070 E1.5608
; outer perimeter
G1 X-66.475 Y-26.470 F4200
G1 X66.475 Y-26.470 E3.9797 F900
G1 X66.475 Y26.470 E1.5847
G1 X-66.475 Y26.470 E3.9797
G1 X-66.475 Y-26.470 E1.5847
; inner perimeter
G1 X-44.058 Y-1.207 F4200
G1 X-44.787 Y-0.534 E0.0297 F1350
G1 X-45.358 Y0.278 E0.0297
G1 X-45.743 Y1.192 E0.0297
G1 X-45.927 Y2.167 E0.0297
G1 X-45.901 Y3.158 E0.0297
G1 X-45.666 Y4.122 E0.0297
G1 X-45.233 Y5.014 E0.0297
G1 X-44.620 Y5.795 E0.0297
G1 X-44.123 Y6.208 E0.0193
G1 X-44.123 Y7.659 E0.0435
G1 X-44.031 Y8.358 E0.0211
G1 X-43.746 Y9.047 E0.0223
G1 X-43.292 Y9.637 E0.0223
G1 X-42.702 Y10.091 E0.0223
G1 X-42.013 Y10.376 E0.0223
G1 X-41.275 Y10.473 E0.0223
G1 X-40.537 Y10.376 E0.0223
G1 X-39.848 Y10.091 E0.0223
G1 X-39.258 Y9.637 E0.0223
G1 X-38.804 Y9.047 E0.0223
G1 X-38.519 Y8.358 E0.0223
G1 X-38.427 Y7.659 E0.0211
G1 X-38.427 Y6.208 E0.0435
G1 X-37.930 Y5.795 E0.0193
G1 X-37.317 Y5.014 E0.0297
G1 X-36.884 Y4.122 E0.0297
G1 X-36.649 Y3.158 E0.0297
G1 X-36.623 Y2.167 E0.0297
G1 X-36.807 Y1.192 E0.0297
G1 X-37.192 Y0.278 E0.0297
G1 X-37.763 Y-0.534 E0.0297
G1 X-38.492 Y-1.207 E0.0297
G1 X-39.347 Y-1.710 E0.0297
G1 X-40.289 Y-2.022 E0.0297
G1 X-41.275 Y-2.127 E0.0297
G1 X-42.261 Y-2.022 E0.0297
G1 X-43.203 Y-1.710 E0.0297
G1 X-44.058 Y-1.207 E0.0297
; outer perimeter
G1 X-43.818 Y-0.884 F4200
G1 X-44.484 Y-0.269 E0.0271 F900
G1 X-45.006 Y0.473 E0.0271
G1 X-45.358 Y1.308 E0.0271
G1 X-45.526 Y2.199 E0.0271
G1 X-45.503 Y3.105 E0.0271
G1 X-45.288 Y3.986 E0.0271
G1 X-44.891 Y4.801 E0.0271
G1 X-44.332 Y5.514 E0.0271
G1 X-43.723 Y6.020 E0.0237
G1 X-43.723 Y7.633 E0.0483
G1 X-43.641 Y8.254 E0.0187
G1 X-43.396 Y8.845 E0.0191
G1 X-43.007 Y9.352 E0.0191
G1 X-42.500 Y9.741 E0.0191
G1 X-41.909 Y9.986 E0.0191
G1 X-41.275 Y10.070 E0.0191
G1 X-40.641 Y9.986 E0.0191
G1 X-40.050 Y9.741 E0.0191
G1 X-39.543 Y9.352 E0.0191
G1 X-39.154 Y8.845 E0.0191
G1 X-38.909 Y8.254 E0.0191
G1 X-38.827 Y7.633 E0.0187
G1 X-38.827 Y6.020 E0.0483
G1 X-38.218 Y5.514 E0.0237
G1 X-37.659 Y4.801 E0.0271
G1 X-37.262 Y3.986 E0.0271
G1 X-37.047 Y3.105 E0.0271
G1 X-37.024 Y2.199 E0.0271
G1 X-37.192 Y1.308 E0.0271
G1 X-37.544 Y0.473 E0.0271
G1 X-38.066 Y-0.269 E0.0271
G1 X-38.732 Y-0.884 E0.0271
G1 X-39.513 Y-1.344 E0.0271
G1 X-40.374 Y-1.629 E0.0271
G1 X-41.275 Y-1.725 E0.0271
G1 X-42.176 Y-1.629 E0.0271
G1 X-43.037 Y-1.344 E0.0271
G1 X-43.818 Y-0.884 E0.0271
G1 E-1.0000 F1200
; inner perimeter
G1 X36.807 Y1.192 F4200
G1 E1.0000 F1200
G1 X36.623 Y2.167 E0.0297 F1350
G1 X36.649 Y3.158 E0.0297
G1 X36.884 Y4.122 E0.0297
G1 X37.317 Y5.014 E0.0297
G1 X37.930 Y5.795 E0.0297
G1 X38.427 Y6.208 E0.0193
G1 X38.427 Y7.659 E0.0435
G1 X38.519 Y8.358 E0.0211
G1 X38.804 Y9.047 E0.0223
G1 X39.258 Y9.637 E0.0223
G1 X39.848 Y10.091 E0.0223
G1 X40.537 Y10.376 E0.0223
G1 X41.275 Y10.473 E0.0223
G1 X42.013 Y10.376 E0.0223
G1 X42.702 Y10.091 E0.0223
G1 X43.292 Y9.637 E0.0223
G1 X43.746 Y9.047 E0.0223
G1 X44.031 Y8.358 E0.0223
G1 X44.123 Y7.659 E0.0211
G1 X44.123 Y6.208 E0.0435
G1 X44.620 Y5.795 E0.0193
G1 X45.233 Y5.014 E0.0297
G1 X45.666 Y4.122 E0.0297
G1 X45.901 Y3.158 E0.0297
G1 X45.927 Y2.167 E0.0297
G1 X45.743 Y1.192 E0.0297
G1 X45.358 Y0.278 E0.0297
G1 X44.787 Y-0.534 E0.0297
G1 X44.058 Y-1.207 E0.0297
G1 X43.203 Y-1.710 E0.0297
G1 X42.261 Y-2.022 E0.0297
G1 X41.275 Y-2.127 E0.0297
G1 X40.289 Y-2.022 E0.0297
G1 X39.347 Y-1.710 E0.0297
G1 X38.492 Y-1.207 E0.0297
G1 X37.763 Y-0.534 E0.0297
G1 X37.193 Y0.278 E0.0297
G1 X36.807 Y1.192 E0.0297
; outer perimeter
G1 X37.192 Y1.308 F4200
G1 X37.024 Y2.199 E0.0271 F900
G1 X37.047 Y3.105 E0.0271
G1 X37.262 Y3.986 E0.0271
G1 X37.659 Y4.801 E0.0271
G1 X38.218 Y5.514 E0.0271
G1 X38.827 Y6.020 E0.0237
G1 X38.827 Y7.633 E0.0483
G1 X38.909 Y8.254 E0.0187
G1 X39.154 Y8.845 E0.0191
G1 X39.543 Y9.352 E0.0191
G1 X40.050 Y9.741 E0.0191
G1 X40.641 Y9.986 E0.0191
G1 X41.275 Y10.070 E0.0191
G1 X41.909 Y9.986 E0.0191
G1 X42.500 Y9.741 E0.0191
G1 X43.007 Y9.352 E0.0191
G1 X43.396 Y8.845 E0.0191
G1 X43.641 Y8.254 E0.0191
G1 X43.723 Y7.633 E0.0187
G1 X43.723 Y6.020 E0.0483
G1 X44.332 Y5.514 E0.0237
G1 X44.891 Y4.801 E0.0271
G1 X45.288 Y3.986 E0.0271
G1 X45.503 Y3.105 E0.0271
G1 X45.526 Y2.199 E0.0271
G1 X45.358 Y1.308 E0.0271
G1 X45.006 Y0.473 E0.0271
G1 X44.484 Y-0.269 E0.0271
G1 X43.818 Y-0.884 E0.0271
G1 X43.037 Y-1.344 E0.0271
G1 X42.176 Y-1.629 E0.0271
G1 X41.275 Y-1.725 E0.0271
G1 X40.374 Y-1.629 E0.0271
G1 X39.513 Y-1.344 E0.0271
G1 X38.732 Y-0.884 E0.0271
G1 X38.066 Y-0.269 E0.0271
G1 X37.544 Y0.473 E0.0271
G1 X37.192 Y1.308 E0.0271
G1 E-1.0000 F1200
; solid layer
G1 X46.113 Y1.424 F4200
G1 E1.0000 F1200
G1 X65.755 Y21.066 E0.8315 F1440
G1 X65.755 Y21.632 E0.0169
G1 X46.245 Y2.121 E0.8259
G1 X46.248 Y2.141 E0.0006
G1 X46.234 Y2.676 E0.0160
G1 X65.755 Y22.197 E0.8264
G1 X65.755 Y22.763 E0.0169
G1 X46.215 Y3.223 E0.8272
G1 X46.104 Y3.678 E0.0140
G1 X65.755 Y23.329 E0.8319
G1 X65.755 Y23.894 E0.0169
G1 X45.993 Y4.132 E0.8366
G1 X45.969 Y4.231 E0.0030
G1 X45.824 Y4.529 E0.0099
G1 X65.755 Y24.460 E0.8437
G1 X65.755 Y25.026 E0.0169
G1 X45.639 Y4.910 E0.8516
G1 X45.505 Y5.185 E0.0092
G1 X45.437 Y5.273 E0.0033
G1 X65.755 Y25.591 E0.8601
G1 X65.755 Y25.750 E0.0048
G1 X65.348 Y25.750 E0.0122
G1 X45.188 Y5.590 E0.8534
G1 X44.939 Y5.907 E0.0121
G1 X64.782 Y25.750 E0.8400
G1 X64.217 Y25.750 E0.0169
G1 X44.651 Y6.185 E0.8283
G1 X44.443 Y6.358 E0.0081
G1 X44.443 Y6.542 E0.0055
G1 X63.651 Y25.750 E0.8131
G1 X63.085 Y25.750 E0.0169
G1 X44.443 Y7.108 E0.7892
G1 X44.443 Y7.673 E0.0169
G1 X62.520 Y25.750 E0.7652
G1 X61.954 Y25.750 E0.0169
G1 X44.378 Y8.174 E0.7440
G1 X44.343 Y8.442 E0.0081
G1 X44.266 Y8.628 E0.0060
G1 X61.388 Y25.750 E0.7248
G1 X60.823 Y25.750 E0.0169
G1 X44.100 Y9.028 E0.7079
G1 X44.025 Y9.208 E0.0058
G1 X43.890 Y9.384 E0.0066
G1 X60.257 Y25.750 E0.6928
G1 X59.691 Y25.750 E0.0169
G1 X43.645 Y9.704 E0.6793
G1 X43.521 Y9.866 E0.0061
G1 X43.362 Y9.987 E0.0060
G1 X59.125 Y25.750 E0.6673
G1 X58.560 Y25.750 E0.0169
G1 X43.042 Y10.233 E0.6569
G1 X42.863 Y10.370 E0.0068
G1 X42.687 Y10.443 E0.0057
G1 X57.994 Y25.750 E0.6480
G1 X57.428 Y25.750 E0.0169
G1 X42.287 Y10.609 E0.6410
G1 X42.097 Y10.688 E0.0062
G1 X41.835 Y10.722 E0.0079
G1 X56.863 Y25.750 E0.6362
G1 X56.297 Y25.750 E0.0169
G1 X41.335 Y10.788 E0.6334
G1 X41.275 Y10.796 E0.0018
G1 X40.702 Y10.720 E0.0173
G1 X55.731 Y25.750 E0.6363
G1 X55.166 Y25.750 E0.0169
G1 X39.856 Y10.440 E0.6481
G1 E-1.0000 F1200
G1 X65.325 Y-25.750 F4200
G1 E1.0000 F1200
G1 X65.755 Y-25.320 E0.0182 F1440
G1 X65.755 Y-24.755 E0.0169
G1 X64.760 Y-25.750 E0.0421
G1 X64.194 Y-25.750 E0.0169
G1 X65.755 Y-24.189 E0.0661
G1 X65.755 Y-23.623 E0.0169
G1 X63.628 Y-25.750 E0.0900
G1 X63.063 Y-25.750 E0.0169
G1 X65.755 Y-23.058 E0.1140
G1 X65.755 Y-22.492 E0.0169
G1 X62.497 Y-25.750 E0.1379
G1 X61.931 Y-25.750 E0.0169
G1 X65.755 Y-21.926 E0.1619
G1 X65.755 Y-21.361 E0.0169
G1 X61.366 Y-25.750 E0.1858
G1 X60.800 Y-25.750 E0.0169
G1 X65.755 Y-20.795 E0.2098
G1 X65.755 Y-20.229 E0.0169
G1 X60.234 Y-25.750 E0.2337
G1 X59.669 Y-25.750 E0.0169
G1 X65.755 Y-19.664 E0.2577
G1 X65.755 Y-19.098 E0.0169
G1 X59.103 Y-25.750 E0.2816
G1 X58.537 Y-25.750 E0.0169
G1 X65.755 Y-18.532 E0.3056
G1 X65.755 Y-17.966 E0.0169
G1 X57.971 Y-25.750 E0.3295
G1 X57.406 Y-25.750 E0.0169
G1 X65.755 Y-17.401 E0.3534
G1 X65.755 Y-16.835 E0.0169
G1 X56.840 Y-25.750 E0.3774
G1 X56.274 Y-25.750 E0.0169
G1 X65.755 Y-16.269 E0.4013
G1 X65.755 Y-15.704 E0.0169
G1 X55.709 Y-25.750 E0.4253
G1 X55.143 Y-25.750 E0.0169
G1 X65.755 Y-15.138 E0.4492
G1 X65.755 Y-14.572 E0.0169
G1 X54.577 Y-25.750 E0.4732
G1 X54.012 Y-25.750 E0.0169
G1 X65.755 Y-14.007 E0.4971
