; G-Code generated by Simplify3D(R) Version 4.0.0
; Jan 2, 2018 at 9:24:56 PM
; Settings Summary
;   processName,Process1
;   applyToModels,ballscrew_worm_gear_v7_davidlvann_20180103-5569-igw2ib-0
;   profileName,FlashForge Creator Pro (modified)
;   profileVersion,2017-10-24 22:12:49
;   baseProfile,
;   printMaterial,PLA
;   printQuality,Medium
;   printExtruders,Left Extruder Only
;   extruderName,Right Extruder,Left Extruder
;   extruderToolheadNumber,0,1
;   extruderDiameter,0.4,0.4
;   extruderAutoWidth,0,0
;   extruderWidth,0.4,0.4
;   extrusionMultiplier,0.9,0.9
;   extruderUseRetract,1,1
;   extruderRetractionDistance,1,1
;   extruderExtraRestartDistance,0,0
;   extruderRetractionZLift,0,0
;   extruderRetractionSpeed,1200,1200
;   extruderUseCoasting,0,0
;   extruderCoastingDistance,0.2,0.2
;   extruderUseWipe,0,0
;   extruderWipeDistance,5,5
;   primaryExtruder,1
;   layerHeight,0.1
;   topSolidLayers,4
;   bottomSolidLayers,4
;   perimeterOutlines,2
;   printPerimetersInsideOut,1
;   startPointOption,2
;   startPointOriginX,0
;   startPointOriginY,0
;   sequentialIslands,0
;   spiralVaseMode,0
;   firstLayerHeightPercentage,90
;   firstLayerWidthPercentage,100
;   firstLayerUnderspeed,0.5
;   useRaft,0
;   raftExtruder,1
;   raftTopLayers,3
;   raftBaseLayers,2
;   raftOffset,3
;   raftSeparationDistance,0.14
;   raftTopInfill,100
;   aboveRaftSpeedMultiplier,0.3
;   useSkirt,1
;   skirtExtruder,1
;   skirtLayers,2
;   skirtOutlines,2
;   skirtOffset,4
;   usePrimePillar,0
;   primePillarExtruder,999
;   primePillarWidth,12
;   primePillarLocation,7
;   primePillarSpeedMultiplier,1
;   useOozeShield,0
;   oozeShieldExtruder,999
;   oozeShieldOffset,2
;   oozeShieldOutlines,1
;   oozeShieldSidewallShape,1
;   oozeShieldSidewallAngle,30
;   oozeShieldSpeedMultiplier,1
;   infillExtruder,1
;   internalInfillPattern,Rectilinear
;   externalInfillPattern,Rectilinear
;   infillPercentage,30
;   outlineOverlapPercentage,20
;   infillExtrusionWidthPercentage,100
;   minInfillLength,5
;   infillLayerInterval,1
;   internalInfillAngles,45,-45
;   overlapInternalInfillAngles,0
;   externalInfillAngles,45,-45
;   generateSupport,0
;   supportExtruder,1
;   supportInfillPercentage,40
;   supportExtraInflation,0
;   supportBaseLayers,0
;   denseSupportExtruder,1
;   denseSupportLayers,0
;   denseSupportInfillPercentage,70
;   supportLayerInterval,1
;   supportHorizontalPartOffset,0.3
;   supportUpperSeparationLayers,1
;   supportLowerSeparationLayers,1
;   supportType,0
;   supportGridSpacing,4
;   maxOverhangAngle,45
;   supportAngles,0
;   temperatureName,Right Extruder,Left Extruder,Heated Build Platform
;   temperatureNumber,0,1,0
;   temperatureSetpointCount,1,1,1
;   temperatureSetpointLayers,1,1,1
;   temperatureSetpointTemperatures,0,230,60
;   temperatureStabilizeAtStartup,0,0,0
;   temperatureHeatedBed,0,0,1
;   temperatureRelayBetweenLayers,0,0,0
;   temperatureRelayBetweenLoops,0,0,0
;   fanLayers,1,2
;   fanSpeeds,0,100
;   blipFanToFullPower,0
;   adjustSpeedForCooling,1
;   minSpeedLayerTime,15
;   minCoolingSpeedSlowdown,20
;   increaseFanForCooling,0
;   minFanLayerTime,45
;   maxCoolingFanSpeed,100
;   increaseFanForBridging,1
;   bridgingFanSpeed,100
;   use5D,1
;   relativeEdistances,1
;   allowEaxisZeroing,0
;   independentExtruderAxes,1
;   includeM10123,0
;   stickySupport,1
;   applyToolheadOffsets,0
;   gcodeXoffset,0
;   gcodeYoffset,0
;   gcodeZoffset,0
;   overrideMachineDefinition,1
;   machineTypeOverride,0
;   strokeXoverride,225
;   strokeYoverride,145
;   strokeZoverride,150
;   originOffsetXoverride,112.5
;   originOffsetYoverride,72.5
;   originOffsetZoverride,0
;   homeXdirOverride,1
;   homeYdirOverride,1
;   homeZdirOverride,-1
;   flipXoverride,1
;   flipYoverride,-1
;   flipZoverride,1
;   toolheadOffsets,0,0|34,0|0,0|0,0|0,0|0,0
;   overrideFirmwareConfiguration,1
;   firmwareTypeOverride,MakerBot/Sailfish Firmware
;   GPXconfigOverride,r1d
;   baudRateOverride,115200
;   overridePrinterModels,1
;   printerModelsOverride,FlashForge_CreatorPro.stl
;   startingGcode,; **** Replicator 1 dual start.gcode ****,M73 P0 ; enable build progress,G162 X Y F3000 ; home XY maximum,G161 Z F1200 ; home Z minimum,G92 Z-5 ; set Z to -5,G1 Z0 ; move Z to 0,G161 Z F100 ; home Z slowly,M132 X Y Z A B ; recall home offsets,M135 T0 ; load right extruder offsets,G1 X150 Y-70 Z30 F9000 ; move to wait position right hand side of the table,G130 X20 Y20 Z20 A20 B20 ; lower stepper Vrefs while heating,M126 S[fan_speed_pwm],M140 S[bed0_temperature] T0,M134 T0 ; stabilize bed temperature,M104 S[extruder1_temperature] T1,M133 T1 ; stabilize left extruder temperature,G130 X127 Y127 Z40 A127 B127 ; default stepper Vrefs,G92 A0 B0 ; zero extruders,G1 Z0.4 ; position nozzle,M135 T1 ; left tool,G1 X110 Y-70 E30 F300 ; move nozzle,G1 X120 Y-70 Z0.15 F1200 ; slow wipe,G1 X110 Y-70 Z0.5 F1200 ; lift,G92 A0 B0 ; zero extruders,M73 P1 ;@body (notify GPX body has started),; **** end of start.gcode ****
;   layerChangeGcode,
;   retractionGcode,
;   toolChangeGcode,
;   endingGcode,; **** Replicator 1 dual end.gcode ****,M73 P100 ; end build progress,G1 Z150 F1000 ; send Z axis to bottom of machine,M140 S0 T0 ; cool down HBP,M104 S0 T0 ; cool down right extruder,M104 S0 T1 ; cool down left extruder,M127 ; stop blower fan,G162 X Y F3000 ; home XY maximum,M18 ; disable stepper,M72 P1 ; play Ta-Da song,; **** end of end.gcode ****
;   exportFileFormat,x3g
;   celebration,0
;   celebrationSong,Random Song
;   postProcessing,
;   defaultSpeed,3600
;   outlineUnderspeed,0.5
;   solidInfillUnderspeed,0.8
;   supportUnderspeed,0.8
;   rapidXYspeed,4200
;   rapidZspeed,1200
;   minBridgingArea,50
;   bridgingExtraInflation,0
;   bridgingExtrusionMultiplier,1
;   bridgingSpeedMultiplier,0.8
;   useFixedBridgingAngle,0
;   fixedBridgingAngle,0
;   applyBridgingToPerimeters,0
;   filamentDiameters,1.75|1.75|1.75|1.75|1.75|1.75
;   filamentPricesPerKg,46|46|46|46|46|46
;   filamentDensities,1.25|1.25|1.25|1.25|1.25|1.25
;   useMinPrintHeight,0
;   minPrintHeight,0
;   useMaxPrintHeight,0
;   maxPrintHeight,0
;   useDiaphragm,0
;   diaphragmLayerInterval,20
;   robustSlicing,1
;   mergeAllIntoSolid,0
;   onlyRetractWhenCrossingOutline,1
;   retractBetweenLayers,1
;   useRetractionMinTravel,0
;   retractionMinTravel,3
;   retractWhileWiping,0
;   onlyWipeOutlines,1
;   avoidCrossingOutline,0
;   maxMovementDetourFactor,3
;   toolChangeRetractionDistance,12
;   toolChangeExtraRestartDistance,-0.5
;   toolChangeRetractionSpeed,600
;   externalThinWallType,0
;   internalThinWallType,2
;   thinWallAllowedOverlapPercentage,10
;   singleExtrusionMinLength,1
;   singleExtrusionMinPrintingWidthPercentage,50
;   singleExtrusionMaxPrintingWidthPercentage,200
;   singleExtrusionEndpointExtension,0.2
;   horizontalSizeCompensation,0
G90
M83
; **** Replicator 1 dual start.gcode ****
M73 P0 ; enable build progress
G162 X Y F3000 ; home XY maximum
G161 Z F1200 ; home Z minimum
G92 Z-5 ; set Z to -5
G1 Z0 ; move Z to 0
G161 Z F100 ; home Z slowly
M132 X Y Z A B ; recall home offsets
M135 T0 ; load right extruder offsets
G1 X150 Y-70 Z30 F9000 ; move to wait position right hand side of the table
G130 X20 Y20 Z20 A20 B20 ; lower stepper Vrefs while heating
M127
M140 S60 T0
M134 T0 ; stabilize bed temperature
M104 S230 T1
M133 T1 ; stabilize left extruder temperature
G130 X127 Y127 Z40 A127 B127 ; default stepper Vrefs
G92 A0 B0 ; zero extruders
G1 Z0.4 ; position nozzle
M135 T1 ; left tool
G1 X110 Y-70 E30 F300 ; move nozzle
G1 X120 Y-70 Z0.15 F1200 ; slow wipe
G1 X110 Y-70 Z0.5 F1200 ; lift
G92 A0 B0 ; zero extruders
M73 P1 ;@body (notify GPX body has started)
; **** end of start.gcode ****
G1 E-1.0000 F1200
G1 Z0.090 F1200
; process Process1
; layer 1, Z = 0.090
M135 T1
; tool H0.100 W0.400
; skirt
G1 X21.816 Y20.952 F4200
G1 E1.0000 F360
G1 X21.809 Y20.960 E0.0002 F1800
G1 X21.704 Y21.068 E0.0023
G1 X21.697 Y21.075 E0.0002
G1 X20.297 Y22.426 E0.0291
G1 X20.290 Y22.433 E0.0002
G1 X20.178 Y22.534 E0.0022
G1 X20.170 Y22.540 E0.0002
G1 X18.688 Y23.784 E0.0290
G1 X18.679 Y23.791 E0.0002
G1 X18.561 Y23.883 E0.0022
G1 X18.553 Y23.890 E0.0002
G1 X16.983 Y25.030 E0.0290
G1 X16.974 Y25.036 E0.0002
G1 X16.850 Y25.120 E0.0022
G1 X16.841 Y25.126 E0.0002
G1 X15.196 Y26.154 E0.0290
G1 X15.187 Y26.159 E0.0002
G1 X15.057 Y26.234 E0.0022
G1 X15.048 Y26.239 E0.0002
G1 X13.334 Y27.150 E0.0290
G1 X13.325 Y27.155 E0.0002
G1 X13.190 Y27.221 E0.0022
G1 X13.180 Y27.225 E0.0002
G1 X11.408 Y28.014 E0.0290
G1 X11.398 Y28.018 E0.0002
G1 X11.259 Y28.074 E0.0022
G1 X11.249 Y28.078 E0.0002
G1 X9.426 Y28.742 E0.0290
G1 X9.416 Y28.745 E0.0002
G1 X9.273 Y28.791 E0.0022
G1 X9.263 Y28.794 E0.0002
G1 X7.398 Y29.329 E0.0290
G1 X7.388 Y29.332 E0.0002
G1 X7.242 Y29.368 E0.0022
G1 X7.232 Y29.370 E0.0002
G1 X5.334 Y29.774 E0.0290
G1 X5.324 Y29.776 E0.0002
G1 X5.176 Y29.802 E0.0022
G1 X5.166 Y29.803 E0.0002
G1 X3.244 Y30.073 E0.0290
G1 X3.234 Y30.075 E0.0002
G1 X3.084 Y30.090 E0.0023
G1 X3.073 Y30.091 E0.0002
G1 X1.131 Y30.226 E0.0291
G1 X1.121 Y30.227 E0.0002
G1 X0.971 Y30.232 E0.0022
G1 X0.961 Y30.232 E0.0002
G1 X-0.973 Y30.232 E0.0289
G1 X-0.983 Y30.232 E0.0002
G1 X-1.134 Y30.227 E0.0023
G1 X-1.144 Y30.226 E0.0002
G1 X-3.084 Y30.090 E0.0291
G1 X-3.095 Y30.089 E0.0002
G1 X-3.244 Y30.073 E0.0022
G1 X-3.254 Y30.072 E0.0002
G1 X-5.171 Y29.802 E0.0290
G1 X-5.181 Y29.801 E0.0002
G1 X-5.329 Y29.775 E0.0022
G1 X-5.339 Y29.773 E0.0002
G1 X-7.237 Y29.369 E0.0290
G1 X-7.247 Y29.367 E0.0002
G1 X-7.393 Y29.331 E0.0022
G1 X-7.403 Y29.328 E0.0002
G1 X-9.268 Y28.793 E0.0290
G1 X-9.278 Y28.790 E0.0002
G1 X-9.421 Y28.743 E0.0022
G1 X-9.431 Y28.740 E0.0002
G1 X-11.254 Y28.076 E0.0290
G1 X-11.264 Y28.072 E0.0002
G1 X-11.403 Y28.016 E0.0022
G1 X-11.413 Y28.012 E0.0002
G1 X-13.185 Y27.223 E0.0290
G1 X-13.195 Y27.218 E0.0002
G1 X-13.330 Y27.153 E0.0022
G1 X-13.339 Y27.148 E0.0002
G1 X-15.052 Y26.237 E0.0290
G1 X-15.061 Y26.232 E0.0002
G1 X-15.191 Y26.157 E0.0022
G1 X-15.200 Y26.151 E0.0002
G1 X-16.845 Y25.123 E0.0290
G1 X-16.854 Y25.117 E0.0002
G1 X-16.979 Y25.033 E0.0022
G1 X-16.987 Y25.027 E0.0002
G1 X-18.557 Y23.886 E0.0290
G1 X-18.565 Y23.880 E0.0002
G1 X-18.684 Y23.788 E0.0022
G1 X-18.692 Y23.781 E0.0002
G1 X-20.178 Y22.534 E0.0290
G1 X-20.186 Y22.527 E0.0002
G1 X-20.297 Y22.427 E0.0022
G1 X-20.305 Y22.419 E0.0002
G1 X-21.701 Y21.071 E0.0290
G1 X-21.708 Y21.064 E0.0002
G1 X-21.812 Y20.956 E0.0022
G1 X-21.819 Y20.948 E0.0002
G1 X-23.118 Y19.506 E0.0290
G1 X-23.125 Y19.498 E0.0002
G1 X-23.221 Y19.383 E0.0022
G1 X-23.228 Y19.375 E0.0002
G1 X-24.422 Y17.846 E0.0290
G1 X-24.428 Y17.838 E0.0002
G1 X-24.517 Y17.716 E0.0022
G1 X-24.523 Y17.708 E0.0002
G1 X-25.607 Y16.099 E0.0290
G1 X-25.613 Y16.090 E0.0002
G1 X-25.693 Y15.963 E0.0022
G1 X-25.698 Y15.954 E0.0002
G1 X-26.668 Y14.274 E0.0290
G1 X-26.673 Y14.265 E0.0002
G1 X-26.744 Y14.132 E0.0022
G1 X-26.748 Y14.123 E0.0002
G1 X-27.599 Y12.379 E0.0290
G1 X-27.603 Y12.369 E0.0002
G1 X-27.664 Y12.232 E0.0022
G1 X-27.668 Y12.222 E0.0002
G1 X-28.395 Y10.423 E0.0290
G1 X-28.399 Y10.413 E0.0002
G1 X-28.450 Y10.272 E0.0022
G1 X-28.454 Y10.263 E0.0002
G1 X-29.053 Y8.417 E0.0290
G1 X-29.056 Y8.407 E0.0002
G1 X-29.097 Y8.263 E0.0022
G1 X-29.100 Y8.253 E0.0002
G1 X-29.569 Y6.370 E0.0290
G1 X-29.572 Y6.360 E0.0002
G1 X-29.603 Y6.213 E0.0022
G1 X-29.605 Y6.203 E0.0002
G1 X-29.942 Y4.292 E0.0290
G1 X-29.943 Y4.282 E0.0002
G1 X-29.964 Y4.133 E0.0022
G1 X-29.966 Y4.122 E0.0002
G1 X-30.168 Y2.193 E0.0290
G1 X-30.169 Y2.182 E0.0002
G1 X-30.180 Y2.033 E0.0022
G1 X-30.180 Y2.022 E0.0002
G1 X-30.248 Y0.083 E0.0290
G1 X-30.248 Y0.072 E0.0002
G1 X-30.248 Y-0.078 E0.0022
G1 X-30.248 Y-0.088 E0.0002
G1 X-30.180 Y-2.027 E0.0290
G1 X-30.179 Y-2.038 E0.0002
G1 X-30.169 Y-2.187 E0.0022
G1 X-30.168 Y-2.198 E0.0002
G1 X-29.965 Y-4.127 E0.0290
G1 X-29.964 Y-4.138 E0.0002
G1 X-29.943 Y-4.287 E0.0022
G1 X-29.941 Y-4.297 E0.0002
G1 X-29.604 Y-6.208 E0.0290
G1 X-29.602 Y-6.218 E0.0002
G1 X-29.571 Y-6.365 E0.0022
G1 X-29.568 Y-6.375 E0.0002
G1 X-29.099 Y-8.258 E0.0290
G1 X-29.096 Y-8.268 E0.0002
G1 X-29.055 Y-8.412 E0.0022
G1 X-29.052 Y-8.422 E0.0002
G1 X-28.452 Y-10.267 E0.0290
G1 X-28.448 Y-10.277 E0.0002
G1 X-28.397 Y-10.418 E0.0022
G1 X-28.393 Y-10.428 E0.0002
G1 X-27.667 Y-12.225 E0.0290
G1 X-27.663 Y-12.234 E0.0002
G1 X-27.602 Y-12.372 E0.0022
G1 X-27.598 Y-12.381 E0.0002
G1 X-26.746 Y-14.127 E0.0291
G1 X-26.741 Y-14.137 E0.0002
G1 X-26.671 Y-14.269 E0.0022
G1 X-26.666 Y-14.278 E0.0002
G1 X-25.695 Y-15.958 E0.0290
G1 X-25.690 Y-15.967 E0.0002
G1 X-25.610 Y-16.095 E0.0022
G1 X-25.605 Y-16.103 E0.0002
G1 X-24.520 Y-17.712 E0.0290
G1 X-24.514 Y-17.721 E0.0002
G1 X-24.425 Y-17.842 E0.0022
G1 X-24.419 Y-17.850 E0.0002
G1 X-23.224 Y-19.379 E0.0290
G1 X-23.218 Y-19.387 E0.0002
G1 X-23.121 Y-19.502 E0.0022
G1 X-23.114 Y-19.510 E0.0002
G1 X-21.816 Y-20.952 E0.0290
G1 X-21.809 Y-20.960 E0.0002
G1 X-21.705 Y-21.068 E0.0022
G1 X-21.697 Y-21.075 E0.0002
G1 X-20.301 Y-22.423 E0.0290
G1 X-20.294 Y-22.430 E0.0002
G1 X-20.182 Y-22.530 E0.0022
G1 X-20.174 Y-22.537 E0.0002
G1 X-18.688 Y-23.784 E0.0290
G1 X-18.680 Y-23.791 E0.0002
G1 X-18.561 Y-23.883 E0.0022
G1 X-18.553 Y-23.890 E0.0002
G1 X-16.983 Y-25.030 E0.0290
G1 X-16.974 Y-25.036 E0.0002
G1 X-16.850 Y-25.120 E0.0022
G1 X-16.841 Y-25.126 E0.0002
G1 X-15.196 Y-26.154 E0.0290
G1 X-15.187 Y-26.159 E0.0002
G1 X-15.057 Y-26.234 E0.0022
G1 X-15.048 Y-26.239 E0.0002
G1 X-13.334 Y-27.150 E0.0290
G1 X-13.325 Y-27.155 E0.0002
G1 X-13.190 Y-27.221 E0.0022
G1 X-13.180 Y-27.225 E0.0002
G1 X-11.408 Y-28.014 E0.0290
G1 X-11.398 Y-28.018 E0.0002
G1 X-11.259 Y-28.074 E0.0022
G1 X-11.249 Y-28.078 E0.0002
G1 X-9.426 Y-28.742 E0.0290
G1 X-9.416 Y-28.745 E0.0002
G1 X-9.273 Y-28.792 E0.0023
G1 X-9.263 Y-28.795 E0.0002
G1 X-7.393 Y-29.330 E0.0291
G1 X-7.383 Y-29.333 E0.0002
G1 X-7.238 Y-29.369 E0.0022
G1 X-7.227 Y-29.371 E0.0002
G1 X-5.334 Y-29.774 E0.0290
G1 X-5.324 Y-29.776 E0.0002
G1 X-5.176 Y-29.802 E0.0022
G1 X-5.166 Y-29.803 E0.0002
G1 X-3.244 Y-30.073 E0.0290
G1 X-3.234 Y-30.075 E0.0002
G1 X-3.085 Y-30.090 E0.0022
G1 X-3.074 Y-30.091 E0.0002
G1 X-1.139 Y-30.226 E0.0290
G1 X-1.128 Y-30.227 E0.0002
G1 X-0.978 Y-30.232 E0.0022
G1 X-0.968 Y-30.232 E0.0002
G1 X0.973 Y-30.232 E0.0290
G1 X0.983 Y-30.232 E0.0002
G1 X1.134 Y-30.227 E0.0023
G1 X1.144 Y-30.226 E0.0002
G1 X3.084 Y-30.090 E0.0291
G1 X3.095 Y-30.089 E0.0002
G1 X3.244 Y-30.073 E0.0022
G1 X3.254 Y-30.072 E0.0002
G1 X5.171 Y-29.802 E0.0290
G1 X5.181 Y-29.801 E0.0002
G1 X5.329 Y-29.775 E0.0022
G1 X5.339 Y-29.773 E0.0002
G1 X7.237 Y-29.369 E0.0290
G1 X7.247 Y-29.367 E0.0002
G1 X7.393 Y-29.331 E0.0022
G1 X7.403 Y-29.328 E0.0002
G1 X9.268 Y-28.793 E0.0290
G1 X9.278 Y-28.790 E0.0002
G1 X9.421 Y-28.743 E0.0022
G1 X9.431 Y-28.740 E0.0002
G1 X11.254 Y-28.076 E0.0290
G1 X11.264 Y-28.072 E0.0002
G1 X11.403 Y-28.016 E0.0022
G1 X11.413 Y-28.012 E0.0002
G1 X13.185 Y-27.223 E0.0290
G1 X13.195 Y-27.218 E0.0002
G1 X13.330 Y-27.153 E0.0022
G1 X13.339 Y-27.148 E0.0002
G1 X15.052 Y-26.237 E0.0290
G1 X15.061 Y-26.232 E0.0002
G1 X15.191 Y-26.157 E0.0022
G1 X15.200 Y-26.151 E0.0002
G1 X16.845 Y-25.123 E0.0290
G1 X16.854 Y-25.117 E0.0002
G1 X16.979 Y-25.033 E0.0022
G1 X16.987 Y-25.027 E0.0002
G1 X18.557 Y-23.886 E0.0290
G1 X18.565 Y-23.880 E0.0002
G1 X18.684 Y-23.788 E0.0022
G1 X18.692 Y-23.781 E0.0002
G1 X20.178 Y-22.534 E0.0290
G1 X20.186 Y-22.527 E0.0002
G1 X20.297 Y-22.427 E0.0022
G1 X20.305 Y-22.419 E0.0002
G1 X21.701 Y-21.071 E0.0290
G1 X21.708 Y-21.064 E0.0002
G1 X21.812 Y-20.956 E0.0022
G1 X21.819 Y-20.948 E0.0002
G1 X23.118 Y-19.506 E0.0290
G1 X23.125 Y-19.498 E0.0002
G1 X23.221 Y-19.383 E0.0022
G1 X23.228 Y-19.375 E0.0002
G1 X24.422 Y-17.846 E0.0290
G1 X24.428 Y-17.838 E0.0002
G1 X24.517 Y-17.716 E0.0022
G1 X24.523 Y-17.708 E0.0002
G1 X25.607 Y-16.099 E0.0290
G1 X25.613 Y-16.090 E0.0002
G1 X25.693 Y-15.963 E0.0022
G1 X25.698 Y-15.954 E0.0002
G1 X26.668 Y-14.274 E0.0290
G1 X26.673 Y-14.265 E0.0002
G1 X26.744 Y-14.132 E0.0022
G1 X26.748 Y-14.123 E0.0002
G1 X27.599 Y-12.379 E0.0290
G1 X27.603 Y-12.369 E0.0002
