; G-Code generated by Simplify3D(R) Version 4.0.0
; Jan 27, 2018 at 3:48:29 PM
; Settings Summary
;   processName,Process1
;   applyToModels,gear_mount
;   profileName,FlashForge Creator Pro (modified)
;   profileVersion,2017-10-24 22:12:49
;   baseProfile,
;   printMaterial,PLA
;   printQuality,Medium
;   printExtruders,Left Extruder Only
;   extruderName,Right Extruder,Left Extruder
;   extruderToolheadNumber,0,1
;   extruderDiameter,0.4,0.4
;   extruderAutoWidth,0,0
;   extruderWidth,0.4,0.4
;   extrusionMultiplier,0.9,0.9
;   extruderUseRetract,1,1
;   extruderRetractionDistance,1,1
;   extruderExtraRestartDistance,0,0
;   extruderRetractionZLift,0,0
;   extruderRetractionSpeed,1200,1200
;   extruderUseCoasting,0,0
;   extruderCoastingDistance,0.2,0.2
;   extruderUseWipe,0,0
;   extruderWipeDistance,5,5
;   primaryExtruder,1
;   layerHeight,0.1
;   topSolidLayers,4
;   bottomSolidLayers,4
;   perimeterOutlines,2
;   printPerimetersInsideOut,1
;   startPointOption,2
;   startPointOriginX,0
;   startPointOriginY,0
;   sequentialIslands,0
;   spiralVaseMode,0
;   firstLayerHeightPercentage,90
;   firstLayerWidthPercentage,100
;   firstLayerUnderspeed,0.5
;   useRaft,0
;   raftExtruder,1
;   raftTopLayers,3
;   raftBaseLayers,2
;   raftOffset,3
;   raftSeparationDistance,0.14
;   raftTopInfill,100
;   aboveRaftSpeedMultiplier,0.3
;   useSkirt,1
;   skirtExtruder,1
;   skirtLayers,2
;   skirtOutlines,2
;   skirtOffset,4
;   usePrimePillar,0
;   primePillarExtruder,999
;   primePillarWidth,12
;   primePillarLocation,7
;   primePillarSpeedMultiplier,1
;   useOozeShield,0
;   oozeShieldExtruder,999
;   oozeShieldOffset,2
;   oozeShieldOutlines,1
;   oozeShieldSidewallShape,1
;   oozeShieldSidewallAngle,30
;   oozeShieldSpeedMultiplier,1
;   infillExtruder,1
;   internalInfillPattern,Rectilinear
;   externalInfillPattern,Rectilinear
;   infillPercentage,50
;   outlineOverlapPercentage,20
;   infillExtrusionWidthPercentage,100
;   minInfillLength,5
;   infillLayerInterval,1
;   internalInfillAngles,45,-45
;   overlapInternalInfillAngles,0
;   externalInfillAngles,45,-45
;   generateSupport,1
;   supportExtruder,1
;   supportInfillPercentage,40
;   supportExtraInflation,0
;   supportBaseLayers,0
;   denseSupportExtruder,1
;   denseSupportLayers,0
;   denseSupportInfillPercentage,70
;   supportLayerInterval,1
;   supportHorizontalPartOffset,0.3
;   supportUpperSeparationLayers,1
;   supportLowerSeparationLayers,1
;   supportType,0
;   supportGridSpacing,4
;   maxOverhangAngle,45
;   supportAngles,0
;   temperatureName,Right Extruder,Left Extruder,Heated Build Platform
;   temperatureNumber,0,1,0
;   temperatureSetpointCount,1,1,1
;   temperatureSetpointLayers,1,1,1
;   temperatureSetpointTemperatures,0,230,60
;   temperatureStabilizeAtStartup,0,0,0
;   temperatureHeatedBed,0,0,1
;   temperatureRelayBetweenLayers,0,0,0
;   temperatureRelayBetweenLoops,0,0,0
;   fanLayers,1,2
;   fanSpeeds,0,100
;   blipFanToFullPower,0
;   adjustSpeedForCooling,1
;   minSpeedLayerTime,15
;   minCoolingSpeedSlowdown,20
;   increaseFanForCooling,0
;   minFanLayerTime,45
;   maxCoolingFanSpeed,100
;   increaseFanForBridging,1
;   bridgingFanSpeed,100
;   use5D,1
;   relativeEdistances,1
;   allowEaxisZeroing,0
;   independentExtruderAxes,1
;   includeM10123,0
;   stickySupport,1
;   applyToolheadOffsets,0
;   gcodeXoffset,0
;   gcodeYoffset,0
;   gcodeZoffset,0
;   overrideMachineDefinition,1
;   machineTypeOverride,0
;   strokeXoverride,225
;   strokeYoverride,145
;   strokeZoverride,150
;   originOffsetXoverride,112.5
;   originOffsetYoverride,72.5
;   originOffsetZoverride,0
;   homeXdirOverride,1
;   homeYdirOverride,1
;   homeZdirOverride,-1
;   flipXoverride,1
;   flipYoverride,-1
;   flipZoverride,1
;   toolheadOffsets,0,0|34,0|0,0|0,0|0,0|0,0
;   overrideFirmwareConfiguration,1
;   firmwareTypeOverride,MakerBot/Sailfish Firmware
;   GPXconfigOverride,r1d
;   baudRateOverride,115200
;   overridePrinterModels,1
;   printerModelsOverride,FlashForge_CreatorPro.stl
;   startingGcode,; **** Replicator 1 dual start.gcode ****,M73 P0 ; enable build progress,G162 X Y F3000 ; home XY maximum,G161 Z F1200 ; home Z minimum,G92 Z-5 ; set Z to -5,G1 Z0 ; move Z to 0,G161 Z F100 ; home Z slowly,M132 X Y Z A B ; recall home offsets,M135 T0 ; load right extruder offsets,G1 X150 Y-70 Z30 F9000 ; move to wait position right hand side of the table,G130 X20 Y20 Z20 A20 B20 ; lower stepper Vrefs while heating,M126 S[fan_speed_pwm],M140 S[bed0_temperature] T0,M134 T0 ; stabilize bed temperature,M104 S[extruder1_temperature] T1,M133 T1 ; stabilize left extruder temperature,G130 X127 Y127 Z40 A127 B127 ; default stepper Vrefs,G92 A0 B0 ; zero extruders,G1 Z0.4 ; position nozzle,M135 T1 ; left tool,G1 X110 Y-70 E30 F300 ; move nozzle,G1 X120 Y-70 Z0.15 F1200 ; slow wipe,G1 X110 Y-70 Z0.5 F1200 ; lift,G92 A0 B0 ; zero extruders,M73 P1 ;@body (notify GPX body has started),; **** end of start.gcode ****
;   layerChangeGcode,
;   retractionGcode,
;   toolChangeGcode,
;   endingGcode,; **** Replicator 1 dual end.gcode ****,M73 P100 ; end build progress,G1 Z150 F1000 ; send Z axis to bottom of machine,M140 S0 T0 ; cool down HBP,M104 S0 T0 ; cool down right extruder,M104 S0 T1 ; cool down left extruder,M127 ; stop blower fan,G162 X Y F3000 ; home XY maximum,M18 ; disable stepper,M72 P1 ; play Ta-Da song,; **** end of end.gcode ****
;   exportFileFormat,x3g
;   celebration,0
;   celebrationSong,Random Song
;   postProcessing,
;   defaultSpeed,3600
;   outlineUnderspeed,0.5
;   solidInfillUnderspeed,0.8
;   supportUnderspeed,0.8
;   rapidXYspeed,4200
;   rapidZspeed,1200
;   minBridgingArea,50
;   bridgingExtraInflation,0
;   bridgingExtrusionMultiplier,1
;   bridgingSpeedMultiplier,0.8
;   useFixedBridgingAngle,0
;   fixedBridgingAngle,0
;   applyBridgingToPerimeters,0
;   filamentDiameters,1.75|1.75|1.75|1.75|1.75|1.75
;   filamentPricesPerKg,46|46|46|46|46|46
;   filamentDensities,1.25|1.25|1.25|1.25|1.25|1.25
;   useMinPrintHeight,0
;   minPrintHeight,0
;   useMaxPrintHeight,0
;   maxPrintHeight,0
;   useDiaphragm,0
;   diaphragmLayerInterval,20
;   robustSlicing,1
;   mergeAllIntoSolid,0
;   onlyRetractWhenCrossingOutline,1
;   retractBetweenLayers,1
;   useRetractionMinTravel,0
;   retractionMinTravel,3
;   retractWhileWiping,0
;   onlyWipeOutlines,1
;   avoidCrossingOutline,0
;   maxMovementDetourFactor,3
;   toolChangeRetractionDistance,12
;   toolChangeExtraRestartDistance,-0.5
;   toolChangeRetractionSpeed,600
;   externalThinWallType,0
;   internalThinWallType,2
;   thinWallAllowedOverlapPercentage,10
;   singleExtrusionMinLength,1
;   singleExtrusionMinPrintingWidthPercentage,50
;   singleExtrusionMaxPrintingWidthPercentage,200
;   singleExtrusionEndpointExtension,0.2
;   horizontalSizeCompensation,0
G90
M83
; **** Replicator 1 dual start.gcode ****
M73 P0 ; enable build progress
G162 X Y F3000 ; home XY maximum
G161 Z F1200 ; home Z minimum
G92 Z-5 ; set Z to -5
G1 Z0 ; move Z to 0
G161 Z F100 ; home Z slowly
M132 X Y Z A B ; recall home offsets
M135 T0 ; load right extruder offsets
G1 X150 Y-70 Z30 F9000 ; move to wait position right hand side of the table
G130 X20 Y20 Z20 A20 B20 ; lower stepper Vrefs while heating
M127
M140 S60 T0
M134 T0 ; stabilize bed temperature
M104 S230 T1
M133 T1 ; stabilize left extruder temperature
G130 X127 Y127 Z40 A127 B127 ; default stepper Vrefs
G92 A0 B0 ; zero extruders
G1 Z0.4 ; position nozzle
M135 T1 ; left tool
G1 X110 Y-70 E30 F300 ; move nozzle
G1 X120 Y-70 Z0.15 F1200 ; slow wipe
G1 X110 Y-70 Z0.5 F1200 ; lift
G92 A0 B0 ; zero extruders
M73 P1 ;@body (notify GPX body has started)
; **** end of start.gcode ****
G1 E-1.0000 F1200
G1 Z0.090 F1200
; process Process1
; layer 1, Z = 0.090
M135 T1
; tool H0.100 W0.400
; skirt
G1 X33.175 Y33.526 F4200
G1 E1.0000 F360
G1 X33.084 Y33.747 E0.0036 F1800
G1 X30.572 Y36.259 E0.0532
G1 X30.351 Y36.350 E0.0036
G1 X-30.351 Y36.350 E0.9085
G1 X-30.572 Y36.259 E0.0036
G1 X-33.084 Y33.747 E0.0532
G1 X-33.175 Y33.526 E0.0036
G1 X-33.175 Y-33.526 E1.0036
G1 X-33.084 Y-33.747 E0.0036
G1 X-30.572 Y-36.259 E0.0532
G1 X-30.351 Y-36.350 E0.0036
G1 X30.351 Y-36.350 E0.9085
G1 X30.572 Y-36.259 E0.0036
G1 X33.084 Y-33.747 E0.0532
G1 X33.175 Y-33.526 E0.0036
G1 X33.175 Y33.526 E1.0036
G1 X32.775 Y33.447 F4200
G1 X32.745 Y33.520 E0.0012 F1800
G1 X30.345 Y35.920 E0.0508
G1 X30.272 Y35.950 E0.0012
G1 X-30.272 Y35.950 E0.9062
G1 X-30.345 Y35.920 E0.0012
G1 X-32.745 Y33.520 E0.0508
G1 X-32.775 Y33.447 E0.0012
G1 X-32.775 Y-33.447 E1.0012
G1 X-32.745 Y-33.520 E0.0012
G1 X-30.345 Y-35.920 E0.0508
G1 X-30.272 Y-35.950 E0.0012
G1 X30.272 Y-35.950 E0.9062
G1 X30.345 Y-35.920 E0.0012
G1 X32.745 Y-33.520 E0.0508
G1 X32.775 Y-33.447 E0.0012
G1 X32.775 Y33.447 E1.0012
G1 E-1.0000 F1200
; inner perimeter
G1 X27.975 Y31.150 F4200
G1 E1.0000 F1200
G1 X-27.975 Y31.150 E0.8374 F1350
G1 X-27.975 Y-31.150 E0.9324
G1 X27.975 Y-31.150 E0.8374
G1 X27.975 Y31.150 E0.9324
; outer perimeter
G1 X28.375 Y31.550 F4200
G1 X-28.375 Y31.550 E0.8494 F900
G1 X-28.375 Y-31.550 E0.9444
G1 X28.375 Y-31.550 E0.8494
G1 X28.375 Y31.550 E0.9444
; inner perimeter
G1 X23.263 Y28.347 F4200
G1 X23.562 Y27.830 E0.0089 F1350
G1 X23.746 Y27.260 E0.0090
G1 X23.805 Y26.702 E0.0084
G1 X23.805 Y11.398 E0.2290
G1 X23.746 Y10.837 E0.0085
G1 X23.562 Y10.269 E0.0089
G1 X23.263 Y9.753 E0.0089
G1 X22.864 Y9.310 E0.0089
G1 X22.382 Y8.959 E0.0089
G1 X21.837 Y8.716 E0.0089
G1 X21.253 Y8.592 E0.0089
G1 X20.657 Y8.592 E0.0089
G1 X20.073 Y8.716 E0.0089
G1 X19.528 Y8.959 E0.0089
G1 X19.046 Y9.310 E0.0089
G1 X18.647 Y9.753 E0.0089
G1 X18.350 Y10.267 E0.0089
G1 X18.164 Y10.839 E0.0090
G1 X18.105 Y11.398 E0.0084
G1 X18.105 Y26.702 E0.2290
G1 X18.164 Y27.263 E0.0085
G1 X18.348 Y27.831 E0.0089
G1 X18.647 Y28.347 E0.0089
G1 X19.046 Y28.790 E0.0089
G1 X19.528 Y29.141 E0.0089
G1 X20.073 Y29.384 E0.0089
G1 X20.657 Y29.508 E0.0089
G1 X21.253 Y29.508 E0.0089
G1 X21.837 Y29.384 E0.0089
G1 X22.382 Y29.141 E0.0089
G1 X22.864 Y28.790 E0.0089
G1 X23.263 Y28.347 E0.0089
; outer perimeter
G1 X22.938 Y28.111 F4200
G1 X23.194 Y27.667 E0.0077 F900
G1 X23.353 Y27.177 E0.0077
G1 X23.405 Y26.681 E0.0075
G1 X23.405 Y11.419 E0.2284
G1 X23.353 Y10.920 E0.0075
G1 X23.194 Y10.433 E0.0077
G1 X22.938 Y9.989 E0.0077
G1 X22.595 Y9.608 E0.0077
G1 X22.181 Y9.307 E0.0077
G1 X21.712 Y9.099 E0.0077
G1 X21.211 Y8.992 E0.0077
G1 X20.699 Y8.992 E0.0077
G1 X20.198 Y9.099 E0.0077
G1 X19.729 Y9.307 E0.0077
G1 X19.315 Y9.608 E0.0077
G1 X18.972 Y9.989 E0.0077
G1 X18.717 Y10.431 E0.0076
G1 X18.557 Y10.923 E0.0078
G1 X18.505 Y11.419 E0.0075
G1 X18.505 Y26.681 E0.2284
G1 X18.557 Y27.180 E0.0075
G1 X18.716 Y27.667 E0.0077
G1 X18.972 Y28.111 E0.0077
G1 X19.315 Y28.492 E0.0077
G1 X19.729 Y28.793 E0.0077
G1 X20.198 Y29.001 E0.0077
G1 X20.699 Y29.108 E0.0077
G1 X21.211 Y29.108 E0.0077
G1 X21.712 Y29.001 E0.0077
G1 X22.181 Y28.793 E0.0077
G1 X22.595 Y28.492 E0.0077
G1 X22.938 Y28.111 E0.0077
G1 E-1.0000 F1200
; inner perimeter
G1 X8.124 Y16.972 F4200
G1 E1.0000 F1200
G1 X8.475 Y16.490 E0.0089 F1350
G1 X8.718 Y15.945 E0.0089
G1 X8.842 Y15.362 E0.0089
G1 X8.843 Y14.766 E0.0089
G1 X8.719 Y14.182 E0.0089
G1 X8.477 Y13.637 E0.0089
G1 X8.127 Y13.154 E0.0089
G1 X7.684 Y12.755 E0.0089
G1 X7.168 Y12.456 E0.0089
G1 X6.601 Y12.271 E0.0089
G1 X6.037 Y12.211 E0.0085
G1 X-6.036 Y12.211 E0.1807
G1 X-6.596 Y12.270 E0.0084
G1 X-7.163 Y12.454 E0.0089
G1 X-7.682 Y12.753 E0.0090
G1 X-8.124 Y13.151 E0.0089
G1 X-8.475 Y13.633 E0.0089
G1 X-8.718 Y14.177 E0.0089
G1 X-8.842 Y14.761 E0.0089
G1 X-8.843 Y15.357 E0.0089
G1 X-8.719 Y15.941 E0.0089
G1 X-8.477 Y16.486 E0.0089
G1 X-8.127 Y16.969 E0.0089
G1 X-7.684 Y17.368 E0.0089
G1 X-7.168 Y17.667 E0.0089
G1 X-6.601 Y17.852 E0.0089
G1 X-6.037 Y17.911 E0.0085
G1 X6.036 Y17.911 E0.1807
G1 X6.596 Y17.853 E0.0084
G1 X7.163 Y17.669 E0.0089
G1 X7.680 Y17.371 E0.0089
G1 X8.124 Y16.972 E0.0089
; outer perimeter
G1 X7.825 Y16.703 F4200
G1 X8.126 Y16.289 E0.0077 F900
G1 X8.335 Y15.821 E0.0077
G1 X8.442 Y15.320 E0.0077
G1 X8.443 Y14.807 E0.0077
G1 X8.337 Y14.306 E0.0077
G1 X8.129 Y13.838 E0.0077
G1 X7.828 Y13.423 E0.0077
G1 X7.447 Y13.080 E0.0077
G1 X7.004 Y12.823 E0.0077
G1 X6.517 Y12.665 E0.0077
G1 X6.016 Y12.611 E0.0075
G1 X-6.015 Y12.611 E0.1801
G1 X-6.513 Y12.664 E0.0075
G1 X-7.000 Y12.822 E0.0077
G1 X-7.446 Y13.078 E0.0077
G1 X-7.825 Y13.420 E0.0076
G1 X-8.126 Y13.834 E0.0077
G1 X-8.335 Y14.302 E0.0077
G1 X-8.442 Y14.803 E0.0077
G1 X-8.443 Y15.316 E0.0077
G1 X-8.337 Y15.817 E0.0077
G1 X-8.129 Y16.285 E0.0077
G1 X-7.828 Y16.700 E0.0077
G1 X-7.447 Y17.043 E0.0077
G1 X-7.004 Y17.300 E0.0077
G1 X-6.517 Y17.458 E0.0077
G1 X-6.016 Y17.511 E0.0075
G1 X6.015 Y17.511 E0.1801
G1 X6.513 Y17.459 E0.0075
G1 X7.000 Y17.301 E0.0077
G1 X7.444 Y17.045 E0.0077
G1 X7.825 Y16.703 E0.0077
G1 E-1.0000 F1200
; inner perimeter
G1 X-18.105 Y11.495 F4200
G1 E1.0000 F1200
G1 X-18.164 Y10.933 E0.0085 F1350
G1 X-18.348 Y10.366 E0.0089
G1 X-18.647 Y9.849 E0.0089
G1 X-19.046 Y9.406 E0.0089
G1 X-19.528 Y9.055 E0.0089
G1 X-20.073 Y8.812 E0.0089
G1 X-20.657 Y8.688 E0.0089
G1 X-21.253 Y8.688 E0.0089
G1 X-21.837 Y8.812 E0.0089
G1 X-22.382 Y9.055 E0.0089
G1 X-22.864 Y9.406 E0.0089
G1 X-23.261 Y9.847 E0.0089
G1 X-23.562 Y10.366 E0.0090
G1 X-23.746 Y10.936 E0.0090
G1 X-23.805 Y11.495 E0.0084
G1 X-23.805 Y26.605 E0.2262
G1 X-23.746 Y27.167 E0.0085
G1 X-23.562 Y27.734 E0.0089
G1 X-23.263 Y28.251 E0.0089
G1 X-22.864 Y28.694 E0.0089
G1 X-22.382 Y29.045 E0.0089
G1 X-21.837 Y29.287 E0.0089
G1 X-21.253 Y29.412 E0.0089
G1 X-20.657 Y29.412 E0.0089
G1 X-20.073 Y29.287 E0.0089
G1 X-19.528 Y29.045 E0.0089
G1 X-19.046 Y28.694 E0.0089
G1 X-18.647 Y28.251 E0.0089
G1 X-18.348 Y27.734 E0.0089
G1 X-18.164 Y27.164 E0.0090
G1 X-18.105 Y26.605 E0.0084
G1 X-18.105 Y11.495 E0.2262
; outer perimeter
G1 X-18.505 Y11.516 F4200
G1 X-18.557 Y11.017 E0.0075 F900
G1 X-18.716 Y10.529 E0.0077
G1 X-18.972 Y10.085 E0.0077
G1 X-19.315 Y9.705 E0.0077
G1 X-19.729 Y9.403 E0.0077
G1 X-20.198 Y9.195 E0.0077
G1 X-20.699 Y9.088 E0.0077
G1 X-21.211 Y9.088 E0.0077
G1 X-21.712 Y9.195 E0.0077
G1 X-22.181 Y9.403 E0.0077
G1 X-22.595 Y9.705 E0.0077
G1 X-22.936 Y10.083 E0.0076
G1 X-23.194 Y10.529 E0.0077
G1 X-23.353 Y11.019 E0.0077
G1 X-23.405 Y11.516 E0.0075
G1 X-23.405 Y26.584 E0.2255
G1 X-23.353 Y27.083 E0.0075
G1 X-23.194 Y27.571 E0.0077
G1 X-22.938 Y28.015 E0.0077
G1 X-22.595 Y28.395 E0.0077
G1 X-22.181 Y28.697 E0.0077
G1 X-21.712 Y28.905 E0.0077
G1 X-21.211 Y29.012 E0.0077
G1 X-20.699 Y29.012 E0.0077
G1 X-20.198 Y28.905 E0.0077
G1 X-19.729 Y28.697 E0.0077
G1 X-19.315 Y28.395 E0.0077
G1 X-18.972 Y28.015 E0.0077
G1 X-18.716 Y27.571 E0.0077
G1 X-18.557 Y27.081 E0.0077
G1 X-18.505 Y26.584 E0.0075
G1 X-18.505 Y11.516 E0.2255
; inner perimeter
G1 X-20.657 Y-8.583 F4200
G1 X-20.073 Y-8.707 E0.0089 F1350
G1 X-19.528 Y-8.950 E0.0089
G1 X-19.046 Y-9.300 E0.0089
G1 X-18.647 Y-9.743 E0.0089
G1 X-18.348 Y-10.260 E0.0089
G1 X-18.164 Y-10.830 E0.0090
G1 X-18.105 Y-11.389 E0.0084
G1 X-18.105 Y-26.711 E0.2293
G1 X-18.164 Y-27.273 E0.0085
G1 X-18.348 Y-27.840 E0.0089
G1 X-18.647 Y-28.357 E0.0089
G1 X-19.046 Y-28.800 E0.0089
G1 X-19.528 Y-29.150 E0.0089
G1 X-20.073 Y-29.393 E0.0089
G1 X-20.657 Y-29.517 E0.0089
G1 X-21.253 Y-29.517 E0.0089
G1 X-21.837 Y-29.393 E0.0089
G1 X-22.382 Y-29.150 E0.0089
G1 X-22.862 Y-28.802 E0.0089
G1 X-23.263 Y-28.357 E0.0090
G1 X-23.562 Y-27.840 E0.0089
G1 X-23.746 Y-27.270 E0.0090
G1 X-23.805 Y-26.711 E0.0084
G1 X-23.805 Y-11.389 E0.2293
G1 X-23.746 Y-10.827 E0.0085
G1 X-23.562 Y-10.260 E0.0089
G1 X-23.263 Y-9.743 E0.0089
G1 X-22.864 Y-9.300 E0.0089
G1 X-22.382 Y-8.950 E0.0089
G1 X-21.837 Y-8.707 E0.0089
G1 X-21.253 Y-8.583 E0.0089
G1 X-20.657 Y-8.583 E0.0089
; outer perimeter
G1 X-20.699 Y-8.983 F4200
G1 X-20.198 Y-9.089 E0.0077 F900
G1 X-19.729 Y-9.298 E0.0077
G1 X-19.315 Y-9.599 E0.0077
G1 X-18.972 Y-9.980 E0.0077
G1 X-18.716 Y-10.424 E0.0077
G1 X-18.557 Y-10.914 E0.0077
G1 X-18.505 Y-11.410 E0.0075
G1 X-18.505 Y-26.690 E0.2287
G1 X-18.557 Y-27.189 E0.0075
G1 X-18.716 Y-27.676 E0.0077
G1 X-18.972 Y-28.120 E0.0077
G1 X-19.315 Y-28.501 E0.0077
