; G-Code generated by Simplify3D(R) Version 4.0.0
; Jan 13, 2018 at 7:06:26 AM
; Settings Summary
;   processName,Process1
;   applyToModels,Limit_Trigger
;   profileName,FlashForge Creator Pro (modified)
;   profileVersion,2017-10-24 22:12:49
;   baseProfile,
;   printMaterial,PLA
;   printQuality,Medium
;   printExtruders,Left Extruder Only
;   extruderName,Right Extruder,Left Extruder
;   extruderToolheadNumber,0,1
;   extruderDiameter,0.4,0.4
;   extruderAutoWidth,0,0
;   extruderWidth,0.4,0.4
;   extrusionMultiplier,0.9,0.9
;   extruderUseRetract,1,1
;   extruderRetractionDistance,1,1
;   extruderExtraRestartDistance,0,0
;   extruderRetractionZLift,0,0
;   extruderRetractionSpeed,1200,1200
;   extruderUseCoasting,0,0
;   extruderCoastingDistance,0.2,0.2
;   extruderUseWipe,0,0
;   extruderWipeDistance,5,5
;   primaryExtruder,1
;   layerHeight,0.1
;   topSolidLayers,4
;   bottomSolidLayers,4
;   perimeterOutlines,2
;   printPerimetersInsideOut,1
;   startPointOption,2
;   startPointOriginX,0
;   startPointOriginY,0
;   sequentialIslands,0
;   spiralVaseMode,0
;   firstLayerHeightPercentage,90
;   firstLayerWidthPercentage,100
;   firstLayerUnderspeed,0.5
;   useRaft,0
;   raftExtruder,1
;   raftTopLayers,3
;   raftBaseLayers,2
;   raftOffset,3
;   raftSeparationDistance,0.14
;   raftTopInfill,100
;   aboveRaftSpeedMultiplier,0.3
;   useSkirt,1
;   skirtExtruder,1
;   skirtLayers,2
;   skirtOutlines,2
;   skirtOffset,4
;   usePrimePillar,0
;   primePillarExtruder,999
;   primePillarWidth,12
;   primePillarLocation,7
;   primePillarSpeedMultiplier,1
;   useOozeShield,0
;   oozeShieldExtruder,999
;   oozeShieldOffset,2
;   oozeShieldOutlines,1
;   oozeShieldSidewallShape,1
;   oozeShieldSidewallAngle,30
;   oozeShieldSpeedMultiplier,1
;   infillExtruder,1
;   internalInfillPattern,Rectilinear
;   externalInfillPattern,Rectilinear
;   infillPercentage,30
;   outlineOverlapPercentage,20
;   infillExtrusionWidthPercentage,100
;   minInfillLength,5
;   infillLayerInterval,1
;   internalInfillAngles,45,-45
;   overlapInternalInfillAngles,0
;   externalInfillAngles,45,-45
;   generateSupport,1
;   supportExtruder,1
;   supportInfillPercentage,40
;   supportExtraInflation,0
;   supportBaseLayers,0
;   denseSupportExtruder,1
;   denseSupportLayers,0
;   denseSupportInfillPercentage,70
;   supportLayerInterval,1
;   supportHorizontalPartOffset,0.3
;   supportUpperSeparationLayers,1
;   supportLowerSeparationLayers,1
;   supportType,0
;   supportGridSpacing,4
;   maxOverhangAngle,45
;   supportAngles,0
;   temperatureName,Right Extruder,Left Extruder,Heated Build Platform
;   temperatureNumber,0,1,0
;   temperatureSetpointCount,1,1,1
;   temperatureSetpointLayers,1,1,1
;   temperatureSetpointTemperatures,0,230,60
;   temperatureStabilizeAtStartup,0,0,0
;   temperatureHeatedBed,0,0,1
;   temperatureRelayBetweenLayers,0,0,0
;   temperatureRelayBetweenLoops,0,0,0
;   fanLayers,1,2
;   fanSpeeds,0,100
;   blipFanToFullPower,0
;   adjustSpeedForCooling,1
;   minSpeedLayerTime,15
;   minCoolingSpeedSlowdown,20
;   increaseFanForCooling,0
;   minFanLayerTime,45
;   maxCoolingFanSpeed,100
;   increaseFanForBridging,1
;   bridgingFanSpeed,100
;   use5D,1
;   relativeEdistances,1
;   allowEaxisZeroing,0
;   independentExtruderAxes,1
;   includeM10123,0
;   stickySupport,1
;   applyToolheadOffsets,0
;   gcodeXoffset,0
;   gcodeYoffset,0
;   gcodeZoffset,0
;   overrideMachineDefinition,1
;   machineTypeOverride,0
;   strokeXoverride,225
;   strokeYoverride,145
;   strokeZoverride,150
;   originOffsetXoverride,112.5
;   originOffsetYoverride,72.5
;   originOffsetZoverride,0
;   homeXdirOverride,1
;   homeYdirOverride,1
;   homeZdirOverride,-1
;   flipXoverride,1
;   flipYoverride,-1
;   flipZoverride,1
;   toolheadOffsets,0,0|34,0|0,0|0,0|0,0|0,0
;   overrideFirmwareConfiguration,1
;   firmwareTypeOverride,MakerBot/Sailfish Firmware
;   GPXconfigOverride,r1d
;   baudRateOverride,115200
;   overridePrinterModels,1
;   printerModelsOverride,FlashForge_CreatorPro.stl
;   startingGcode,; **** Replicator 1 dual start.gcode ****,M73 P0 ; enable build progress,G162 X Y F3000 ; home XY maximum,G161 Z F1200 ; home Z minimum,G92 Z-5 ; set Z to -5,G1 Z0 ; move Z to 0,G161 Z F100 ; home Z slowly,M132 X Y Z A B ; recall home offsets,M135 T0 ; load right extruder offsets,G1 X150 Y-70 Z30 F9000 ; move to wait position right hand side of the table,G130 X20 Y20 Z20 A20 B20 ; lower stepper Vrefs while heating,M126 S[fan_speed_pwm],M140 S[bed0_temperature] T0,M134 T0 ; stabilize bed temperature,M104 S[extruder1_temperature] T1,M133 T1 ; stabilize left extruder temperature,G130 X127 Y127 Z40 A127 B127 ; default stepper Vrefs,G92 A0 B0 ; zero extruders,G1 Z0.4 ; position nozzle,M135 T1 ; left tool,G1 X110 Y-70 E30 F300 ; move nozzle,G1 X120 Y-70 Z0.15 F1200 ; slow wipe,G1 X110 Y-70 Z0.5 F1200 ; lift,G92 A0 B0 ; zero extruders,M73 P1 ;@body (notify GPX body has started),; **** end of start.gcode ****
;   layerChangeGcode,
;   retractionGcode,
;   toolChangeGcode,
;   endingGcode,; **** Replicator 1 dual end.gcode ****,M73 P100 ; end build progress,G1 Z150 F1000 ; send Z axis to bottom of machine,M140 S0 T0 ; cool down HBP,M104 S0 T0 ; cool down right extruder,M104 S0 T1 ; cool down left extruder,M127 ; stop blower fan,G162 X Y F3000 ; home XY maximum,M18 ; disable stepper,M72 P1 ; play Ta-Da song,; **** end of end.gcode ****
;   exportFileFormat,x3g
;   celebration,0
;   celebrationSong,Random Song
;   postProcessing,
;   defaultSpeed,3600
;   outlineUnderspeed,0.5
;   solidInfillUnderspeed,0.8
;   supportUnderspeed,0.8
;   rapidXYspeed,4200
;   rapidZspeed,1200
;   minBridgingArea,50
;   bridgingExtraInflation,0
;   bridgingExtrusionMultiplier,1
;   bridgingSpeedMultiplier,0.8
;   useFixedBridgingAngle,0
;   fixedBridgingAngle,0
;   applyBridgingToPerimeters,0
;   filamentDiameters,1.75|1.75|1.75|1.75|1.75|1.75
;   filamentPricesPerKg,46|46|46|46|46|46
;   filamentDensities,1.25|1.25|1.25|1.25|1.25|1.25
;   useMinPrintHeight,0
;   minPrintHeight,0
;   useMaxPrintHeight,0
;   maxPrintHeight,0
;   useDiaphragm,0
;   diaphragmLayerInterval,20
;   robustSlicing,1
;   mergeAllIntoSolid,0
;   onlyRetractWhenCrossingOutline,1
;   retractBetweenLayers,1
;   useRetractionMinTravel,0
;   retractionMinTravel,3
;   retractWhileWiping,0
;   onlyWipeOutlines,1
;   avoidCrossingOutline,0
;   maxMovementDetourFactor,3
;   toolChangeRetractionDistance,12
;   toolChangeExtraRestartDistance,-0.5
;   toolChangeRetractionSpeed,600
;   externalThinWallType,0
;   internalThinWallType,2
;   thinWallAllowedOverlapPercentage,10
;   singleExtrusionMinLength,1
;   singleExtrusionMinPrintingWidthPercentage,50
;   singleExtrusionMaxPrintingWidthPercentage,200
;   singleExtrusionEndpointExtension,0.2
;   horizontalSizeCompensation,0
G90
M83
; **** Replicator 1 dual start.gcode ****
M73 P0 ; enable build progress
G162 X Y F3000 ; home XY maximum
G161 Z F1200 ; home Z minimum
G92 Z-5 ; set Z to -5
G1 Z0 ; move Z to 0
G161 Z F100 ; home Z slowly
M132 X Y Z A B ; recall home offsets
M135 T0 ; load right extruder offsets
G1 X150 Y-70 Z30 F9000 ; move to wait position right hand side of the table
G130 X20 Y20 Z20 A20 B20 ; lower stepper Vrefs while heating
M127
M140 S60 T0
M134 T0 ; stabilize bed temperature
M104 S230 T1
M133 T1 ; stabilize left extruder temperature
G130 X127 Y127 Z40 A127 B127 ; default stepper Vrefs
G92 A0 B0 ; zero extruders
G1 Z0.4 ; position nozzle
M135 T1 ; left tool
G1 X110 Y-70 E30 F300 ; move nozzle
G1 X120 Y-70 Z0.15 F1200 ; slow wipe
G1 X110 Y-70 Z0.5 F1200 ; lift
G92 A0 B0 ; zero extruders
M73 P1 ;@body (notify GPX body has started)
; **** end of start.gcode ****
G1 E-1.0000 F1200
G1 Z0.090 F1200
; process Process1
; layer 1, Z = 0.090
M135 T1
; tool H0.100 W0.400
; skirt
G1 X-16.031 Y-16.468 F4200
G1 E1.0000 F360
G1 X-16.943 Y-17.057 E0.0162 F1800
G1 X-19.134 Y-17.057 E0.0328
G1 X-19.146 Y-17.058 E0.0002
G1 X-19.315 Y-17.064 E0.0025
G1 X-19.327 Y-17.065 E0.0002
G1 X-20.573 Y-17.163 E0.0187
G1 X-20.596 Y-17.166 E0.0004
G1 X-20.930 Y-17.219 E0.0051
G1 X-20.953 Y-17.223 E0.0004
G1 X-22.250 Y-17.535 E0.0200
G1 X-22.273 Y-17.541 E0.0004
G1 X-22.594 Y-17.646 E0.0051
G1 X-22.617 Y-17.654 E0.0004
G1 X-23.849 Y-18.164 E0.0200
G1 X-23.871 Y-18.174 E0.0004
G1 X-24.172 Y-18.328 E0.0051
G1 X-24.192 Y-18.339 E0.0004
G1 X-25.330 Y-19.036 E0.0200
G1 X-25.350 Y-19.049 E0.0004
G1 X-25.623 Y-19.248 E0.0051
G1 X-25.641 Y-19.263 E0.0004
G1 X-26.656 Y-20.129 E0.0200
G1 X-26.673 Y-20.145 E0.0004
G1 X-26.912 Y-20.384 E0.0051
G1 X-26.928 Y-20.401 E0.0004
G1 X-27.795 Y-21.416 E0.0200
G1 X-27.809 Y-21.434 E0.0004
G1 X-28.008 Y-21.708 E0.0051
G1 X-28.021 Y-21.727 E0.0004
G1 X-28.718 Y-22.865 E0.0200
G1 X-28.730 Y-22.886 E0.0004
G1 X-28.883 Y-23.187 E0.0051
G1 X-28.893 Y-23.208 E0.0004
G1 X-29.404 Y-24.441 E0.0200
G1 X-29.412 Y-24.463 E0.0004
G1 X-29.516 Y-24.784 E0.0051
G1 X-29.523 Y-24.807 E0.0004
G1 X-29.834 Y-26.105 E0.0200
G1 X-29.839 Y-26.128 E0.0004
G1 X-29.892 Y-26.461 E0.0051
G1 X-29.894 Y-26.485 E0.0004
G1 X-29.992 Y-27.731 E0.0187
G1 X-29.993 Y-27.742 E0.0002
G1 X-30.000 Y-27.911 E0.0025
G1 X-30.000 Y-27.923 E0.0002
G1 X-30.000 Y-58.994 E0.4650
G1 X-29.909 Y-59.214 E0.0036
G1 X-27.397 Y-61.726 E0.0532
G1 X-27.176 Y-61.817 E0.0036
G1 X27.176 Y-61.817 E0.8135
G1 X27.397 Y-61.726 E0.0036
G1 X29.909 Y-59.214 E0.0532
G1 X30.000 Y-58.994 E0.0036
G1 X30.000 Y-27.923 E0.4650
G1 X30.000 Y-27.911 E0.0002
G1 X29.993 Y-27.742 E0.0025
G1 X29.992 Y-27.731 E0.0002
G1 X29.894 Y-26.485 E0.0187
G1 X29.892 Y-26.461 E0.0004
G1 X29.839 Y-26.128 E0.0051
G1 X29.834 Y-26.105 E0.0004
G1 X29.523 Y-24.807 E0.0200
G1 X29.516 Y-24.784 E0.0004
G1 X29.412 Y-24.463 E0.0051
G1 X29.404 Y-24.441 E0.0004
G1 X28.893 Y-23.208 E0.0200
G1 X28.883 Y-23.187 E0.0004
G1 X28.730 Y-22.886 E0.0051
G1 X28.718 Y-22.865 E0.0004
G1 X28.021 Y-21.727 E0.0200
G1 X28.008 Y-21.708 E0.0004
G1 X27.809 Y-21.434 E0.0051
G1 X27.795 Y-21.416 E0.0004
G1 X26.928 Y-20.401 E0.0200
G1 X26.912 Y-20.384 E0.0004
G1 X26.673 Y-20.145 E0.0051
G1 X26.656 Y-20.129 E0.0004
G1 X25.641 Y-19.263 E0.0200
G1 X25.623 Y-19.248 E0.0004
G1 X25.350 Y-19.049 E0.0051
G1 X25.330 Y-19.036 E0.0004
G1 X24.192 Y-18.339 E0.0200
G1 X24.172 Y-18.328 E0.0004
G1 X23.871 Y-18.174 E0.0051
G1 X23.849 Y-18.164 E0.0004
G1 X22.617 Y-17.654 E0.0200
G1 X22.594 Y-17.646 E0.0004
G1 X22.273 Y-17.541 E0.0051
G1 X22.250 Y-17.535 E0.0004
G1 X20.953 Y-17.223 E0.0200
G1 X20.930 Y-17.219 E0.0004
G1 X20.596 Y-17.166 E0.0051
G1 X20.573 Y-17.163 E0.0004
G1 X19.327 Y-17.065 E0.0187
G1 X19.315 Y-17.064 E0.0002
G1 X19.146 Y-17.058 E0.0025
G1 X19.134 Y-17.057 E0.0002
G1 X16.927 Y-17.057 E0.0330
G1 X16.030 Y-16.478 E0.0160
G1 X16.030 Y56.594 E1.0937
G1 X15.939 Y56.814 E0.0036
G1 X13.427 Y59.326 E0.0532
G1 X13.206 Y59.417 E0.0036
G1 X-13.207 Y59.417 E0.3953
G1 X-13.428 Y59.326 E0.0036
G1 X-15.940 Y56.814 E0.0532
G1 X-16.031 Y56.594 E0.0036
G1 X-16.031 Y-16.468 E1.0935
G1 X-15.631 Y-16.685 F4200
G1 X-16.824 Y-17.457 E0.0213 F1800
G1 X-19.131 Y-17.457 E0.0345
G1 X-19.134 Y-17.458 E0.0001
G1 X-19.295 Y-17.464 E0.0024
G1 X-19.299 Y-17.464 E0.0001
G1 X-20.533 Y-17.561 E0.0185
G1 X-20.541 Y-17.562 E0.0001
G1 X-20.859 Y-17.613 E0.0048
G1 X-20.867 Y-17.614 E0.0001
G1 X-22.149 Y-17.922 E0.0197
G1 X-22.157 Y-17.924 E0.0001
G1 X-22.463 Y-18.024 E0.0048
G1 X-22.471 Y-18.026 E0.0001
G1 X-23.689 Y-18.531 E0.0197
G1 X-23.696 Y-18.534 E0.0001
G1 X-23.983 Y-18.680 E0.0048
G1 X-23.990 Y-18.684 E0.0001
G1 X-25.114 Y-19.373 E0.0197
G1 X-25.121 Y-19.378 E0.0001
G1 X-25.381 Y-19.567 E0.0048
G1 X-25.388 Y-19.572 E0.0001
G1 X-26.390 Y-20.428 E0.0197
G1 X-26.396 Y-20.434 E0.0001
G1 X-26.624 Y-20.661 E0.0048
G1 X-26.629 Y-20.667 E0.0001
G1 X-27.486 Y-21.670 E0.0197
G1 X-27.490 Y-21.676 E0.0001
G1 X-27.680 Y-21.937 E0.0048
G1 X-27.684 Y-21.943 E0.0001
G1 X-28.373 Y-23.067 E0.0197
G1 X-28.377 Y-23.074 E0.0001
G1 X-28.523 Y-23.361 E0.0048
G1 X-28.527 Y-23.368 E0.0001
G1 X-29.031 Y-24.587 E0.0197
G1 X-29.034 Y-24.594 E0.0001
G1 X-29.133 Y-24.901 E0.0048
G1 X-29.136 Y-24.908 E0.0001
G1 X-29.443 Y-26.190 E0.0197
G1 X-29.445 Y-26.198 E0.0001
G1 X-29.495 Y-26.516 E0.0048
G1 X-29.496 Y-26.524 E0.0001
G1 X-29.593 Y-27.758 E0.0185
G1 X-29.594 Y-27.762 E0.0001
G1 X-29.600 Y-27.923 E0.0024
G1 X-29.600 Y-27.927 E0.0001
G1 X-29.600 Y-58.914 E0.4638
G1 X-29.570 Y-58.988 E0.0012
G1 X-27.170 Y-61.387 E0.0508
G1 X-27.097 Y-61.417 E0.0012
G1 X27.097 Y-61.417 E0.8111
G1 X27.170 Y-61.387 E0.0012
G1 X29.570 Y-58.988 E0.0508
G1 X29.600 Y-58.914 E0.0012
G1 X29.600 Y-27.927 E0.4638
G1 X29.600 Y-27.923 E0.0001
G1 X29.594 Y-27.762 E0.0024
G1 X29.593 Y-27.758 E0.0001
G1 X29.496 Y-26.524 E0.0185
G1 X29.495 Y-26.516 E0.0001
G1 X29.445 Y-26.198 E0.0048
G1 X29.443 Y-26.190 E0.0001
G1 X29.136 Y-24.908 E0.0197
G1 X29.133 Y-24.901 E0.0001
G1 X29.034 Y-24.594 E0.0048
G1 X29.031 Y-24.587 E0.0001
G1 X28.527 Y-23.368 E0.0197
G1 X28.523 Y-23.361 E0.0001
G1 X28.377 Y-23.074 E0.0048
G1 X28.373 Y-23.067 E0.0001
G1 X27.684 Y-21.943 E0.0197
G1 X27.680 Y-21.937 E0.0001
G1 X27.490 Y-21.676 E0.0048
G1 X27.486 Y-21.670 E0.0001
G1 X26.629 Y-20.667 E0.0197
G1 X26.624 Y-20.661 E0.0001
G1 X26.396 Y-20.434 E0.0048
G1 X26.390 Y-20.428 E0.0001
G1 X25.388 Y-19.572 E0.0197
G1 X25.381 Y-19.567 E0.0001
G1 X25.121 Y-19.378 E0.0048
G1 X25.114 Y-19.373 E0.0001
G1 X23.990 Y-18.684 E0.0197
G1 X23.983 Y-18.680 E0.0001
G1 X23.696 Y-18.534 E0.0048
G1 X23.689 Y-18.531 E0.0001
G1 X22.471 Y-18.026 E0.0197
G1 X22.463 Y-18.024 E0.0001
G1 X22.157 Y-17.924 E0.0048
G1 X22.149 Y-17.922 E0.0001
G1 X20.867 Y-17.614 E0.0197
G1 X20.859 Y-17.613 E0.0001
G1 X20.541 Y-17.562 E0.0048
G1 X20.533 Y-17.561 E0.0001
G1 X19.299 Y-17.464 E0.0185
G1 X19.295 Y-17.464 E0.0001
G1 X19.134 Y-17.458 E0.0024
G1 X19.131 Y-17.457 E0.0001
G1 X16.809 Y-17.457 E0.0347
G1 X15.630 Y-16.696 E0.0210
G1 X15.630 Y56.514 E1.0957
G1 X15.600 Y56.588 E0.0012
G1 X13.200 Y58.987 E0.0508
G1 X13.127 Y59.017 E0.0012
G1 X-13.128 Y59.017 E0.3930
G1 X-13.201 Y58.987 E0.0012
G1 X-15.601 Y56.588 E0.0508
G1 X-15.631 Y56.514 E0.0012
G1 X-15.631 Y-16.685 E1.0956
G1 E-1.0000 F1200
; inner perimeter
G1 X-10.831 Y-19.297 F4200
G1 E1.0000 F1200
G1 X-15.407 Y-22.257 E0.0816 F1350
G1 X-19.026 Y-22.257 E0.0542
G1 X-19.949 Y-22.330 E0.0139
G1 X-20.826 Y-22.541 E0.0135
G1 X-21.660 Y-22.886 E0.0135
G1 X-22.429 Y-23.357 E0.0135
G1 X-23.115 Y-23.943 E0.0135
G1 X-23.700 Y-24.629 E0.0135
G1 X-24.172 Y-25.398 E0.0135
G1 X-24.517 Y-26.231 E0.0135
G1 X-24.727 Y-27.108 E0.0135
G1 X-24.800 Y-28.031 E0.0139
G1 X-24.800 Y-56.617 E0.4279
G1 X24.800 Y-56.617 E0.7424
G1 X24.800 Y-28.031 E0.4279
G1 X24.727 Y-27.108 E0.0139
G1 X24.517 Y-26.231 E0.0135
G1 X24.172 Y-25.398 E0.0135
G1 X23.700 Y-24.629 E0.0135
G1 X23.115 Y-23.943 E0.0135
G1 X22.429 Y-23.357 E0.0135
G1 X21.660 Y-22.886 E0.0135
G1 X20.826 Y-22.541 E0.0135
G1 X19.949 Y-22.330 E0.0135
G1 X19.026 Y-22.257 E0.0139
G1 X15.394 Y-22.257 E0.0544
G1 X10.830 Y-19.309 E0.0813
G1 X10.830 Y54.122 E1.0991
G1 X-10.831 Y54.122 E0.3242
G1 X-10.831 Y-19.297 E1.0989
; outer perimeter
G1 X-11.231 Y-19.079 F4200
G1 X-15.525 Y-21.857 E0.0765 F900
G1 X-19.042 Y-21.857 E0.0526
G1 X-20.012 Y-21.934 E0.0146
G1 X-20.950 Y-22.159 E0.0144
G1 X-21.842 Y-22.528 E0.0144
G1 X-22.665 Y-23.032 E0.0144
G1 X-23.398 Y-23.659 E0.0144
G1 X-24.025 Y-24.393 E0.0144
G1 X-24.529 Y-25.216 E0.0144
G1 X-24.898 Y-26.107 E0.0144
G1 X-25.124 Y-27.045 E0.0144
G1 X-25.200 Y-28.015 E0.0146
G1 X-25.200 Y-57.017 E0.4341
G1 X25.200 Y-57.017 E0.7543
G1 X25.200 Y-28.015 E0.4341
G1 X25.124 Y-27.045 E0.0146
G1 X24.898 Y-26.107 E0.0144
G1 X24.529 Y-25.216 E0.0144
G1 X24.025 Y-24.393 E0.0144
G1 X23.398 Y-23.659 E0.0144
G1 X22.665 Y-23.032 E0.0144
G1 X21.842 Y-22.528 E0.0144
G1 X20.950 Y-22.159 E0.0144
G1 X20.012 Y-21.934 E0.0144
G1 X19.042 Y-21.857 E0.0146
G1 X15.512 Y-21.857 E0.0528
G1 X11.230 Y-19.091 E0.0763
G1 X11.230 Y54.522 E1.1018
G1 X-11.231 Y54.522 E0.3362
G1 X-11.231 Y-19.079 E1.1016
; solid layer
G1 X-10.511 Y-18.431 F4200
G1 X10.510 Y2.590 E0.4449 F1440
G1 X10.510 Y3.156 E0.0085
G1 X-10.511 Y-17.865 E0.4449
G1 X-10.511 Y-17.299 E0.0085
