;Black and White Bitmap
;Original File: control-unit-label.BMP
;9/2/2017 at 12:39:02 PM
;LaserEtch v1.3.0.4
;Base unit: mm
;Pixel Resolution: 0.1mm
;Using Full Pixel Height
;Laser Off Command: M3 S0
;Laser Print Command: M3 S128
;Laser Low Power Command: M3 S15
;Laser Cut Power Command: M3 S255
;Standard commands used for laser off moves
;Laser Off Speed: 1500 mm/min
;Laser On Speed: 500 mm/min
;Laser Cut Speed: 250 mm/min
;Laser Z-Axis Speed: 200 mm/min
;Laser Trace Speed: 1200 mm/min
;Using optimization
;Do not home Laser at beginning of job
;Do not set Initial Height
;Pause at front/center for 5000 sec
;Trace boundary
;Bitmap image will be printed
;Not using X-offset
;Not using X-offset
;Not using Y-offset
;Not repeating image
;Not using Precision Print Mode
;Not using Fake Extrusion
;Not using Backlash Correction
;Perimeter cut not enabled
;Using GRBL flavor

M3 S0	;Laser Off
G90 	;Absolute Positioning
G21 	;Set to mm

G1 F1500 	;Set Laser Off speed

G1 X42.9 Y24.4 F1500 	;Goto center/center
M3 S15	;Laser on at Low power
G4 P5	;Pause for 5
M3 S0

G1 X42.9 Y0 F1500 	;Goto front/center
M3 S15	;Laser on at Low power
G4 P5	;Pause for 5
M3 S0

;Begin Boundary Box
M3 S0		;Laser Off
M3 S15	;Laser on at Low power
G1 X0 Y0 F1200 	;Goto origin
G1 X85.9 F1200 	;Move X to 859
G1 Y48.9 F1200 	;Move Y to 489
G1 X0 F1200 		;Move X to 0
G1 Y0 F1200 		;Move to origin
M3 S0
;End Boundary Box

;BEGIN IMAGE
G1 X81.6 Y0.1 F1500 M3 S0
G1 X81.5 Y0.1 F500 M3 S128
G1 X77.9 Y0.1 F1500 M3 S0
G1 X77.8 Y0.1 F500 M3 S128
G1 X77.6 Y0.2 F1500 M3 S0
G1 X77.9 Y0.2 F500 M3 S128
G1 X81.3 Y0.2 F1500 M3 S0
G1 X81.6 Y0.2 F500 M3 S128
G1 X81.6 Y0.3 F1500 M3 S0
G1 X81 Y0.3 F500 M3 S128
G1 X77.9 Y0.3 F1500 M3 S0
G1 X77.3 Y0.3 F500 M3 S128
G1 X64.2 Y0.3 F1500 M3 S0
G1 X63.6 Y0.3 F500 M3 S128
G1 X60.6 Y0.3 F1500 M3 S0
G1 X60 Y0.3 F500 M3 S128
G1 X56.2 Y0.4 F1500 M3 S0
G1 X56.8 Y0.4 F500 M3 S128
G1 X57.1 Y0.4 F1500 M3 S0
G1 X57.4 Y0.4 F500 M3 S128
G1 X59.7 Y0.4 F1500 M3 S0
G1 X60.8 Y0.4 F500 M3 S128
G1 X63.3 Y0.4 F1500 M3 S0
G1 X64.4 Y0.4 F500 M3 S128
G1 X66.5 Y0.4 F1500 M3 S0
G1 X68.6 Y0.4 F500 M3 S128
G1 X77 Y0.4 F1500 M3 S0
G1 X77.9 Y0.4 F500 M3 S128
G1 X80.7 Y0.4 F1500 M3 S0
G1 X81.6 Y0.4 F500 M3 S128
G1 X81.6 Y0.5 F1500 M3 S0
G1 X80.4 Y0.5 F500 M3 S128
G1 X77.9 Y0.5 F1500 M3 S0
G1 X76.7 Y0.5 F500 M3 S128
G1 X68.6 Y0.5 F1500 M3 S0
G1 X66.5 Y0.5 F500 M3 S128
G1 X64.6 Y0.5 F1500 M3 S0
G1 X63.1 Y0.5 F500 M3 S128
G1 X61 Y0.5 F1500 M3 S0
G1 X59.5 Y0.5 F500 M3 S128
G1 X57.5 Y0.5 F1500 M3 S0
G1 X57.1 Y0.5 F500 M3 S128
G1 X56.8 Y0.5 F1500 M3 S0
G1 X55.6 Y0.5 F500 M3 S128
G1 X55.6 Y0.6 F1500 M3 S0
G1 X56.8 Y0.6 F500 M3 S128
G1 X57.1 Y0.6 F1500 M3 S0
G1 X57.6 Y0.6 F500 M3 S128
G1 X59.4 Y0.6 F1500 M3 S0
G1 X61.1 Y0.6 F500 M3 S128
G1 X63 Y0.6 F1500 M3 S0
G1 X64.7 Y0.6 F500 M3 S128
G1 X66.5 Y0.6 F1500 M3 S0
G1 X68.6 Y0.6 F500 M3 S128
G1 X76.4 Y0.6 F1500 M3 S0
G1 X77.7 Y0.6 F500 M3 S128
G1 X80.1 Y0.6 F1500 M3 S0
G1 X81.4 Y0.6 F500 M3 S128
G1 X81.1 Y0.7 F1500 M3 S0
G1 X79.8 Y0.7 F500 M3 S128
G1 X77.4 Y0.7 F1500 M3 S0
G1 X76.1 Y0.7 F500 M3 S128
G1 X68.6 Y0.7 F1500 M3 S0
G1 X66.5 Y0.7 F500 M3 S128
G1 X64.8 Y0.7 F1500 M3 S0
G1 X63.9 Y0.7 F500 M3 S128
G1 X63.8 Y0.7 F1500 M3 S0
G1 X63 Y0.7 F500 M3 S128
G1 X61.2 Y0.7 F1500 M3 S0
G1 X60.3 Y0.7 F500 M3 S128
G1 X60.2 Y0.7 F1500 M3 S0
G1 X59.4 Y0.7 F500 M3 S128
G1 X57.7 Y0.7 F1500 M3 S0
G1 X57.1 Y0.7 F500 M3 S128
G1 X56.8 Y0.7 F1500 M3 S0
G1 X55.6 Y0.7 F500 M3 S128
G1 X55.6 Y0.8 F1500 M3 S0
G1 X56 Y0.8 F500 M3 S128
G1 X56.5 Y0.8 F1500 M3 S0
G1 X56.8 Y0.8 F500 M3 S128
G1 X57.3 Y0.8 F1500 M3 S0
G1 X57.7 Y0.8 F500 M3 S128
G1 X59.3 Y0.8 F1500 M3 S0
G1 X59.8 Y0.8 F500 M3 S128
G1 X60.7 Y0.8 F1500 M3 S0
G1 X61.2 Y0.8 F500 M3 S128
G1 X62.9 Y0.8 F1500 M3 S0
G1 X63.4 Y0.8 F500 M3 S128
G1 X64.3 Y0.8 F1500 M3 S0
G1 X64.8 Y0.8 F500 M3 S128
G1 X66.5 Y0.8 F1500 M3 S0
G1 X66.9 Y0.8 F500 M3 S128
G1 X67.6 Y0.8 F1500 M3 S0
G1 X68 Y0.8 F500 M3 S128
G1 X75.9 Y0.8 F1500 M3 S0
G1 X77 Y0.8 F500 M3 S128
G1 X77.1 Y0.8 F1500 M3 S0
G1 X77.4 Y0.8 F500 M3 S128
G1 X79.6 Y0.8 F1500 M3 S0
G1 X80.7 Y0.8 F500 M3 S128
G1 X80.8 Y0.8 F1500 M3 S0
G1 X81.1 Y0.8 F500 M3 S128
G1 X81.1 Y0.9 F1500 M3 S0
G1 X80.8 Y0.9 F500 M3 S128
G1 X80.4 Y0.9 F1500 M3 S0
G1 X79.5 Y0.9 F500 M3 S128
G1 X77.4 Y0.9 F1500 M3 S0
G1 X77.1 Y0.9 F500 M3 S128
G1 X76.7 Y0.9 F1500 M3 S0
G1 X75.8 Y0.9 F500 M3 S128
G1 X68 Y0.9 F1500 M3 S0
G1 X67.6 Y0.9 F500 M3 S128
G1 X66.9 Y0.9 F1500 M3 S0
G1 X66.5 Y0.9 F500 M3 S128
G1 X64.9 Y0.9 F1500 M3 S0
G1 X64.4 Y0.9 F500 M3 S128
G1 X63.3 Y0.9 F1500 M3 S0
G1 X62.9 Y0.9 F500 M3 S128
G1 X61.3 Y0.9 F1500 M3 S0
G1 X60.8 Y0.9 F500 M3 S128
G1 X59.7 Y0.9 F1500 M3 S0
G1 X59.3 Y0.9 F500 M3 S128
G1 X57.7 Y0.9 F1500 M3 S0
G1 X57.4 Y0.9 F500 M3 S128
G1 X56.7 Y0.9 F1500 M3 S0
G1 X56.4 Y0.9 F500 M3 S128
G1 X56 Y0.9 F1500 M3 S0
G1 X55.6 Y0.9 F500 M3 S128
G1 X55.6 Y1 F1500 M3 S0
G1 X56 Y1 F500 M3 S128
G1 X56.4 Y1 F1500 M3 S0
G1 X56.7 Y1 F500 M3 S128
G1 X57.4 Y1 F1500 M3 S0
G1 X57.7 Y1 F500 M3 S128
G1 X59.3 Y1 F1500 M3 S0
G1 X59.6 Y1 F500 M3 S128
G1 X60.9 Y1 F1500 M3 S0
G1 X61.3 Y1 F500 M3 S128
G1 X62.9 Y1 F1500 M3 S0
G1 X63.2 Y1 F500 M3 S128
G1 X64.5 Y1 F1500 M3 S0
G1 X64.9 Y1 F500 M3 S128
G1 X66.5 Y1 F1500 M3 S0
G1 X66.9 Y1 F500 M3 S128
G1 X67.6 Y1 F1500 M3 S0
G1 X68 Y1 F500 M3 S128
G1 X75.8 Y1 F1500 M3 S0
G1 X76.4 Y1 F500 M3 S128
G1 X77.1 Y1 F1500 M3 S0
G1 X77.4 Y1 F500 M3 S128
G1 X79.5 Y1 F1500 M3 S0
G1 X80.1 Y1 F500 M3 S128
G1 X80.8 Y1 F1500 M3 S0
G1 X81.1 Y1 F500 M3 S128
G1 X81.1 Y1.1 F1500 M3 S0
G1 X80.8 Y1.1 F500 M3 S128
G1 X80.1 Y1.1 F1500 M3 S0
G1 X79.5 Y1.1 F500 M3 S128
G1 X77.4 Y1.1 F1500 M3 S0
G1 X77.1 Y1.1 F500 M3 S128
G1 X76.4 Y1.1 F1500 M3 S0
G1 X75.8 Y1.1 F500 M3 S128
G1 X68 Y1.1 F1500 M3 S0
G1 X67.6 Y1.1 F500 M3 S128
G1 X66.9 Y1.1 F1500 M3 S0
G1 X66.5 Y1.1 F500 M3 S128
G1 X64.9 Y1.1 F1500 M3 S0
G1 X64.5 Y1.1 F500 M3 S128
G1 X63.2 Y1.1 F1500 M3 S0
G1 X62.8 Y1.1 F500 M3 S128
G1 X61.3 Y1.1 F1500 M3 S0
G1 X60.9 Y1.1 F500 M3 S128
G1 X59.6 Y1.1 F1500 M3 S0
G1 X59.2 Y1.1 F500 M3 S128
G1 X57.7 Y1.1 F1500 M3 S0
G1 X57.4 Y1.1 F500 M3 S128
G1 X56.6 Y1.1 F1500 M3 S0
G1 X56.3 Y1.1 F500 M3 S128
G1 X56 Y1.1 F1500 M3 S0
G1 X55.6 Y1.1 F500 M3 S128
G1 X55.6 Y1.2 F1500 M3 S0
G1 X56 Y1.2 F500 M3 S128
G1 X56.3 Y1.2 F1500 M3 S0
G1 X56.7 Y1.2 F500 M3 S128
G1 X57.4 Y1.2 F1500 M3 S0
G1 X57.7 Y1.2 F500 M3 S128
G1 X59.2 Y1.2 F1500 M3 S0
G1 X59.6 Y1.2 F500 M3 S128
G1 X61 Y1.2 F1500 M3 S0
G1 X61.3 Y1.2 F500 M3 S128
G1 X62.8 Y1.2 F1500 M3 S0
G1 X63.2 Y1.2 F500 M3 S128
G1 X64.6 Y1.2 F1500 M3 S0
G1 X64.9 Y1.2 F500 M3 S128
G1 X66.6 Y1.2 F1500 M3 S0
G1 X66.9 Y1.2 F500 M3 S128
G1 X67.6 Y1.2 F1500 M3 S0
G1 X67.9 Y1.2 F500 M3 S128
G1 X75.8 Y1.2 F1500 M3 S0
G1 X76.7 Y1.2 F500 M3 S128
G1 X77.1 Y1.2 F1500 M3 S0
G1 X77.4 Y1.2 F500 M3 S128
G1 X79.5 Y1.2 F1500 M3 S0
G1 X80.4 Y1.2 F500 M3 S128
G1 X80.8 Y1.2 F1500 M3 S0
G1 X81.1 Y1.2 F500 M3 S128
G1 X81.1 Y1.3 F1500 M3 S0
G1 X80.8 Y1.3 F500 M3 S128
G1 X80.7 Y1.3 F1500 M3 S0
G1 X79.5 Y1.3 F500 M3 S128
G1 X77.4 Y1.3 F1500 M3 S0
G1 X77.1 Y1.3 F500 M3 S128
G1 X77 Y1.3 F1500 M3 S0
G1 X75.8 Y1.3 F500 M3 S128
G1 X67.9 Y1.3 F1500 M3 S0
G1 X67.5 Y1.3 F500 M3 S128
G1 X67 Y1.3 F1500 M3 S0
G1 X66.6 Y1.3 F500 M3 S128
G1 X64.9 Y1.3 F1500 M3 S0
G1 X64.6 Y1.3 F500 M3 S128
G1 X64.1 Y1.3 F1500 M3 S0
G1 X63.8 Y1.3 F500 M3 S128
G1 X63.2 Y1.3 F1500 M3 S0
G1 X62.8 Y1.3 F500 M3 S128
G1 X61.3 Y1.3 F1500 M3 S0
G1 X61 Y1.3 F500 M3 S128
G1 X60.5 Y1.3 F1500 M3 S0
G1 X60.2 Y1.3 F500 M3 S128
G1 X59.6 Y1.3 F1500 M3 S0
G1 X59.2 Y1.3 F500 M3 S128
G1 X57.7 Y1.3 F1500 M3 S0
G1 X57.3 Y1.3 F500 M3 S128
G1 X56.7 Y1.3 F1500 M3 S0
G1 X56.3 Y1.3 F500 M3 S128
G1 X56 Y1.3 F1500 M3 S0
G1 X55.6 Y1.3 F500 M3 S128
G1 X55.6 Y1.4 F1500 M3 S0
G1 X56 Y1.4 F500 M3 S128
G1 X56.4 Y1.4 F1500 M3 S0
G1 X56.8 Y1.4 F500 M3 S128
G1 X57.2 Y1.4 F1500 M3 S0
G1 X57.7 Y1.4 F500 M3 S128
G1 X59.2 Y1.4 F1500 M3 S0
G1 X59.6 Y1.4 F500 M3 S128
G1 X60.2 Y1.4 F1500 M3 S0
G1 X60.5 Y1.4 F500 M3 S128
G1 X61 Y1.4 F1500 M3 S0
G1 X61.3 Y1.4 F500 M3 S128
G1 X62.8 Y1.4 F1500 M3 S0
G1 X63.2 Y1.4 F500 M3 S128
G1 X63.8 Y1.4 F1500 M3 S0
G1 X64.1 Y1.4 F500 M3 S128
G1 X64.6 Y1.4 F1500 M3 S0
G1 X64.9 Y1.4 F500 M3 S128
G1 X66.6 Y1.4 F1500 M3 S0
G1 X67.1 Y1.4 F500 M3 S128
G1 X67.4 Y1.4 F1500 M3 S0
G1 X67.9 Y1.4 F500 M3 S128
G1 X76.1 Y1.4 F1500 M3 S0
G1 X77.4 Y1.4 F500 M3 S128
G1 X79.8 Y1.4 F1500 M3 S0
G1 X81.1 Y1.4 F500 M3 S128
G1 X81.4 Y1.5 F1500 M3 S0
G1 X80.1 Y1.5 F500 M3 S128
G1 X77.7 Y1.5 F1500 M3 S0
G1 X76.4 Y1.5 F500 M3 S128
G1 X67.9 Y1.5 F1500 M3 S0
G1 X66.6 Y1.5 F500 M3 S128
G1 X64.9 Y1.5 F1500 M3 S0
G1 X64.5 Y1.5 F500 M3 S128
G1 X64.1 Y1.5 F1500 M3 S0
G1 X63.8 Y1.5 F500 M3 S128
G1 X63.2 Y1.5 F1500 M3 S0
G1 X62.9 Y1.5 F500 M3 S128
G1 X61.3 Y1.5 F1500 M3 S0
G1 X60.9 Y1.5 F500 M3 S128
G1 X60.5 Y1.5 F1500 M3 S0
G1 X60.2 Y1.5 F500 M3 S128
G1 X59.6 Y1.5 F1500 M3 S0
G1 X59.3 Y1.5 F500 M3 S128
G1 X57.6 Y1.5 F1500 M3 S0
G1 X56.4 Y1.5 F500 M3 S128
G1 X56 Y1.5 F1500 M3 S0
G1 X55.6 Y1.5 F500 M3 S128
G1 X53 Y1.6 F1500 M3 S0
G1 X53.1 Y1.6 F500 M3 S128
G1 X55.6 Y1.6 F1500 M3 S0
G1 X56 Y1.6 F500 M3 S128
G1 X56.5 Y1.6 F1500 M3 S0
G1 X57.6 Y1.6 F500 M3 S128
G1 X59.3 Y1.6 F1500 M3 S0
G1 X59.7 Y1.6 F500 M3 S128
G1 X60.2 Y1.6 F1500 M3 S0
G1 X60.5 Y1.6 F500 M3 S128
G1 X60.9 Y1.6 F1500 M3 S0
G1 X61.3 Y1.6 F500 M3 S128
G1 X62.9 Y1.6 F1500 M3 S0
G1 X63.3 Y1.6 F500 M3 S128
G1 X63.8 Y1.6 F1500 M3 S0
G1 X64.1 Y1.6 F500 M3 S128
G1 X64.5 Y1.6 F1500 M3 S0
G1 X64.9 Y1.6 F500 M3 S128
G1 X66.7 Y1.6 F1500 M3 S0
G1 X67.8 Y1.6 F500 M3 S128
G1 X71.2 Y1.6 F1500 M3 S0
G1 X71.3 Y1.6 F500 M3 S128
G1 X76.7 Y1.6 F1500 M3 S0
G1 X77.9 Y1.6 F500 M3 S128
G1 X80.4 Y1.6 F1500 M3 S0
G1 X81.6 Y1.6 F500 M3 S128
G1 X83.8 Y1.7 F1500 M3 S0
G1 X83.7 Y1.7 F500 M3 S128
G1 X81.6 Y1.7 F1500 M3 S0
G1 X80.7 Y1.7 F500 M3 S128
G1 X77.9 Y1.7 F1500 M3 S0
G1 X77 Y1.7 F500 M3 S128
G1 X72.9 Y1.7 F1500 M3 S0
G1 X72.8 Y1.7 F500 M3 S128
G1 X71.3 Y1.7 F1500 M3 S0
G1 X71.2 Y1.7 F500 M3 S128
G1 X67.7 Y1.7 F1500 M3 S0
G1 X66.8 Y1.7 F500 M3 S128
G1 X64.8 Y1.7 F1500 M3 S0
G1 X64.3 Y1.7 F500 M3 S128
G1 X64.1 Y1.7 F1500 M3 S0
G1 X63.8 Y1.7 F500 M3 S128
G1 X63.5 Y1.7 F1500 M3 S0
G1 X62.9 Y1.7 F500 M3 S128
G1 X61.2 Y1.7 F1500 M3 S0
G1 X60.7 Y1.7 F500 M3 S128
G1 X60.5 Y1.7 F1500 M3 S0
G1 X60.2 Y1.7 F500 M3 S128
G1 X59.9 Y1.7 F1500 M3 S0
G1 X59.3 Y1.7 F500 M3 S128
G1 X57.5 Y1.7 F1500 M3 S0
G1 X56.5 Y1.7 F500 M3 S128
G1 X56 Y1.7 F1500 M3 S0
G1 X55.6 Y1.7 F500 M3 S128
G1 X53.1 Y1.7 F1500 M3 S0
G1 X53 Y1.7 F500 M3 S128
G1 X53 Y1.8 F1500 M3 S0
G1 X53.1 Y1.8 F500 M3 S128
G1 X56.7 Y1.8 F1500 M3 S0
G1 X57.3 Y1.8 F500 M3 S128
G1 X59.4 Y1.8 F1500 M3 S0
G1 X59.9 Y1.8 F500 M3 S128
G1 X60.2 Y1.8 F1500 M3 S0
G1 X61.2 Y1.8 F500 M3 S128
G1 X63 Y1.8 F1500 M3 S0
G1 X63.5 Y1.8 F500 M3 S128
G1 X63.8 Y1.8 F1500 M3 S0
G1 X64.8 Y1.8 F500 M3 S128
G1 X66.9 Y1.8 F1500 M3 S0
G1 X67.6 Y1.8 F500 M3 S128
G1 X71.2 Y1.8 F1500 M3 S0
G1 X71.3 Y1.8 F500 M3 S128
G1 X72.8 Y1.8 F1500 M3 S0
G1 X72.9 Y1.8 F500 M3 S128
G1 X77.3 Y1.8 F1500 M3 S0
G1 X77.9 Y1.8 F500 M3 S128
G1 X81 Y1.8 F1500 M3 S0
G1 X81.6 Y1.8 F500 M3 S128
G1 X83.7 Y1.8 F1500 M3 S0
G1 X83.8 Y1.8 F500 M3 S128
G1 X83.8 Y1.9 F1500 M3 S0
G1 X83.7 Y1.9 F500 M3 S128
G1 X81.6 Y1.9 F1500 M3 S0
G1 X81.3 Y1.9 F500 M3 S128
G1 X77.9 Y1.9 F1500 M3 S0
G1 X77.6 Y1.9 F500 M3 S128
G1 X72.9 Y1.9 F1500 M3 S0
G1 X72.8 Y1.9 F500 M3 S128
G1 X71.3 Y1.9 F1500 M3 S0
G1 X71.2 Y1.9 F500 M3 S128
G1 X64.7 Y1.9 F1500 M3 S0
G1 X63.8 Y1.9 F500 M3 S128
G1 X63.5 Y1.9 F1500 M3 S0
G1 X63.1 Y1.9 F500 M3 S128
G1 X61.1 Y1.9 F1500 M3 S0
G1 X60.2 Y1.9 F500 M3 S128
G1 X59.9 Y1.9 F1500 M3 S0
G1 X59.5 Y1.9 F500 M3 S128
G1 X55.7 Y1.9 F1500 M3 S0
G1 X55.6 Y1.9 F500 M3 S128
G1 X53.1 Y1.9 F1500 M3 S0
G1 X53 Y1.9 F500 M3 S128
G1 X53 Y2 F1500 M3 S0
G1 X53.1 Y2 F500 M3 S128
G1 X55.6 Y2 F1500 M3 S0
G1 X56 Y2 F500 M3 S128
G1 X59.6 Y2 F1500 M3 S0
G1 X59.9 Y2 F500 M3 S128
G1 X60.2 Y2 F1500 M3 S0
G1 X61 Y2 F500 M3 S128
G1 X63.2 Y2 F1500 M3 S0
G1 X63.5 Y2 F500 M3 S128
G1 X63.8 Y2 F1500 M3 S0
G1 X64.6 Y2 F500 M3 S128
G1 X66.5 Y2 F1500 M3 S0
G1 X66.9 Y2 F500 M3 S128
G1 X71.2 Y2 F1500 M3 S0
G1 X71.3 Y2 F500 M3 S128
G1 X72.8 Y2 F1500 M3 S0
G1 X72.9 Y2 F500 M3 S128
G1 X77.8 Y2 F1500 M3 S0
G1 X77.9 Y2 F500 M3 S128
G1 X79.9 Y2 F1500 M3 S0
G1 X80.3 Y2 F500 M3 S128
G1 X81.5 Y2 F1500 M3 S0
G1 X81.6 Y2 F500 M3 S128
G1 X83.7 Y2 F1500 M3 S0
G1 X83.8 Y2 F500 M3 S128
G1 X83.8 Y2.1 F1500 M3 S0
G1 X83.7 Y2.1 F500 M3 S128
G1 X80.2 Y2.1 F1500 M3 S0
G1 X79.8 Y2.1 F500 M3 S128
G1 X77.1 Y2.1 F1500 M3 S0
G1 X76.6 Y2.1 F500 M3 S128
G1 X72.9 Y2.1 F1500 M3 S0
G1 X72.8 Y2.1 F500 M3 S128
G1 X71.3 Y2.1 F1500 M3 S0
G1 X71.2 Y2.1 F500 M3 S128
G1 X67.3 Y2.1 F1500 M3 S0
G1 X66.5 Y2.1 F500 M3 S128
G1 X64.4 Y2.1 F1500 M3 S0
G1 X63.8 Y2.1 F500 M3 S128
G1 X63.5 Y2.1 F1500 M3 S0
G1 X63.4 Y2.1 F500 M3 S128
G1 X60.8 Y2.1 F1500 M3 S0
G1 X60.2 Y2.1 F500 M3 S128
G1 X59.9 Y2.1 F1500 M3 S0
G1 X59.8 Y2.1 F500 M3 S128
G1 X56.3 Y2.1 F1500 M3 S0
G1 X55.6 Y2.1 F500 M3 S128
G1 X53.1 Y2.1 F1500 M3 S0
G1 X53 Y2.1 F500 M3 S128
G1 X53 Y2.2 F1500 M3 S0
G1 X53.1 Y2.2 F500 M3 S128
G1 X55.6 Y2.2 F1500 M3 S0
G1 X56.6 Y2.2 F500 M3 S128
G1 X66.5 Y2.2 F1500 M3 S0
G1 X67.6 Y2.2 F500 M3 S128
G1 X71.2 Y2.2 F1500 M3 S0
G1 X71.3 Y2.2 F500 M3 S128
G1 X72.8 Y2.2 F1500 M3 S0
G1 X72.9 Y2.2 F500 M3 S128
G1 X76.3 Y2.2 F1500 M3 S0
G1 X77.5 Y2.2 F500 M3 S128
G1 X79.8 Y2.2 F1500 M3 S0
G1 X80.1 Y2.2 F500 M3 S128
G1 X83.7 Y2.2 F1500 M3 S0
G1 X83.8 Y2.2 F500 M3 S128
G1 X83.8 Y2.3 F1500 M3 S0
G1 X83.7 Y2.3 F500 M3 S128
G1 X80.1 Y2.3 F1500 M3 S0
G1 X79.7 Y2.3 F500 M3 S128
G1 X77.7 Y2.3 F1500 M3 S0
G1 X76.1 Y2.3 F500 M3 S128
G1 X72.9 Y2.3 F1500 M3 S0
G1 X72.8 Y2.3 F500 M3 S128
G1 X71.3 Y2.3 F1500 M3 S0
G1 X71.2 Y2.3 F500 M3 S128
G1 X68 Y2.3 F1500 M3 S0
G1 X66.5 Y2.3 F500 M3 S128
G1 X56.9 Y2.3 F1500 M3 S0
G1 X55.6 Y2.3 F500 M3 S128
G1 X53.1 Y2.3 F1500 M3 S0
G1 X53 Y2.3 F500 M3 S128
G1 X53 Y2.4 F1500 M3 S0
G1 X53.1 Y2.4 F500 M3 S128
G1 X55.7 Y2.4 F1500 M3 S0
G1 X57.2 Y2.4 F500 M3 S128
G1 X66.7 Y2.4 F1500 M3 S0
G1 X68.4 Y2.4 F500 M3 S128
G1 X71.2 Y2.4 F1500 M3 S0
G1 X71.3 Y2.4 F500 M3 S128
G1 X72.8 Y2.4 F1500 M3 S0
G1 X72.9 Y2.4 F500 M3 S128
G1 X76 Y2.4 F1500 M3 S0
G1 X77.7 Y2.4 F500 M3 S128
G1 X79.6 Y2.4 F1500 M3 S0
G1 X80 Y2.4 F500 M3 S128
G1 X83.7 Y2.4 F1500 M3 S0
G1 X83.8 Y2.4 F500 M3 S128
G1 X83.8 Y2.5 F1500 M3 S0
G1 X83.7 Y2.5 F500 M3 S128
G1 X79.9 Y2.5 F1500 M3 S0
G1 X79.6 Y2.5 F500 M3 S128
G1 X77.8 Y2.5 F1500 M3 S0
G1 X75.9 Y2.5 F500 M3 S128
G1 X72.9 Y2.5 F1500 M3 S0
G1 X72.8 Y2.5 F500 M3 S128
G1 X71.3 Y2.5 F1500 M3 S0
G1 X71.2 Y2.5 F500 M3 S128
G1 X68.6 Y2.5 F1500 M3 S0
G1 X67.2 Y2.5 F500 M3 S128
G1 X64.9 Y2.5 F1500 M3 S0
G1 X62.8 Y2.5 F500 M3 S128
G1 X61.3 Y2.5 F1500 M3 S0
G1 X59.2 Y2.5 F500 M3 S128
G1 X57.5 Y2.5 F1500 M3 S0
G1 X56.1 Y2.5 F500 M3 S128
G1 X53.1 Y2.5 F1500 M3 S0
G1 X53 Y2.5 F500 M3 S128
G1 X53 Y2.6 F1500 M3 S0
G1 X53.1 Y2.6 F500 M3 S128
G1 X56.4 Y2.6 F1500 M3 S0
G1 X57.7 Y2.6 F500 M3 S128
G1 X59.2 Y2.6 F1500 M3 S0
G1 X61.3 Y2.6 F500 M3 S128
G1 X62.8 Y2.6 F1500 M3 S0
G1 X64.9 Y2.6 F500 M3 S128
G1 X67.7 Y2.6 F1500 M3 S0
G1 X68.6 Y2.6 F500 M3 S128
G1 X71.2 Y2.6 F1500 M3 S0
G1 X71.3 Y2.6 F500 M3 S128
G1 X72.8 Y2.6 F1500 M3 S0
G1 X72.9 Y2.6 F500 M3 S128
G1 X75.9 Y2.6 F1500 M3 S0
G1 X76.4 Y2.6 F500 M3 S128
G1 X77.4 Y2.6 F1500 M3 S0
G1 X77.9 Y2.6 F500 M3 S128
G1 X79.5 Y2.6 F1500 M3 S0
G1 X81.6 Y2.6 F500 M3 S128
G1 X83.7 Y2.6 F1500 M3 S0
G1 X83.8 Y2.6 F500 M3 S128
G1 X83.8 Y2.7 F1500 M3 S0
G1 X83.7 Y2.7 F500 M3 S128
G1 X81.6 Y2.7 F1500 M3 S0
G1 X79.5 Y2.7 F500 M3 S128
G1 X77.9 Y2.7 F1500 M3 S0
G1 X77.5 Y2.7 F500 M3 S128
G1 X76.2 Y2.7 F1500 M3 S0
G1 X75.8 Y2.7 F500 M3 S128
G1 X72.9 Y2.7 F1500 M3 S0
G1 X72.8 Y2.7 F500 M3 S128
G1 X71.3 Y2.7 F1500 M3 S0
G1 X71.2 Y2.7 F500 M3 S128
G1 X68.6 Y2.7 F1500 M3 S0
G1 X68 Y2.7 F500 M3 S128
G1 X64.9 Y2.7 F1500 M3 S0
G1 X62.8 Y2.7 F500 M3 S128
G1 X61.3 Y2.7 F1500 M3 S0
G1 X59.2 Y2.7 F500 M3 S128
G1 X57.7 Y2.7 F1500 M3 S0
G1 X56.8 Y2.7 F500 M3 S128
G1 X53.1 Y2.7 F1500 M3 S0
G1 X53 Y2.7 F500 M3 S128
G1 X53 Y2.8 F1500 M3 S0
G1 X53.1 Y2.8 F500 M3 S128
G1 X57.1 Y2.8 F1500 M3 S0
G1 X57.7 Y2.8 F500 M3 S128
G1 X59.2 Y2.8 F1500 M3 S0
G1 X61.3 Y2.8 F500 M3 S128
G1 X62.8 Y2.8 F1500 M3 S0
G1 X64.9 Y2.8 F500 M3 S128
G1 X67.6 Y2.8 F1500 M3 S0
G1 X68.6 Y2.8 F500 M3 S128
G1 X71.2 Y2.8 F1500 M3 S0
G1 X71.3 Y2.8 F500 M3 S128
G1 X72.8 Y2.8 F1500 M3 S0
G1 X72.9 Y2.8 F500 M3 S128
G1 X75.8 Y2.8 F1500 M3 S0
G1 X76.2 Y2.8 F500 M3 S128
G1 X77.6 Y2.8 F1500 M3 S0
G1 X77.9 Y2.8 F500 M3 S128
G1 X79.5 Y2.8 F1500 M3 S0
G1 X81.6 Y2.8 F500 M3 S128
G1 X83.7 Y2.8 F1500 M3 S0
G1 X83.8 Y2.8 F500 M3 S128
G1 X83.8 Y2.9 F1500 M3 S0
G1 X83.7 Y2.9 F500 M3 S128
G1 X81.6 Y2.9 F1500 M3 S0
G1 X79.5 Y2.9 F500 M3 S128
G1 X77.9 Y2.9 F1500 M3 S0
G1 X77.6 Y2.9 F500 M3 S128
G1 X76.1 Y2.9 F1500 M3 S0
G1 X75.8 Y2.9 F500 M3 S128
G1 X72.9 Y2.9 F1500 M3 S0
G1 X72.8 Y2.9 F500 M3 S128
G1 X71.3 Y2.9 F1500 M3 S0
G1 X71.2 Y2.9 F500 M3 S128
G1 X68.5 Y2.9 F1500 M3 S0
G1 X67.2 Y2.9 F500 M3 S128
G1 X64.1 Y2.9 F1500 M3 S0
G1 X63.8 Y2.9 F500 M3 S128
G1 X63.2 Y2.9 F1500 M3 S0
G1 X62.8 Y2.9 F500 M3 S128
G1 X60.5 Y2.9 F1500 M3 S0
G1 X60.2 Y2.9 F500 M3 S128
G1 X59.6 Y2.9 F1500 M3 S0
G1 X59.2 Y2.9 F500 M3 S128
G1 X57.7 Y2.9 F1500 M3 S0
G1 X57.1 Y2.9 F500 M3 S128
G1 X53.1 Y2.9 F1500 M3 S0
G1 X53 Y2.9 F500 M3 S128
G1 X53 Y3 F1500 M3 S0
G1 X53.1 Y3 F500 M3 S128
G1 X56.7 Y3 F1500 M3 S0
G1 X57.7 Y3 F500 M3 S128
G1 X59.2 Y3 F1500 M3 S0
G1 X59.6 Y3 F500 M3 S128
G1 X60.2 Y3 F1500 M3 S0
G1 X60.5 Y3 F500 M3 S128
G1 X62.8 Y3 F1500 M3 S0
G1 X63.2 Y3 F500 M3 S128
G1 X63.8 Y3 F1500 M3 S0
G1 X64.1 Y3 F500 M3 S128
G1 X66.8 Y3 F1500 M3 S0
G1 X68.1 Y3 F500 M3 S128
G1 X71.2 Y3 F1500 M3 S0
G1 X71.3 Y3 F500 M3 S128
G1 X72.8 Y3 F1500 M3 S0
G1 X72.9 Y3 F500 M3 S128
G1 X75.8 Y3 F1500 M3 S0
G1 X76.2 Y3 F500 M3 S128
G1 X77.6 Y3 F1500 M3 S0
G1 X77.9 Y3 F500 M3 S128
G1 X83.7 Y3 F1500 M3 S0
G1 X83.8 Y3 F500 M3 S128
G1 X83.8 Y3.1 F1500 M3 S0
G1 X83.7 Y3.1 F500 M3 S128
G1 X77.9 Y3.1 F1500 M3 S0
G1 X77.5 Y3.1 F500 M3 S128
G1 X76.2 Y3.1 F1500 M3 S0
G1 X75.8 Y3.1 F500 M3 S128
G1 X72.9 Y3.1 F1500 M3 S0
G1 X72.8 Y3.1 F500 M3 S128
G1 X71.3 Y3.1 F1500 M3 S0
G1 X71.2 Y3.1 F500 M3 S128
G1 X67.7 Y3.1 F1500 M3 S0
G1 X66.5 Y3.1 F500 M3 S128
G1 X64.1 Y3.1 F1500 M3 S0
G1 X63.8 Y3.1 F500 M3 S128
G1 X63.2 Y3.1 F1500 M3 S0
G1 X62.8 Y3.1 F500 M3 S128
G1 X60.5 Y3.1 F1500 M3 S0
G1 X60.2 Y3.1 F500 M3 S128
G1 X59.6 Y3.1 F1500 M3 S0
G1 X59.2 Y3.1 F500 M3 S128
G1 X57.7 Y3.1 F1500 M3 S0
G1 X56.4 Y3.1 F500 M3 S128
G1 X53.1 Y3.1 F1500 M3 S0
G1 X53 Y3.1 F500 M3 S128
G1 X53 Y3.2 F1500 M3 S0
G1 X53.1 Y3.2 F500 M3 S128
G1 X56.1 Y3.2 F1500 M3 S0
G1 X57.4 Y3.2 F500 M3 S128
G1 X59.2 Y3.2 F1500 M3 S0
G1 X59.6 Y3.2 F500 M3 S128
G1 X60.2 Y3.2 F1500 M3 S0
G1 X60.6 Y3.2 F500 M3 S128
G1 X62.8 Y3.2 F1500 M3 S0
G1 X63.2 Y3.2 F500 M3 S128
G1 X63.8 Y3.2 F1500 M3 S0
G1 X64.2 Y3.2 F500 M3 S128
G1 X66.5 Y3.2 F1500 M3 S0
G1 X67.4 Y3.2 F500 M3 S128
G1 X71.2 Y3.2 F1500 M3 S0
G1 X71.3 Y3.2 F500 M3 S128
G1 X72.8 Y3.2 F1500 M3 S0
G1 X72.9 Y3.2 F500 M3 S128
G1 X75.9 Y3.2 F1500 M3 S0
G1 X76.4 Y3.2 F500 M3 S128
G1 X77.4 Y3.2 F1500 M3 S0
G1 X77.9 Y3.2 F500 M3 S128
G1 X83.7 Y3.2 F1500 M3 S0
G1 X83.8 Y3.2 F500 M3 S128
G1 X83.8 Y3.3 F1500 M3 S0
G1 X83.7 Y3.3 F500 M3 S128
G1 X77.8 Y3.3 F1500 M3 S0
G1 X75.9 Y3.3 F500 M3 S128
G1 X72.9 Y3.3 F1500 M3 S0
G1 X72.8 Y3.3 F500 M3 S128
G1 X71.3 Y3.3 F1500 M3 S0
G1 X71.2 Y3.3 F500 M3 S128
G1 X67.3 Y3.3 F1500 M3 S0
G1 X66.5 Y3.3 F500 M3 S128
G1 X64.4 Y3.3 F1500 M3 S0
G1 X63.8 Y3.3 F500 M3 S128
G1 X63.2 Y3.3 F1500 M3 S0
G1 X62.9 Y3.3 F500 M3 S128
G1 X60.8 Y3.3 F1500 M3 S0
G1 X60.2 Y3.3 F500 M3 S128
G1 X59.6 Y3.3 F1500 M3 S0
G1 X59.3 Y3.3 F500 M3 S128
G1 X57.1 Y3.3 F1500 M3 S0
G1 X55.7 Y3.3 F500 M3 S128
G1 X53.1 Y3.3 F1500 M3 S0
G1 X53 Y3.3 F500 M3 S128
G1 X53 Y3.4 F1500 M3 S0
G1 X53.1 Y3.4 F500 M3 S128
G1 X55.6 Y3.4 F1500 M3 S0
G1 X56.8 Y3.4 F500 M3 S128
G1 X59.3 Y3.4 F1500 M3 S0
G1 X59.6 Y3.4 F500 M3 S128
G1 X60.2 Y3.4 F1500 M3 S0
G1 X61 Y3.4 F500 M3 S128
G1 X62.9 Y3.4 F1500 M3 S0
G1 X63.2 Y3.4 F500 M3 S128
G1 X63.8 Y3.4 F1500 M3 S0
G1 X64.6 Y3.4 F500 M3 S128
G1 X66.5 Y3.4 F1500 M3 S0
G1 X67.7 Y3.4 F500 M3 S128
G1 X71.2 Y3.4 F1500 M3 S0
G1 X71.3 Y3.4 F500 M3 S128
G1 X72.8 Y3.4 F1500 M3 S0
G1 X72.9 Y3.4 F500 M3 S128
G1 X76 Y3.4 F1500 M3 S0
G1 X77.7 Y3.4 F500 M3 S128
G1 X83.7 Y3.4 F1500 M3 S0
G1 X83.8 Y3.4 F500 M3 S128
G1 X83.8 Y3.5 F1500 M3 S0
G1 X83.7 Y3.5 F500 M3 S128
G1 X77.7 Y3.5 F1500 M3 S0
G1 X76.1 Y3.5 F500 M3 S128
G1 X72.9 Y3.5 F1500 M3 S0
G1 X72.8 Y3.5 F500 M3 S128
G1 X71.3 Y3.5 F1500 M3 S0
G1 X71.2 Y3.5 F500 M3 S128
G1 X68.1 Y3.5 F1500 M3 S0
G1 X66.8 Y3.5 F500 M3 S128
G1 X64.7 Y3.5 F1500 M3 S0
G1 X63.7 Y3.5 F500 M3 S128
G1 X63.3 Y3.5 F1500 M3 S0
G1 X62.9 Y3.5 F500 M3 S128
G1 X61.1 Y3.5 F1500 M3 S0
G1 X60.1 Y3.5 F500 M3 S128
G1 X59.7 Y3.5 F1500 M3 S0
G1 X59.3 Y3.5 F500 M3 S128
G1 X56.5 Y3.5 F1500 M3 S0
G1 X55.6 Y3.5 F500 M3 S128
G1 X53.1 Y3.5 F1500 M3 S0
G1 X53 Y3.5 F500 M3 S128
G1 X53 Y3.6 F1500 M3 S0
G1 X53.1 Y3.6 F500 M3 S128
G1 X55.6 Y3.6 F1500 M3 S0
G1 X56.2 Y3.6 F500 M3 S128
G1 X59.3 Y3.6 F1500 M3 S0
G1 X61.3 Y3.6 F500 M3 S128
G1 X62.9 Y3.6 F1500 M3 S0
G1 X64.9 Y3.6 F500 M3 S128
G1 X67.2 Y3.6 F1500 M3 S0
G1 X68.4 Y3.6 F500 M3 S128
G1 X71.2 Y3.6 F1500 M3 S0
G1 X71.3 Y3.6 F500 M3 S128
G1 X72.8 Y3.6 F1500 M3 S0
G1 X72.9 Y3.6 F500 M3 S128
G1 X76.3 Y3.6 F1500 M3 S0
G1 X77.5 Y3.6 F500 M3 S128
G1 X83.7 Y3.6 F1500 M3 S0
G1 X83.8 Y3.6 F500 M3 S128
G1 X83.8 Y3.7 F1500 M3 S0
G1 X83.7 Y3.7 F500 M3 S128
G1 X77.1 Y3.7 F1500 M3 S0
G1 X76.7 Y3.7 F500 M3 S128
G1 X72.9 Y3.7 F1500 M3 S0
G1 X72.8 Y3.7 F500 M3 S128
G1 X71.3 Y3.7 F1500 M3 S0
G1 X71.2 Y3.7 F500 M3 S128
G1 X68.6 Y3.7 F1500 M3 S0
G1 X67.6 Y3.7 F500 M3 S128
G1 X64.9 Y3.7 F1500 M3 S0
G1 X64.2 Y3.7 F500 M3 S128
G1 X64 Y3.7 F1500 M3 S0
G1 X63 Y3.7 F500 M3 S128
G1 X61.3 Y3.7 F1500 M3 S0
G1 X60.6 Y3.7 F500 M3 S128
G1 X60.4 Y3.7 F1500 M3 S0
G1 X59.4 Y3.7 F500 M3 S128
G1 X55.9 Y3.7 F1500 M3 S0
G1 X55.6 Y3.7 F500 M3 S128
G1 X53.1 Y3.7 F1500 M3 S0
G1 X53 Y3.7 F500 M3 S128
G1 X53 Y3.8 F1500 M3 S0
G1 X53.1 Y3.8 F500 M3 S128
G1 X59.4 Y3.8 F1500 M3 S0
G1 X60.4 Y3.8 F500 M3 S128
G1 X60.8 Y3.8 F1500 M3 S0
G1 X61.3 Y3.8 F500 M3 S128
G1 X63 Y3.8 F1500 M3 S0
G1 X64 Y3.8 F500 M3 S128
G1 X64.4 Y3.8 F1500 M3 S0
G1 X64.9 Y3.8 F500 M3 S128
G1 X68 Y3.8 F1500 M3 S0
G1 X68.6 Y3.8 F500 M3 S128
G1 X71.2 Y3.8 F1500 M3 S0
G1 X71.3 Y3.8 F500 M3 S128
G1 X72.8 Y3.8 F1500 M3 S0
G1 X72.9 Y3.8 F500 M3 S128
G1 X83.7 Y3.8 F1500 M3 S0
G1 X83.8 Y3.8 F500 M3 S128
G1 X83.8 Y3.9 F1500 M3 S0
G1 X83.7 Y3.9 F500 M3 S128
G1 X72.9 Y3.9 F1500 M3 S0
G1 X72.8 Y3.9 F500 M3 S128
G1 X71.3 Y3.9 F1500 M3 S0
G1 X71.2 Y3.9 F500 M3 S128
G1 X68.6 Y3.9 F1500 M3 S0
G1 X67.7 Y3.9 F500 M3 S128
G1 X64.9 Y3.9 F1500 M3 S0
G1 X64.6 Y3.9 F500 M3 S128
G1 X63.9 Y3.9 F1500 M3 S0
G1 X63.2 Y3.9 F500 M3 S128
G1 X61.3 Y3.9 F1500 M3 S0
G1 X61 Y3.9 F500 M3 S128
G1 X60.3 Y3.9 F1500 M3 S0
G1 X59.6 Y3.9 F500 M3 S128
G1 X53.1 Y3.9 F1500 M3 S0
G1 X53 Y3.9 F500 M3 S128
G1 X53 Y4 F1500 M3 S0
G1 X53.1 Y4 F500 M3 S128
G1 X59.9 Y4 F1500 M3 S0
G1 X60 Y4 F500 M3 S128
G1 X61.2 Y4 F1500 M3 S0
G1 X61.3 Y4 F500 M3 S128
G1 X63.5 Y4 F1500 M3 S0
G1 X63.6 Y4 F500 M3 S128
G1 X64.8 Y4 F1500 M3 S0
G1 X64.9 Y4 F500 M3 S128
G1 X67.3 Y4 F1500 M3 S0
G1 X68.6 Y4 F500 M3 S128
G1 X71.2 Y4 F1500 M3 S0
G1 X71.3 Y4 F500 M3 S128
G1 X72.8 Y4 F1500 M3 S0
G1 X72.9 Y4 F500 M3 S128
G1 X83.7 Y4 F1500 M3 S0
G1 X83.8 Y4 F500 M3 S128
G1 X83.8 Y4.1 F1500 M3 S0
G1 X83.7 Y4.1 F500 M3 S128
G1 X81 Y4.1 F1500 M3 S0
G1 X80.6 Y4.1 F500 M3 S128
G1 X72.9 Y4.1 F1500 M3 S0
G1 X72.8 Y4.1 F500 M3 S128
G1 X71.3 Y4.1 F1500 M3 S0
G1 X71.2 Y4.1 F500 M3 S128
G1 X68.4 Y4.1 F1500 M3 S0
G1 X66.8 Y4.1 F500 M3 S128
G1 X53.1 Y4.1 F1500 M3 S0
G1 X53 Y4.1 F500 M3 S128
G1 X53 Y4.2 F1500 M3 S0
G1 X53.1 Y4.2 F500 M3 S128
G1 X60 Y4.2 F1500 M3 S0
G1 X60.6 Y4.2 F500 M3 S128
G1 X63.6 Y4.2 F1500 M3 S0
G1 X64.2 Y4.2 F500 M3 S128
G1 X66.5 Y4.2 F1500 M3 S0
G1 X68.1 Y4.2 F500 M3 S128
G1 X71.2 Y4.2 F1500 M3 S0
G1 X71.3 Y4.2 F500 M3 S128
G1 X72.8 Y4.2 F1500 M3 S0
G1 X72.9 Y4.2 F500 M3 S128
G1 X80.6 Y4.2 F1500 M3 S0
G1 X81 Y4.2 F500 M3 S128
G1 X83.7 Y4.2 F1500 M3 S0
G1 X83.8 Y4.2 F500 M3 S128
G1 X83.8 Y4.3 F1500 M3 S0
G1 X83.7 Y4.3 F500 M3 S128
G1 X81 Y4.3 F1500 M3 S0
G1 X80.6 Y4.3 F500 M3 S128
G1 X72.9 Y4.3 F1500 M3 S0
G1 X72.8 Y4.3 F500 M3 S128
G1 X71.3 Y4.3 F1500 M3 S0
G1 X71.2 Y4.3 F500 M3 S128
G1 X67.7 Y4.3 F1500 M3 S0
G1 X66.5 Y4.3 F500 M3 S128
G1 X64.4 Y4.3 F1500 M3 S0
G1 X63.3 Y4.3 F500 M3 S128
G1 X60.8 Y4.3 F1500 M3 S0
G1 X59.7 Y4.3 F500 M3 S128
G1 X53.1 Y4.3 F1500 M3 S0
G1 X53 Y4.3 F500 M3 S128
G1 X53 Y4.4 F1500 M3 S0
G1 X53.1 Y4.4 F500 M3 S128
G1 X59.5 Y4.4 F1500 M3 S0
G1 X61 Y4.4 F500 M3 S128
G1 X63.1 Y4.4 F1500 M3 S0
G1 X64.6 Y4.4 F500 M3 S128
G1 X66.5 Y4.4 F1500 M3 S0
G1 X67.3 Y4.4 F500 M3 S128
G1 X71.2 Y4.4 F1500 M3 S0
G1 X71.3 Y4.4 F500 M3 S128
G1 X72.8 Y4.4 F1500 M3 S0
G1 X72.9 Y4.4 F500 M3 S128
G1 X80.6 Y4.4 F1500 M3 S0
G1 X81 Y4.4 F500 M3 S128
G1 X83.7 Y4.4 F1500 M3 S0
G1 X83.8 Y4.4 F500 M3 S128
G1 X83.8 Y4.5 F1500 M3 S0
G1 X83.7 Y4.5 F500 M3 S128
G1 X81 Y4.5 F1500 M3 S0
G1 X80.6 Y4.5 F500 M3 S128
G1 X72.9 Y4.5 F1500 M3 S0
G1 X72.8 Y4.5 F500 M3 S128
G1 X71.3 Y4.5 F1500 M3 S0
G1 X71.2 Y4.5 F500 M3 S128
G1 X66.9 Y4.5 F1500 M3 S0
G1 X66.5 Y4.5 F500 M3 S128
G1 X64.7 Y4.5 F1500 M3 S0
G1 X63 Y4.5 F500 M3 S128
G1 X61.1 Y4.5 F1500 M3 S0
G1 X59.4 Y4.5 F500 M3 S128
G1 X53.1 Y4.5 F1500 M3 S0
G1 X53 Y4.5 F500 M3 S128
G1 X53 Y4.6 F1500 M3 S0
G1 X53.1 Y4.6 F500 M3 S128
G1 X59.4 Y4.6 F1500 M3 S0
G1 X60.2 Y4.6 F500 M3 S128
G1 X60.3 Y4.6 F1500 M3 S0
G1 X61.2 Y4.6 F500 M3 S128
G1 X63 Y4.6 F1500 M3 S0
G1 X63.8 Y4.6 F500 M3 S128
G1 X63.9 Y4.6 F1500 M3 S0
G1 X64.8 Y4.6 F500 M3 S128
G1 X66.5 Y4.6 F1500 M3 S0
G1 X66.6 Y4.6 F500 M3 S128
G1 X71.2 Y4.6 F1500 M3 S0
G1 X71.3 Y4.6 F500 M3 S128
G1 X72.8 Y4.6 F1500 M3 S0
G1 X72.9 Y4.6 F500 M3 S128
G1 X80.6 Y4.6 F1500 M3 S0
G1 X81 Y4.6 F500 M3 S128
G1 X83.7 Y4.6 F1500 M3 S0
G1 X83.8 Y4.6 F500 M3 S128
G1 X83.8 Y4.7 F1500 M3 S0
G1 X83.7 Y4.7 F500 M3 S128
G1 X81 Y4.7 F1500 M3 S0
G1 X80.6 Y4.7 F500 M3 S128
G1 X77.3 Y4.7 F1500 M3 S0
G1 X76.9 Y4.7 F500 M3 S128
G1 X72.9 Y4.7 F1500 M3 S0
G1 X72.8 Y4.7 F500 M3 S128
G1 X71.3 Y4.7 F1500 M3 S0
G1 X71.2 Y4.7 F500 M3 S128
G1 X64.8 Y4.7 F1500 M3 S0
G1 X64.3 Y4.7 F500 M3 S128
G1 X63.5 Y4.7 F1500 M3 S0
G1 X62.9 Y4.7 F500 M3 S128
G1 X61.2 Y4.7 F1500 M3 S0
G1 X60.7 Y4.7 F500 M3 S128
G1 X59.9 Y4.7 F1500 M3 S0
G1 X59.3 Y4.7 F500 M3 S128
G1 X57.7 Y4.7 F1500 M3 S0
G1 X55.6 Y4.7 F500 M3 S128
G1 X53.1 Y4.7 F1500 M3 S0
G1 X53 Y4.7 F500 M3 S128
G1 X53 Y4.8 F1500 M3 S0
G1 X53.1 Y4.8 F500 M3 S128
G1 X55.6 Y4.8 F1500 M3 S0
G1 X57.7 Y4.8 F500 M3 S128
G1 X59.3 Y4.8 F1500 M3 S0
G1 X59.7 Y4.8 F500 M3 S128
G1 X60.8 Y4.8 F1500 M3 S0
G1 X61.3 Y4.8 F500 M3 S128
G1 X62.9 Y4.8 F1500 M3 S0
G1 X63.3 Y4.8 F500 M3 S128
G1 X64.4 Y4.8 F1500 M3 S0
G1 X64.9 Y4.8 F500 M3 S128
G1 X71.2 Y4.8 F1500 M3 S0
G1 X71.3 Y4.8 F500 M3 S128
G1 X72.8 Y4.8 F1500 M3 S0
G1 X72.9 Y4.8 F500 M3 S128
G1 X76.9 Y4.8 F1500 M3 S0
G1 X77.3 Y4.8 F500 M3 S128
G1 X80.6 Y4.8 F1500 M3 S0
G1 X81 Y4.8 F500 M3 S128
G1 X83.7 Y4.8 F1500 M3 S0
G1 X83.8 Y4.8 F500 M3 S128
G1 X83.8 Y4.9 F1500 M3 S0
G1 X83.7 Y4.9 F500 M3 S128
G1 X81 Y4.9 F1500 M3 S0
G1 X80.6 Y4.9 F500 M3 S128
G1 X77.3 Y4.9 F1500 M3 S0
G1 X76.9 Y4.9 F500 M3 S128
G1 X72.9 Y4.9 F1500 M3 S0
G1 X72.8 Y4.9 F500 M3 S128
G1 X71.3 Y4.9 F1500 M3 S0
G1 X71.2 Y4.9 F500 M3 S128
G1 X68.6 Y4.9 F1500 M3 S0
G1 X66.5 Y4.9 F500 M3 S128
G1 X64.9 Y4.9 F1500 M3 S0
G1 X64.5 Y4.9 F500 M3 S128
G1 X63.2 Y4.9 F1500 M3 S0
G1 X62.9 Y4.9 F500 M3 S128
G1 X61.3 Y4.9 F1500 M3 S0
G1 X60.9 Y4.9 F500 M3 S128
G1 X59.6 Y4.9 F1500 M3 S0
G1 X59.3 Y4.9 F500 M3 S128
G1 X57.7 Y4.9 F1500 M3 S0
G1 X55.6 Y4.9 F500 M3 S128
G1 X53.1 Y4.9 F1500 M3 S0
G1 X53 Y4.9 F500 M3 S128
G1 X53 Y5 F1500 M3 S0
G1 X53.1 Y5 F500 M3 S128
G1 X55.6 Y5 F1500 M3 S0
G1 X57.7 Y5 F500 M3 S128
G1 X59.2 Y5 F1500 M3 S0
G1 X59.6 Y5 F500 M3 S128
G1 X60.9 Y5 F1500 M3 S0
G1 X61.3 Y5 F500 M3 S128
G1 X62.8 Y5 F1500 M3 S0
G1 X63.2 Y5 F500 M3 S128
G1 X64.5 Y5 F1500 M3 S0
G1 X64.9 Y5 F500 M3 S128
G1 X66.5 Y5 F1500 M3 S0
G1 X68.6 Y5 F500 M3 S128
G1 X71.2 Y5 F1500 M3 S0
G1 X71.3 Y5 F500 M3 S128
G1 X72.8 Y5 F1500 M3 S0
G1 X72.9 Y5 F500 M3 S128
G1 X76.9 Y5 F1500 M3 S0
G1 X77.3 Y5 F500 M3 S128
G1 X83.7 Y5 F1500 M3 S0
G1 X83.8 Y5 F500 M3 S128
G1 X83.8 Y5.1 F1500 M3 S0
G1 X83.7 Y5.1 F500 M3 S128
G1 X77.3 Y5.1 F1500 M3 S0
G1 X76.9 Y5.1 F500 M3 S128
G1 X72.9 Y5.1 F1500 M3 S0
G1 X72.8 Y5.1 F500 M3 S128
G1 X71.3 Y5.1 F1500 M3 S0
G1 X71.2 Y5.1 F500 M3 S128
G1 X68.6 Y5.1 F1500 M3 S0
G1 X66.5 Y5.1 F500 M3 S128
G1 X64.9 Y5.1 F1500 M3 S0
G1 X64.6 Y5.1 F500 M3 S128
G1 X63.2 Y5.1 F1500 M3 S0
G1 X62.8 Y5.1 F500 M3 S128
G1 X61.3 Y5.1 F1500 M3 S0
G1 X61 Y5.1 F500 M3 S128
G1 X59.6 Y5.1 F1500 M3 S0
G1 X59.2 Y5.1 F500 M3 S128
G1 X57.1 Y5.1 F1500 M3 S0
G1 X56.7 Y5.1 F500 M3 S128
G1 X56 Y5.1 F1500 M3 S0
G1 X55.6 Y5.1 F500 M3 S128
G1 X53.1 Y5.1 F1500 M3 S0
G1 X53 Y5.1 F500 M3 S128
G1 X53 Y5.2 F1500 M3 S0
G1 X53.1 Y5.2 F500 M3 S128
G1 X55.6 Y5.2 F1500 M3 S0
G1 X56 Y5.2 F500 M3 S128
G1 X56.7 Y5.2 F1500 M3 S0
G1 X57.1 Y5.2 F500 M3 S128
G1 X59.2 Y5.2 F1500 M3 S0
G1 X59.6 Y5.2 F500 M3 S128
G1 X61 Y5.2 F1500 M3 S0
G1 X61.3 Y5.2 F500 M3 S128
G1 X62.8 Y5.2 F1500 M3 S0
G1 X63.2 Y5.2 F500 M3 S128
G1 X64.6 Y5.2 F1500 M3 S0
G1 X64.9 Y5.2 F500 M3 S128
G1 X66.5 Y5.2 F1500 M3 S0
G1 X68.6 Y5.2 F500 M3 S128
G1 X71.2 Y5.2 F1500 M3 S0
G1 X71.3 Y5.2 F500 M3 S128
G1 X72.8 Y5.2 F1500 M3 S0
G1 X72.9 Y5.2 F500 M3 S128
G1 X76.9 Y5.2 F1500 M3 S0
G1 X77.3 Y5.2 F500 M3 S128
G1 X83.7 Y5.2 F1500 M3 S0
G1 X83.8 Y5.2 F500 M3 S128
G1 X83.8 Y5.3 F1500 M3 S0
G1 X83.7 Y5.3 F500 M3 S128
G1 X77.3 Y5.3 F1500 M3 S0
G1 X76.9 Y5.3 F500 M3 S128
G1 X72.9 Y5.3 F1500 M3 S0
G1 X72.8 Y5.3 F500 M3 S128
G1 X71.3 Y5.3 F1500 M3 S0
G1 X71.2 Y5.3 F500 M3 S128
G1 X67.8 Y5.3 F1500 M3 S0
G1 X67.5 Y5.3 F500 M3 S128
G1 X66.9 Y5.3 F1500 M3 S0
G1 X66.5 Y5.3 F500 M3 S128
G1 X64.9 Y5.3 F1500 M3 S0
G1 X64.5 Y5.3 F500 M3 S128
G1 X63.2 Y5.3 F1500 M3 S0
G1 X62.8 Y5.3 F500 M3 S128
G1 X61.3 Y5.3 F1500 M3 S0
G1 X60.9 Y5.3 F500 M3 S128
G1 X59.6 Y5.3 F1500 M3 S0
G1 X59.2 Y5.3 F500 M3 S128
G1 X57.1 Y5.3 F1500 M3 S0
G1 X56.7 Y5.3 F500 M3 S128
G1 X56 Y5.3 F1500 M3 S0
G1 X55.6 Y5.3 F500 M3 S128
G1 X53.1 Y5.3 F1500 M3 S0
G1 X53 Y5.3 F500 M3 S128
G1 X53 Y5.4 F1500 M3 S0
G1 X53.1 Y5.4 F500 M3 S128
G1 X55.6 Y5.4 F1500 M3 S0
G1 X56 Y5.4 F500 M3 S128
G1 X56.7 Y5.4 F1500 M3 S0
G1 X57.1 Y5.4 F500 M3 S128
G1 X59.3 Y5.4 F1500 M3 S0
G1 X59.6 Y5.4 F500 M3 S128
G1 X60.9 Y5.4 F1500 M3 S0
G1 X61.3 Y5.4 F500 M3 S128
G1 X62.9 Y5.4 F1500 M3 S0
G1 X63.2 Y5.4 F500 M3 S128
G1 X64.5 Y5.4 F1500 M3 S0
G1 X64.9 Y5.4 F500 M3 S128
G1 X66.5 Y5.4 F1500 M3 S0
G1 X66.9 Y5.4 F500 M3 S128
G1 X67.5 Y5.4 F1500 M3 S0
G1 X67.8 Y5.4 F500 M3 S128
G1 X71.2 Y5.4 F1500 M3 S0
G1 X71.3 Y5.4 F500 M3 S128
G1 X72.8 Y5.4 F1500 M3 S0
G1 X72.9 Y5.4 F500 M3 S128
G1 X76.9 Y5.4 F1500 M3 S0
G1 X77.3 Y5.4 F500 M3 S128
G1 X83.7 Y5.4 F1500 M3 S0
G1 X83.8 Y5.4 F500 M3 S128
G1 X83.8 Y5.5 F1500 M3 S0
G1 X83.7 Y5.5 F500 M3 S128
G1 X77.3 Y5.5 F1500 M3 S0
G1 X76.9 Y5.5 F500 M3 S128
G1 X72.9 Y5.5 F1500 M3 S0
G1 X72.8 Y5.5 F500 M3 S128
G1 X71.3 Y5.5 F1500 M3 S0
G1 X71.2 Y5.5 F500 M3 S128
G1 X67.8 Y5.5 F1500 M3 S0
G1 X67.5 Y5.5 F500 M3 S128
G1 X66.9 Y5.5 F1500 M3 S0
G1 X66.5 Y5.5 F500 M3 S128
G1 X64.9 Y5.5 F1500 M3 S0
G1 X64.4 Y5.5 F500 M3 S128
G1 X63.3 Y5.5 F1500 M3 S0
G1 X62.9 Y5.5 F500 M3 S128
G1 X61.3 Y5.5 F1500 M3 S0
G1 X60.8 Y5.5 F500 M3 S128
G1 X59.7 Y5.5 F1500 M3 S0
G1 X59.3 Y5.5 F500 M3 S128
G1 X57 Y5.5 F1500 M3 S0
G1 X56.7 Y5.5 F500 M3 S128
G1 X56 Y5.5 F1500 M3 S0
G1 X55.7 Y5.5 F500 M3 S128
G1 X53.1 Y5.5 F1500 M3 S0
G1 X53 Y5.5 F500 M3 S128
G1 X53 Y5.6 F1500 M3 S0
G1 X53.1 Y5.6 F500 M3 S128
G1 X55.7 Y5.6 F1500 M3 S0
G1 X56.1 Y5.6 F500 M3 S128
G1 X56.6 Y5.6 F1500 M3 S0
G1 X57 Y5.6 F500 M3 S128
G1 X59.3 Y5.6 F1500 M3 S0
G1 X59.9 Y5.6 F500 M3 S128
G1 X60.7 Y5.6 F1500 M3 S0
G1 X61.2 Y5.6 F500 M3 S128
G1 X62.9 Y5.6 F1500 M3 S0
G1 X63.5 Y5.6 F500 M3 S128
G1 X64.3 Y5.6 F1500 M3 S0
G1 X64.8 Y5.6 F500 M3 S128
G1 X66.5 Y5.6 F1500 M3 S0
G1 X66.9 Y5.6 F500 M3 S128
G1 X67.5 Y5.6 F1500 M3 S0
G1 X67.9 Y5.6 F500 M3 S128
G1 X71.2 Y5.6 F1500 M3 S0
G1 X71.3 Y5.6 F500 M3 S128
G1 X72.8 Y5.6 F1500 M3 S0
G1 X72.9 Y5.6 F500 M3 S128
G1 X83.7 Y5.6 F1500 M3 S0
G1 X83.8 Y5.6 F500 M3 S128
G1 X83.8 Y5.7 F1500 M3 S0
G1 X83.7 Y5.7 F500 M3 S128
G1 X72.9 Y5.7 F1500 M3 S0
G1 X72.8 Y5.7 F500 M3 S128
G1 X71.3 Y5.7 F1500 M3 S0
G1 X71.2 Y5.7 F500 M3 S128
G1 X68.1 Y5.7 F1500 M3 S0
G1 X67.5 Y5.7 F500 M3 S128
G1 X66.9 Y5.7 F1500 M3 S0
G1 X66.6 Y5.7 F500 M3 S128
G1 X64.8 Y5.7 F1500 M3 S0
G1 X63 Y5.7 F500 M3 S128
G1 X61.2 Y5.7 F1500 M3 S0
G1 X59.4 Y5.7 F500 M3 S128
G1 X57 Y5.7 F1500 M3 S0
G1 X56.5 Y5.7 F500 M3 S128
G1 X56.2 Y5.7 F1500 M3 S0
G1 X55.7 Y5.7 F500 M3 S128
G1 X53.1 Y5.7 F1500 M3 S0
G1 X53 Y5.7 F500 M3 S128
G1 X53 Y5.8 F1500 M3 S0
G1 X53.1 Y5.8 F500 M3 S128
G1 X55.7 Y5.8 F1500 M3 S0
G1 X57 Y5.8 F500 M3 S128
G1 X59.5 Y5.8 F1500 M3 S0
G1 X61.1 Y5.8 F500 M3 S128
G1 X63.1 Y5.8 F1500 M3 S0
G1 X64.7 Y5.8 F500 M3 S128
G1 X66.6 Y5.8 F1500 M3 S0
G1 X66.9 Y5.8 F500 M3 S128
G1 X67.5 Y5.8 F1500 M3 S0
G1 X68.3 Y5.8 F500 M3 S128
G1 X71.2 Y5.8 F1500 M3 S0
G1 X71.3 Y5.8 F500 M3 S128
G1 X72.8 Y5.8 F1500 M3 S0
G1 X72.9 Y5.8 F500 M3 S128
G1 X83.7 Y5.8 F1500 M3 S0
G1 X83.8 Y5.8 F500 M3 S128
G1 X83.8 Y5.9 F1500 M3 S0
G1 X83.7 Y5.9 F500 M3 S128
G1 X72.9 Y5.9 F1500 M3 S0
G1 X72.8 Y5.9 F500 M3 S128
G1 X71.3 Y5.9 F1500 M3 S0
G1 X71.2 Y5.9 F500 M3 S128
G1 X68.4 Y5.9 F1500 M3 S0
G1 X67.4 Y5.9 F500 M3 S128
G1 X67 Y5.9 F1500 M3 S0
G1 X66.6 Y5.9 F500 M3 S128
G1 X64.6 Y5.9 F1500 M3 S0
G1 X63.2 Y5.9 F500 M3 S128
G1 X61 Y5.9 F1500 M3 S0
G1 X59.6 Y5.9 F500 M3 S128
G1 X56.9 Y5.9 F1500 M3 S0
G1 X55.8 Y5.9 F500 M3 S128
G1 X53.1 Y5.9 F1500 M3 S0
G1 X53 Y5.9 F500 M3 S128
G1 X53 Y6 F1500 M3 S0
G1 X53.1 Y6 F500 M3 S128
G1 X55.9 Y6 F1500 M3 S0
G1 X56.8 Y6 F500 M3 S128
G1 X59.7 Y6 F1500 M3 S0
G1 X60.8 Y6 F500 M3 S128
G1 X63.3 Y6 F1500 M3 S0
G1 X64.4 Y6 F500 M3 S128
G1 X66.6 Y6 F1500 M3 S0
G1 X68.6 Y6 F500 M3 S128
G1 X71.2 Y6 F1500 M3 S0
G1 X71.3 Y6 F500 M3 S128
G1 X72.8 Y6 F1500 M3 S0
G1 X72.9 Y6 F500 M3 S128
G1 X79.5 Y6 F1500 M3 S0
G1 X81.6 Y6 F500 M3 S128
G1 X83.7 Y6 F1500 M3 S0
G1 X83.8 Y6 F500 M3 S128
G1 X83.8 Y6.1 F1500 M3 S0
G1 X83.7 Y6.1 F500 M3 S128
G1 X81.6 Y6.1 F1500 M3 S0
G1 X79.5 Y6.1 F500 M3 S128
G1 X72.9 Y6.1 F1500 M3 S0
G1 X72.8 Y6.1 F500 M3 S128
G1 X71.3 Y6.1 F1500 M3 S0
G1 X71.2 Y6.1 F500 M3 S128
G1 X68.6 Y6.1 F1500 M3 S0
G1 X67.9 Y6.1 F500 M3 S128
G1 X67.7 Y6.1 F1500 M3 S0
G1 X66.7 Y6.1 F500 M3 S128
G1 X64.1 Y6.1 F1500 M3 S0
G1 X63.6 Y6.1 F500 M3 S128
G1 X60.5 Y6.1 F1500 M3 S0
G1 X60 Y6.1 F500 M3 S128
G1 X56.7 Y6.1 F1500 M3 S0
G1 X56 Y6.1 F500 M3 S128
G1 X53.1 Y6.1 F1500 M3 S0
G1 X53 Y6.1 F500 M3 S128
G1 X53 Y6.2 F1500 M3 S0
G1 X53.1 Y6.2 F500 M3 S128
G1 X66.7 Y6.2 F1500 M3 S0
G1 X67.7 Y6.2 F500 M3 S128
G1 X68.1 Y6.2 F1500 M3 S0
G1 X68.6 Y6.2 F500 M3 S128
G1 X71.2 Y6.2 F1500 M3 S0
G1 X71.3 Y6.2 F500 M3 S128
G1 X72.8 Y6.2 F1500 M3 S0
G1 X72.9 Y6.2 F500 M3 S128
G1 X79.5 Y6.2 F1500 M3 S0
G1 X81.6 Y6.2 F500 M3 S128
G1 X83.7 Y6.2 F1500 M3 S0
G1 X83.8 Y6.2 F500 M3 S128
G1 X83.8 Y6.3 F1500 M3 S0
G1 X83.7 Y6.3 F500 M3 S128
G1 X81.6 Y6.3 F1500 M3 S0
G1 X79.5 Y6.3 F500 M3 S128
G1 X72.9 Y6.3 F1500 M3 S0
G1 X72.8 Y6.3 F500 M3 S128
G1 X71.3 Y6.3 F1500 M3 S0
G1 X71.2 Y6.3 F500 M3 S128
G1 X68.6 Y6.3 F1500 M3 S0
G1 X68.3 Y6.3 F500 M3 S128
G1 X67.6 Y6.3 F1500 M3 S0
G1 X66.9 Y6.3 F500 M3 S128
G1 X53.1 Y6.3 F1500 M3 S0
G1 X53 Y6.3 F500 M3 S128
G1 X53 Y6.4 F1500 M3 S0
G1 X53.1 Y6.4 F500 M3 S128
G1 X55.6 Y6.4 F1500 M3 S0
G1 X56 Y6.4 F500 M3 S128
G1 X67.2 Y6.4 F1500 M3 S0
G1 X67.3 Y6.4 F500 M3 S128
G1 X68.5 Y6.4 F1500 M3 S0
G1 X68.6 Y6.4 F500 M3 S128
G1 X71.2 Y6.4 F1500 M3 S0
G1 X71.3 Y6.4 F500 M3 S128
G1 X72.8 Y6.4 F1500 M3 S0
G1 X72.9 Y6.4 F500 M3 S128
G1 X81.2 Y6.4 F1500 M3 S0
G1 X81.6 Y6.4 F500 M3 S128
G1 X83.7 Y6.4 F1500 M3 S0
G1 X83.8 Y6.4 F500 M3 S128
G1 X83.8 Y6.5 F1500 M3 S0
G1 X83.7 Y6.5 F500 M3 S128
G1 X81.6 Y6.5 F1500 M3 S0
G1 X81.2 Y6.5 F500 M3 S128
G1 X72.9 Y6.5 F1500 M3 S0
G1 X72.8 Y6.5 F500 M3 S128
G1 X71.3 Y6.5 F1500 M3 S0
G1 X71.2 Y6.5 F500 M3 S128
G1 X64.5 Y6.5 F1500 M3 S0
G1 X62.8 Y6.5 F500 M3 S128
G1 X60.9 Y6.5 F1500 M3 S0
G1 X59.2 Y6.5 F500 M3 S128
G1 X56.4 Y6.5 F1500 M3 S0
G1 X55.6 Y6.5 F500 M3 S128
G1 X53.1 Y6.5 F1500 M3 S0
G1 X53 Y6.5 F500 M3 S128
G1 X0.8 Y6.6 F1500 M3 S0
G1 X1.2 Y6.6 F500 M3 S128
G1 X1.6 Y6.6 F1500 M3 S0
G1 X3.1 Y6.6 F500 M3 S128
G1 X4 Y6.6 F1500 M3 S0
G1 X4.6 Y6.6 F500 M3 S128
G1 X6.3 Y6.6 F1500 M3 S0
G1 X7.1 Y6.6 F500 M3 S128
G1 X7.6 Y6.6 F1500 M3 S0
G1 X8.1 Y6.6 F500 M3 S128
G1 X9.1 Y6.6 F1500 M3 S0
G1 X9.6 Y6.6 F500 M3 S128
G1 X9.8 Y6.6 F1500 M3 S0
G1 X10.2 Y6.6 F500 M3 S128
G1 X10.7 Y6.6 F1500 M3 S0
G1 X11 Y6.6 F500 M3 S128
G1 X11.6 Y6.6 F1500 M3 S0
G1 X11.9 Y6.6 F500 M3 S128
G1 X12.3 Y6.6 F1500 M3 S0
G1 X12.7 Y6.6 F500 M3 S128
G1 X53 Y6.6 F1500 M3 S0
G1 X53.1 Y6.6 F500 M3 S128
G1 X55.6 Y6.6 F1500 M3 S0
G1 X56.7 Y6.6 F500 M3 S128
G1 X59.2 Y6.6 F1500 M3 S0
G1 X61.1 Y6.6 F500 M3 S128
G1 X62.8 Y6.6 F1500 M3 S0
G1 X64.7 Y6.6 F500 M3 S128
G1 X71.2 Y6.6 F1500 M3 S0
G1 X71.3 Y6.6 F500 M3 S128
G1 X72.8 Y6.6 F1500 M3 S0
G1 X72.9 Y6.6 F500 M3 S128
G1 X75.8 Y6.6 F1500 M3 S0
G1 X77.9 Y6.6 F500 M3 S128
G1 X81.2 Y6.6 F1500 M3 S0
G1 X81.6 Y6.6 F500 M3 S128
G1 X83.7 Y6.6 F1500 M3 S0
G1 X83.8 Y6.6 F500 M3 S128
G1 X83.8 Y6.7 F1500 M3 S0
G1 X83.7 Y6.7 F500 M3 S128
G1 X81.6 Y6.7 F1500 M3 S0
G1 X81.2 Y6.7 F500 M3 S128
G1 X77.9 Y6.7 F1500 M3 S0
G1 X75.8 Y6.7 F500 M3 S128
G1 X72.9 Y6.7 F1500 M3 S0
G1 X72.8 Y6.7 F500 M3 S128
G1 X71.3 Y6.7 F1500 M3 S0
G1 X71.2 Y6.7 F500 M3 S128
G1 X64.8 Y6.7 F1500 M3 S0
G1 X62.8 Y6.7 F500 M3 S128
G1 X61.2 Y6.7 F1500 M3 S0
G1 X59.2 Y6.7 F500 M3 S128
G1 X57.1 Y6.7 F1500 M3 S0
G1 X55.6 Y6.7 F500 M3 S128
G1 X53.1 Y6.7 F1500 M3 S0
G1 X53 Y6.7 F500 M3 S128
G1 X12.7 Y6.7 F1500 M3 S0
G1 X12.3 Y6.7 F500 M3 S128
G1 X11.9 Y6.7 F1500 M3 S0
G1 X11.6 Y6.7 F500 M3 S128
G1 X11 Y6.7 F1500 M3 S0
G1 X10.7 Y6.7 F500 M3 S128
G1 X10.2 Y6.7 F1500 M3 S0
G1 X9.8 Y6.7 F500 M3 S128
G1 X9.5 Y6.7 F1500 M3 S0
G1 X9.1 Y6.7 F500 M3 S128
G1 X8.1 Y6.7 F1500 M3 S0
G1 X7.7 Y6.7 F500 M3 S128
G1 X7.3 Y6.7 F1500 M3 S0
G1 X6.2 Y6.7 F500 M3 S128
G1 X4.6 Y6.7 F1500 M3 S0
G1 X4 Y6.7 F500 M3 S128
G1 X3.1 Y6.7 F1500 M3 S0
G1 X1.6 Y6.7 F500 M3 S128
G1 X1.2 Y6.7 F1500 M3 S0
G1 X0.8 Y6.7 F500 M3 S128
G1 X0.8 Y6.8 F1500 M3 S0
G1 X1.2 Y6.8 F500 M3 S128
G1 X1.6 Y6.8 F1500 M3 S0
G1 X3.1 Y6.8 F500 M3 S128
G1 X3.9 Y6.8 F1500 M3 S0
G1 X4.6 Y6.8 F500 M3 S128
G1 X6.1 Y6.8 F1500 M3 S0
G1 X7.4 Y6.8 F500 M3 S128
G1 X7.7 Y6.8 F1500 M3 S0
G1 X8.2 Y6.8 F500 M3 S128
G1 X9 Y6.8 F1500 M3 S0
G1 X9.5 Y6.8 F500 M3 S128
G1 X9.8 Y6.8 F1500 M3 S0
G1 X10.2 Y6.8 F500 M3 S128
G1 X10.6 Y6.8 F1500 M3 S0
G1 X11.1 Y6.8 F500 M3 S128
G1 X11.6 Y6.8 F1500 M3 S0
G1 X11.9 Y6.8 F500 M3 S128
G1 X12.3 Y6.8 F1500 M3 S0
G1 X12.7 Y6.8 F500 M3 S128
G1 X53 Y6.8 F1500 M3 S0
G1 X53.1 Y6.8 F500 M3 S128
G1 X55.8 Y6.8 F1500 M3 S0
G1 X57.5 Y6.8 F500 M3 S128
G1 X59.2 Y6.8 F1500 M3 S0
G1 X61.2 Y6.8 F500 M3 S128
G1 X62.8 Y6.8 F1500 M3 S0
G1 X64.8 Y6.8 F500 M3 S128
G1 X71.2 Y6.8 F1500 M3 S0
G1 X71.3 Y6.8 F500 M3 S128
G1 X72.8 Y6.8 F1500 M3 S0
G1 X72.9 Y6.8 F500 M3 S128
G1 X75.8 Y6.8 F1500 M3 S0
G1 X77.9 Y6.8 F500 M3 S128
G1 X81.2 Y6.8 F1500 M3 S0
G1 X81.6 Y6.8 F500 M3 S128
G1 X83.7 Y6.8 F1500 M3 S0
G1 X83.8 Y6.8 F500 M3 S128
G1 X83.8 Y6.9 F1500 M3 S0
G1 X83.7 Y6.9 F500 M3 S128
G1 X81.6 Y6.9 F1500 M3 S0
G1 X81.2 Y6.9 F500 M3 S128
G1 X77.9 Y6.9 F1500 M3 S0
G1 X75.8 Y6.9 F500 M3 S128
G1 X72.9 Y6.9 F1500 M3 S0
G1 X72.8 Y6.9 F500 M3 S128
G1 X71.3 Y6.9 F1500 M3 S0
G1 X71.2 Y6.9 F500 M3 S128
G1 X64.9 Y6.9 F1500 M3 S0
G1 X64.3 Y6.9 F500 M3 S128
G1 X61.3 Y6.9 F1500 M3 S0
G1 X60.7 Y6.9 F500 M3 S128
G1 X57.7 Y6.9 F1500 M3 S0
G1 X56.3 Y6.9 F500 M3 S128
G1 X53.1 Y6.9 F1500 M3 S0
G1 X53 Y6.9 F500 M3 S128
G1 X12.7 Y6.9 F1500 M3 S0
G1 X12.3 Y6.9 F500 M3 S128
G1 X11.9 Y6.9 F1500 M3 S0
G1 X11.6 Y6.9 F500 M3 S128
G1 X11.1 Y6.9 F1500 M3 S0
G1 X10.6 Y6.9 F500 M3 S128
G1 X10.2 Y6.9 F1500 M3 S0
G1 X9.8 Y6.9 F500 M3 S128
G1 X9.4 Y6.9 F1500 M3 S0
G1 X9 Y6.9 F500 M3 S128
G1 X8.2 Y6.9 F1500 M3 S0
G1 X7.8 Y6.9 F500 M3 S128
G1 X7.4 Y6.9 F1500 M3 S0
G1 X6.9 Y6.9 F500 M3 S128
G1 X6.5 Y6.9 F1500 M3 S0
G1 X6 Y6.9 F500 M3 S128
G1 X4.7 Y6.9 F1500 M3 S0
G1 X3.9 Y6.9 F500 M3 S128
G1 X2.2 Y6.9 F1500 M3 S0
G1 X1.7 Y6.9 F500 M3 S128
G1 X1.2 Y6.9 F1500 M3 S0
G1 X0.8 Y6.9 F500 M3 S128
G1 X0.8 Y7 F1500 M3 S0
G1 X1.2 Y7 F500 M3 S128
G1 X1.8 Y7 F1500 M3 S0
G1 X2.3 Y7 F500 M3 S128
G1 X3.9 Y7 F1500 M3 S0
G1 X4.7 Y7 F500 M3 S128
G1 X6 Y7 F1500 M3 S0
G1 X6.4 Y7 F500 M3 S128
G1 X7 Y7 F1500 M3 S0
G1 X7.5 Y7 F500 M3 S128
G1 X7.8 Y7 F1500 M3 S0
G1 X8.2 Y7 F500 M3 S128
G1 X9 Y7 F1500 M3 S0
G1 X9.4 Y7 F500 M3 S128
G1 X9.8 Y7 F1500 M3 S0
G1 X10.2 Y7 F500 M3 S128
G1 X10.5 Y7 F1500 M3 S0
G1 X11.2 Y7 F500 M3 S128
G1 X11.6 Y7 F1500 M3 S0
G1 X11.9 Y7 F500 M3 S128
G1 X12.3 Y7 F1500 M3 S0
G1 X12.7 Y7 F500 M3 S128
G1 X53 Y7 F1500 M3 S0
G1 X53.1 Y7 F500 M3 S128
G1 X56.8 Y7 F1500 M3 S0
G1 X57.7 Y7 F500 M3 S128
G1 X60.9 Y7 F1500 M3 S0
G1 X61.3 Y7 F500 M3 S128
G1 X64.5 Y7 F1500 M3 S0
G1 X64.9 Y7 F500 M3 S128
G1 X71.2 Y7 F1500 M3 S0
G1 X71.3 Y7 F500 M3 S128
G1 X72.8 Y7 F1500 M3 S0
G1 X72.9 Y7 F500 M3 S128
G1 X75.8 Y7 F1500 M3 S0
G1 X76.2 Y7 F500 M3 S128
G1 X77.5 Y7 F1500 M3 S0
G1 X77.9 Y7 F500 M3 S128
G1 X81.2 Y7 F1500 M3 S0
G1 X81.6 Y7 F500 M3 S128
G1 X83.7 Y7 F1500 M3 S0
G1 X83.8 Y7 F500 M3 S128
G1 X83.8 Y7.1 F1500 M3 S0
G1 X83.7 Y7.1 F500 M3 S128
G1 X81.6 Y7.1 F1500 M3 S0
G1 X81.2 Y7.1 F500 M3 S128
G1 X77.9 Y7.1 F1500 M3 S0
G1 X77.5 Y7.1 F500 M3 S128
G1 X76.2 Y7.1 F1500 M3 S0
G1 X75.8 Y7.1 F500 M3 S128
G1 X72.9 Y7.1 F1500 M3 S0
G1 X72.8 Y7.1 F500 M3 S128
G1 X71.3 Y7.1 F1500 M3 S0
G1 X71.2 Y7.1 F500 M3 S128
G1 X64.9 Y7.1 F1500 M3 S0
G1 X64.5 Y7.1 F500 M3 S128
G1 X61.3 Y7.1 F1500 M3 S0
G1 X60.9 Y7.1 F500 M3 S128
G1 X57.7 Y7.1 F1500 M3 S0
G1 X57.1 Y7.1 F500 M3 S128
G1 X53.1 Y7.1 F1500 M3 S0
G1 X53 Y7.1 F500 M3 S128
G1 X12.7 Y7.1 F1500 M3 S0
G1 X12.3 Y7.1 F500 M3 S128
G1 X11.9 Y7.1 F1500 M3 S0
G1 X11.6 Y7.1 F500 M3 S128
G1 X11.2 Y7.1 F1500 M3 S0
G1 X10.5 Y7.1 F500 M3 S128
G1 X10.2 Y7.1 F1500 M3 S0
G1 X9.8 Y7.1 F500 M3 S128
G1 X9.4 Y7.1 F1500 M3 S0
G1 X7.8 Y7.1 F500 M3 S128
G1 X7.5 Y7.1 F1500 M3 S0
G1 X7.1 Y7.1 F500 M3 S128
G1 X6.4 Y7.1 F1500 M3 S0
G1 X6 Y7.1 F500 M3 S128
G1 X4.7 Y7.1 F1500 M3 S0
G1 X3.8 Y7.1 F500 M3 S128
G1 X2.4 Y7.1 F1500 M3 S0
G1 X1.9 Y7.1 F500 M3 S128
G1 X1.2 Y7.1 F1500 M3 S0
G1 X0.8 Y7.1 F500 M3 S128
G1 X0.8 Y7.2 F1500 M3 S0
G1 X1.2 Y7.2 F500 M3 S128
G1 X2 Y7.2 F1500 M3 S0
G1 X2.5 Y7.2 F500 M3 S128
G1 X3.8 Y7.2 F1500 M3 S0
G1 X4.2 Y7.2 F500 M3 S128
G1 X4.4 Y7.2 F1500 M3 S0
G1 X4.8 Y7.2 F500 M3 S128
G1 X7.1 Y7.2 F1500 M3 S0
G1 X7.5 Y7.2 F500 M3 S128
G1 X7.9 Y7.2 F1500 M3 S0
G1 X9.3 Y7.2 F500 M3 S128
G1 X9.8 Y7.2 F1500 M3 S0
G1 X10.2 Y7.2 F500 M3 S128
G1 X10.5 Y7.2 F1500 M3 S0
G1 X10.8 Y7.2 F500 M3 S128
G1 X10.9 Y7.2 F1500 M3 S0
G1 X11.2 Y7.2 F500 M3 S128
G1 X11.6 Y7.2 F1500 M3 S0
G1 X11.9 Y7.2 F500 M3 S128
G1 X12.3 Y7.2 F1500 M3 S0
G1 X13.1 Y7.2 F500 M3 S128
G1 X53 Y7.2 F1500 M3 S0
G1 X53.1 Y7.2 F500 M3 S128
G1 X56.7 Y7.2 F1500 M3 S0
G1 X57.7 Y7.2 F500 M3 S128
G1 X61 Y7.2 F1500 M3 S0
G1 X61.3 Y7.2 F500 M3 S128
G1 X64.6 Y7.2 F1500 M3 S0
G1 X64.9 Y7.2 F500 M3 S128
G1 X71.2 Y7.2 F1500 M3 S0
G1 X71.3 Y7.2 F500 M3 S128
G1 X72.8 Y7.2 F1500 M3 S0
G1 X72.9 Y7.2 F500 M3 S128
G1 X75.8 Y7.2 F1500 M3 S0
G1 X76.2 Y7.2 F500 M3 S128
G1 X77.5 Y7.2 F1500 M3 S0
G1 X77.9 Y7.2 F500 M3 S128
G1 X81.2 Y7.2 F1500 M3 S0
G1 X81.6 Y7.2 F500 M3 S128
G1 X83.7 Y7.2 F1500 M3 S0
G1 X83.8 Y7.2 F500 M3 S128
G1 X83.8 Y7.3 F1500 M3 S0
G1 X83.7 Y7.3 F500 M3 S128
G1 X77.9 Y7.3 F1500 M3 S0
G1 X77.5 Y7.3 F500 M3 S128
G1 X76.2 Y7.3 F1500 M3 S0
G1 X75.8 Y7.3 F500 M3 S128
G1 X72.9 Y7.3 F1500 M3 S0
G1 X72.8 Y7.3 F500 M3 S128
G1 X71.3 Y7.3 F1500 M3 S0
G1 X71.2 Y7.3 F500 M3 S128
G1 X64.9 Y7.3 F1500 M3 S0
G1 X64.6 Y7.3 F500 M3 S128
G1 X61.3 Y7.3 F1500 M3 S0
G1 X61 Y7.3 F500 M3 S128
G1 X57.6 Y7.3 F1500 M3 S0
G1 X56.3 Y7.3 F500 M3 S128
G1 X53.1 Y7.3 F1500 M3 S0
G1 X53 Y7.3 F500 M3 S128
G1 X13.5 Y7.3 F1500 M3 S0
G1 X12.3 Y7.3 F500 M3 S128
G1 X11.9 Y7.3 F1500 M3 S0
G1 X11.6 Y7.3 F500 M3 S128
G1 X11.3 Y7.3 F1500 M3 S0
G1 X10.9 Y7.3 F500 M3 S128
G1 X10.8 Y7.3 F1500 M3 S0
G1 X10.4 Y7.3 F500 M3 S128
G1 X10.2 Y7.3 F1500 M3 S0
G1 X9.8 Y7.3 F500 M3 S128
G1 X9.3 Y7.3 F1500 M3 S0
G1 X7.9 Y7.3 F500 M3 S128
G1 X7.5 Y7.3 F1500 M3 S0
G1 X7.1 Y7.3 F500 M3 S128
G1 X4.8 Y7.3 F1500 M3 S0
G1 X4.4 Y7.3 F500 M3 S128
G1 X4.2 Y7.3 F1500 M3 S0
G1 X3.8 Y7.3 F500 M3 S128
G1 X2.6 Y7.3 F1500 M3 S0
G1 X2.1 Y7.3 F500 M3 S128
G1 X1.2 Y7.3 F1500 M3 S0
G1 X0.8 Y7.3 F500 M3 S128
G1 X0.8 Y7.4 F1500 M3 S0
G1 X1.2 Y7.4 F500 M3 S128
G1 X2.2 Y7.4 F1500 M3 S0
G1 X2.7 Y7.4 F500 M3 S128
G1 X3.7 Y7.4 F1500 M3 S0
G1 X4.2 Y7.4 F500 M3 S128
G1 X4.4 Y7.4 F1500 M3 S0
G1 X4.8 Y7.4 F500 M3 S128
G1 X7.1 Y7.4 F1500 M3 S0
G1 X7.5 Y7.4 F500 M3 S128
G1 X7.9 Y7.4 F1500 M3 S0
G1 X8.3 Y7.4 F500 M3 S128
G1 X8.9 Y7.4 F1500 M3 S0
G1 X9.3 Y7.4 F500 M3 S128
G1 X9.8 Y7.4 F1500 M3 S0
G1 X10.2 Y7.4 F500 M3 S128
G1 X10.4 Y7.4 F1500 M3 S0
G1 X10.8 Y7.4 F500 M3 S128
G1 X11 Y7.4 F1500 M3 S0
G1 X11.3 Y7.4 F500 M3 S128
G1 X11.6 Y7.4 F1500 M3 S0
G1 X11.9 Y7.4 F500 M3 S128
G1 X12.3 Y7.4 F1500 M3 S0
G1 X13.6 Y7.4 F500 M3 S128
G1 X53 Y7.4 F1500 M3 S0
G1 X53.1 Y7.4 F500 M3 S128
G1 X55.9 Y7.4 F1500 M3 S0
G1 X57.2 Y7.4 F500 M3 S128
G1 X60.9 Y7.4 F1500 M3 S0
G1 X61.3 Y7.4 F500 M3 S128
G1 X64.5 Y7.4 F1500 M3 S0
G1 X64.9 Y7.4 F500 M3 S128
G1 X66.5 Y7.4 F1500 M3 S0
G1 X68.6 Y7.4 F500 M3 S128
G1 X71.2 Y7.4 F1500 M3 S0
G1 X71.3 Y7.4 F500 M3 S128
G1 X72.8 Y7.4 F1500 M3 S0
G1 X72.9 Y7.4 F500 M3 S128
G1 X75.9 Y7.4 F1500 M3 S0
G1 X76.2 Y7.4 F500 M3 S128
G1 X77.5 Y7.4 F1500 M3 S0
G1 X77.9 Y7.4 F500 M3 S128
G1 X83.7 Y7.4 F1500 M3 S0
G1 X83.8 Y7.4 F500 M3 S128
G1 X83.8 Y7.5 F1500 M3 S0
G1 X83.7 Y7.5 F500 M3 S128
G1 X77.9 Y7.5 F1500 M3 S0
G1 X77.5 Y7.5 F500 M3 S128
G1 X76.2 Y7.5 F1500 M3 S0
G1 X75.9 Y7.5 F500 M3 S128
G1 X72.9 Y7.5 F1500 M3 S0
G1 X72.8 Y7.5 F500 M3 S128
G1 X71.3 Y7.5 F1500 M3 S0
G1 X71.2 Y7.5 F500 M3 S128
G1 X68.6 Y7.5 F1500 M3 S0
G1 X66.5 Y7.5 F500 M3 S128
G1 X64.9 Y7.5 F1500 M3 S0
G1 X64.5 Y7.5 F500 M3 S128
G1 X61.3 Y7.5 F1500 M3 S0
G1 X60.9 Y7.5 F500 M3 S128
G1 X56.8 Y7.5 F1500 M3 S0
G1 X55.6 Y7.5 F500 M3 S128
G1 X53.1 Y7.5 F1500 M3 S0
G1 X53 Y7.5 F500 M3 S128
G1 X13.7 Y7.5 F1500 M3 S0
G1 X12.3 Y7.5 F500 M3 S128
G1 X11.9 Y7.5 F1500 M3 S0
G1 X11.6 Y7.5 F500 M3 S128
G1 X11.4 Y7.5 F1500 M3 S0
G1 X11 Y7.5 F500 M3 S128
G1 X10.7 Y7.5 F1500 M3 S0
G1 X10.3 Y7.5 F500 M3 S128
G1 X10.2 Y7.5 F1500 M3 S0
G1 X9.8 Y7.5 F500 M3 S128
G1 X9.2 Y7.5 F1500 M3 S0
G1 X8.8 Y7.5 F500 M3 S128
G1 X8.4 Y7.5 F1500 M3 S0
G1 X8 Y7.5 F500 M3 S128
G1 X7.5 Y7.5 F1500 M3 S0
G1 X7 Y7.5 F500 M3 S128
G1 X6.5 Y7.5 F1500 M3 S0
G1 X6 Y7.5 F500 M3 S128
G1 X4.9 Y7.5 F1500 M3 S0
G1 X4.4 Y7.5 F500 M3 S128
G1 X4.1 Y7.5 F1500 M3 S0
G1 X3.7 Y7.5 F500 M3 S128
G1 X2.8 Y7.5 F1500 M3 S0
G1 X2.3 Y7.5 F500 M3 S128
G1 X1.2 Y7.5 F1500 M3 S0
G1 X0.8 Y7.5 F500 M3 S128
G1 X0.8 Y7.6 F1500 M3 S0
G1 X1.2 Y7.6 F500 M3 S128
G1 X2.4 Y7.6 F1500 M3 S0
G1 X2.9 Y7.6 F500 M3 S128
G1 X3.7 Y7.6 F1500 M3 S0
G1 X4.1 Y7.6 F500 M3 S128
G1 X4.5 Y7.6 F1500 M3 S0
G1 X4.9 Y7.6 F500 M3 S128
G1 X6 Y7.6 F1500 M3 S0
G1 X6.7 Y7.6 F500 M3 S128
G1 X6.8 Y7.6 F1500 M3 S0
G1 X7.4 Y7.6 F500 M3 S128
G1 X8 Y7.6 F1500 M3 S0
G1 X8.4 Y7.6 F500 M3 S128
G1 X8.8 Y7.6 F1500 M3 S0
G1 X9.2 Y7.6 F500 M3 S128
G1 X9.8 Y7.6 F1500 M3 S0
G1 X10.2 Y7.6 F500 M3 S128
G1 X10.3 Y7.6 F1500 M3 S0
G1 X10.7 Y7.6 F500 M3 S128
G1 X11 Y7.6 F1500 M3 S0
G1 X11.4 Y7.6 F500 M3 S128
G1 X11.6 Y7.6 F1500 M3 S0
G1 X11.9 Y7.6 F500 M3 S128
G1 X12.3 Y7.6 F1500 M3 S0
G1 X12.7 Y7.6 F500 M3 S128
G1 X13.2 Y7.6 F1500 M3 S0
G1 X13.8 Y7.6 F500 M3 S128
G1 X53 Y7.6 F1500 M3 S0
G1 X53.1 Y7.6 F500 M3 S128
G1 X55.6 Y7.6 F1500 M3 S0
G1 X56.5 Y7.6 F500 M3 S128
G1 X60.8 Y7.6 F1500 M3 S0
G1 X61.3 Y7.6 F500 M3 S128
G1 X64.4 Y7.6 F1500 M3 S0
G1 X64.9 Y7.6 F500 M3 S128
G1 X66.5 Y7.6 F1500 M3 S0
G1 X68.6 Y7.6 F500 M3 S128
G1 X71.2 Y7.6 F1500 M3 S0
G1 X71.3 Y7.6 F500 M3 S128
G1 X72.8 Y7.6 F1500 M3 S0
G1 X72.9 Y7.6 F500 M3 S128
G1 X75.9 Y7.6 F1500 M3 S0
G1 X76.3 Y7.6 F500 M3 S128
G1 X77.4 Y7.6 F1500 M3 S0
G1 X77.9 Y7.6 F500 M3 S128
G1 X79.5 Y7.6 F1500 M3 S0
G1 X81.6 Y7.6 F500 M3 S128
G1 X83.7 Y7.6 F1500 M3 S0
G1 X83.8 Y7.6 F500 M3 S128
G1 X83.8 Y7.7 F1500 M3 S0
G1 X83.7 Y7.7 F500 M3 S128
G1 X81.6 Y7.7 F1500 M3 S0
G1 X79.5 Y7.7 F500 M3 S128
G1 X77.8 Y7.7 F1500 M3 S0
G1 X77.4 Y7.7 F500 M3 S128
G1 X76.4 Y7.7 F1500 M3 S0
G1 X75.9 Y7.7 F500 M3 S128
G1 X72.9 Y7.7 F1500 M3 S0
G1 X72.8 Y7.7 F500 M3 S128
G1 X71.3 Y7.7 F1500 M3 S0
G1 X71.2 Y7.7 F500 M3 S128
G1 X68.6 Y7.7 F1500 M3 S0
G1 X66.5 Y7.7 F500 M3 S128
G1 X64.8 Y7.7 F1500 M3 S0
G1 X64.2 Y7.7 F500 M3 S128
G1 X61.2 Y7.7 F1500 M3 S0
G1 X60.6 Y7.7 F500 M3 S128
G1 X56.4 Y7.7 F1500 M3 S0
G1 X55.6 Y7.7 F500 M3 S128
G1 X53.1 Y7.7 F1500 M3 S0
G1 X53 Y7.7 F500 M3 S128
G1 X13.8 Y7.7 F1500 M3 S0
G1 X13.3 Y7.7 F500 M3 S128
G1 X12.7 Y7.7 F1500 M3 S0
G1 X12.3 Y7.7 F500 M3 S128
G1 X11.9 Y7.7 F1500 M3 S0
G1 X11.6 Y7.7 F500 M3 S128
G1 X11.5 Y7.7 F1500 M3 S0
G1 X11.1 Y7.7 F500 M3 S128
G1 X10.6 Y7.7 F1500 M3 S0
G1 X10.3 Y7.7 F500 M3 S128
G1 X10.2 Y7.7 F1500 M3 S0
G1 X9.8 Y7.7 F500 M3 S128
G1 X9.2 Y7.7 F1500 M3 S0
G1 X8.8 Y7.7 F500 M3 S128
G1 X8.4 Y7.7 F1500 M3 S0
G1 X8 Y7.7 F500 M3 S128
G1 X7.4 Y7.7 F1500 M3 S0
G1 X6 Y7.7 F500 M3 S128
G1 X4.9 Y7.7 F1500 M3 S0
G1 X4.5 Y7.7 F500 M3 S128
G1 X4.1 Y7.7 F1500 M3 S0
G1 X3.6 Y7.7 F500 M3 S128
G1 X3 Y7.7 F1500 M3 S0
G1 X2.5 Y7.7 F500 M3 S128
G1 X1.2 Y7.7 F1500 M3 S0
G1 X0.8 Y7.7 F500 M3 S128
G1 X0.8 Y7.8 F1500 M3 S0
G1 X1.2 Y7.8 F500 M3 S128
G1 X2.6 Y7.8 F1500 M3 S0
G1 X3 Y7.8 F500 M3 S128
G1 X3.6 Y7.8 F1500 M3 S0
G1 X4.1 Y7.8 F500 M3 S128
G1 X4.5 Y7.8 F1500 M3 S0
G1 X5 Y7.8 F500 M3 S128
G1 X6 Y7.8 F1500 M3 S0
G1 X6.4 Y7.8 F500 M3 S128
G1 X6.5 Y7.8 F1500 M3 S0
G1 X7.2 Y7.8 F500 M3 S128
G1 X8.1 Y7.8 F1500 M3 S0
G1 X8.5 Y7.8 F500 M3 S128
G1 X8.7 Y7.8 F1500 M3 S0
G1 X9.1 Y7.8 F500 M3 S128
G1 X9.8 Y7.8 F1500 M3 S0
G1 X10.6 Y7.8 F500 M3 S128
G1 X11.1 Y7.8 F1500 M3 S0
G1 X11.5 Y7.8 F500 M3 S128
G1 X11.6 Y7.8 F1500 M3 S0
G1 X11.9 Y7.8 F500 M3 S128
G1 X12.3 Y7.8 F1500 M3 S0
G1 X12.7 Y7.8 F500 M3 S128
G1 X13.4 Y7.8 F1500 M3 S0
G1 X13.8 Y7.8 F500 M3 S128
G1 X53 Y7.8 F1500 M3 S0
G1 X53.1 Y7.8 F500 M3 S128
G1 X55.6 Y7.8 F1500 M3 S0
G1 X56.8 Y7.8 F500 M3 S128
G1 X59.2 Y7.8 F1500 M3 S0
G1 X61.2 Y7.8 F500 M3 S128
G1 X62.8 Y7.8 F1500 M3 S0
G1 X64.8 Y7.8 F500 M3 S128
G1 X71.2 Y7.8 F1500 M3 S0
G1 X71.3 Y7.8 F500 M3 S128
G1 X72.8 Y7.8 F1500 M3 S0
G1 X72.9 Y7.8 F500 M3 S128
G1 X76 Y7.8 F1500 M3 S0
G1 X76.6 Y7.8 F500 M3 S128
G1 X77.2 Y7.8 F1500 M3 S0
G1 X77.8 Y7.8 F500 M3 S128
G1 X79.5 Y7.8 F1500 M3 S0
G1 X81.6 Y7.8 F500 M3 S128
G1 X83.7 Y7.8 F1500 M3 S0
G1 X83.8 Y7.8 F500 M3 S128
G1 X83.8 Y7.9 F1500 M3 S0
G1 X83.7 Y7.9 F500 M3 S128
G1 X81.6 Y7.9 F1500 M3 S0
G1 X79.5 Y7.9 F500 M3 S128
G1 X77.7 Y7.9 F1500 M3 S0
G1 X76 Y7.9 F500 M3 S128
G1 X72.9 Y7.9 F1500 M3 S0
G1 X72.8 Y7.9 F500 M3 S128
G1 X71.3 Y7.9 F1500 M3 S0
G1 X71.2 Y7.9 F500 M3 S128
G1 X64.7 Y7.9 F1500 M3 S0
G1 X62.8 Y7.9 F500 M3 S128
G1 X61.1 Y7.9 F1500 M3 S0
G1 X59.2 Y7.9 F500 M3 S128
G1 X57.2 Y7.9 F1500 M3 S0
G1 X55.9 Y7.9 F500 M3 S128
G1 X53.1 Y7.9 F1500 M3 S0
G1 X53 Y7.9 F500 M3 S128
G1 X13.8 Y7.9 F1500 M3 S0
G1 X13.4 Y7.9 F500 M3 S128
G1 X12.7 Y7.9 F1500 M3 S0
G1 X12.3 Y7.9 F500 M3 S128
G1 X11.9 Y7.9 F1500 M3 S0
G1 X11.6 Y7.9 F500 M3 S128
G1 X11.5 Y7.9 F1500 M3 S0
G1 X11.2 Y7.9 F500 M3 S128
G1 X10.5 Y7.9 F1500 M3 S0
G1 X9.8 Y7.9 F500 M3 S128
G1 X9.1 Y7.9 F1500 M3 S0
G1 X8.7 Y7.9 F500 M3 S128
G1 X8.5 Y7.9 F1500 M3 S0
G1 X8.1 Y7.9 F500 M3 S128
G1 X7 Y7.9 F1500 M3 S0
G1 X6.7 Y7.9 F500 M3 S128
G1 X6.4 Y7.9 F1500 M3 S0
G1 X6 Y7.9 F500 M3 S128
G1 X5 Y7.9 F1500 M3 S0
G1 X4.6 Y7.9 F500 M3 S128
G1 X4 Y7.9 F1500 M3 S0
G1 X3.6 Y7.9 F500 M3 S128
G1 X3.1 Y7.9 F1500 M3 S0
G1 X2.7 Y7.9 F500 M3 S128
G1 X1.2 Y7.9 F1500 M3 S0
G1 X0.8 Y7.9 F500 M3 S128
G1 X0.3 Y7.9 F1500 M3 S0
G1 X0.2 Y7.9 F500 M3 S128
G1 X0.2 Y8 F1500 M3 S0
G1 X0.4 Y8 F500 M3 S128
G1 X0.8 Y8 F1500 M3 S0
G1 X1.2 Y8 F500 M3 S128
G1 X1.6 Y8 F1500 M3 S0
G1 X2 Y8 F500 M3 S128
G1 X2.7 Y8 F1500 M3 S0
G1 X3.1 Y8 F500 M3 S128
G1 X3.5 Y8 F1500 M3 S0
G1 X4 Y8 F500 M3 S128
G1 X4.6 Y8 F1500 M3 S0
G1 X5 Y8 F500 M3 S128
G1 X6 Y8 F1500 M3 S0
G1 X6.4 Y8 F500 M3 S128
G1 X8.1 Y8 F1500 M3 S0
G1 X8.5 Y8 F500 M3 S128
G1 X8.7 Y8 F1500 M3 S0
G1 X9.1 Y8 F500 M3 S128
G1 X9.8 Y8 F1500 M3 S0
G1 X10.5 Y8 F500 M3 S128
G1 X11.2 Y8 F1500 M3 S0
G1 X11.9 Y8 F500 M3 S128
G1 X12.3 Y8 F1500 M3 S0
G1 X12.7 Y8 F500 M3 S128
G1 X13.4 Y8 F1500 M3 S0
G1 X13.8 Y8 F500 M3 S128
G1 X53 Y8 F1500 M3 S0
G1 X53.1 Y8 F500 M3 S128
G1 X56.3 Y8 F1500 M3 S0
G1 X57.5 Y8 F500 M3 S128
G1 X59.2 Y8 F1500 M3 S0
G1 X61 Y8 F500 M3 S128
G1 X62.8 Y8 F1500 M3 S0
G1 X64.6 Y8 F500 M3 S128
G1 X71.2 Y8 F1500 M3 S0
G1 X71.3 Y8 F500 M3 S128
G1 X72.8 Y8 F1500 M3 S0
G1 X72.9 Y8 F500 M3 S128
G1 X76.1 Y8 F1500 M3 S0
G1 X77.6 Y8 F500 M3 S128
G1 X79.5 Y8 F1500 M3 S0
G1 X79.9 Y8 F500 M3 S128
G1 X80.5 Y8 F1500 M3 S0
G1 X80.8 Y8 F500 M3 S128
G1 X83.7 Y8 F1500 M3 S0
G1 X83.8 Y8 F500 M3 S128
G1 X83.8 Y8.1 F1500 M3 S0
G1 X83.7 Y8.1 F500 M3 S128
G1 X80.8 Y8.1 F1500 M3 S0
G1 X80.5 Y8.1 F500 M3 S128
G1 X79.9 Y8.1 F1500 M3 S0
G1 X79.5 Y8.1 F500 M3 S128
G1 X77.5 Y8.1 F1500 M3 S0
G1 X76.2 Y8.1 F500 M3 S128
G1 X72.9 Y8.1 F1500 M3 S0
G1 X72.8 Y8.1 F500 M3 S128
G1 X71.3 Y8.1 F1500 M3 S0
G1 X71.2 Y8.1 F500 M3 S128
G1 X64.4 Y8.1 F1500 M3 S0
G1 X62.8 Y8.1 F500 M3 S128
G1 X60.8 Y8.1 F1500 M3 S0
G1 X59.2 Y8.1 F500 M3 S128
G1 X57.7 Y8.1 F1500 M3 S0
G1 X56.7 Y8.1 F500 M3 S128
G1 X53.1 Y8.1 F1500 M3 S0
G1 X53 Y8.1 F500 M3 S128
G1 X13.8 Y8.1 F1500 M3 S0
G1 X13.3 Y8.1 F500 M3 S128
G1 X12.7 Y8.1 F1500 M3 S0
G1 X12.3 Y8.1 F500 M3 S128
G1 X11.9 Y8.1 F1500 M3 S0
G1 X11.2 Y8.1 F500 M3 S128
G1 X10.5 Y8.1 F1500 M3 S0
G1 X9.8 Y8.1 F500 M3 S128
G1 X9 Y8.1 F1500 M3 S0
G1 X8.2 Y8.1 F500 M3 S128
G1 X6.4 Y8.1 F1500 M3 S0
G1 X6.1 Y8.1 F500 M3 S128
G1 X5.1 Y8.1 F1500 M3 S0
G1 X4.6 Y8.1 F500 M3 S128
G1 X4 Y8.1 F1500 M3 S0
G1 X3.5 Y8.1 F500 M3 S128
G1 X3.1 Y8.1 F1500 M3 S0
G1 X2.7 Y8.1 F500 M3 S128
G1 X2 Y8.1 F1500 M3 S0
G1 X1.6 Y8.1 F500 M3 S128
G1 X1.2 Y8.1 F1500 M3 S0
G1 X0.8 Y8.1 F500 M3 S128
G1 X0.6 Y8.1 F1500 M3 S0
G1 X0.2 Y8.1 F500 M3 S128
G1 X0.2 Y8.2 F1500 M3 S0
G1 X0.7 Y8.2 F500 M3 S128
G1 X0.8 Y8.2 F1500 M3 S0
G1 X1.2 Y8.2 F500 M3 S128
G1 X1.7 Y8.2 F1500 M3 S0
G1 X2.1 Y8.2 F500 M3 S128
G1 X2.6 Y8.2 F1500 M3 S0
G1 X3.1 Y8.2 F500 M3 S128
G1 X3.5 Y8.2 F1500 M3 S0
G1 X3.9 Y8.2 F500 M3 S128
G1 X4.7 Y8.2 F1500 M3 S0
G1 X5.1 Y8.2 F500 M3 S128
G1 X6.1 Y8.2 F1500 M3 S0
G1 X6.4 Y8.2 F500 M3 S128
G1 X8.2 Y8.2 F1500 M3 S0
G1 X9 Y8.2 F500 M3 S128
G1 X9.8 Y8.2 F1500 M3 S0
G1 X10.4 Y8.2 F500 M3 S128
G1 X11.3 Y8.2 F1500 M3 S0
G1 X11.9 Y8.2 F500 M3 S128
G1 X12.3 Y8.2 F1500 M3 S0
G1 X12.7 Y8.2 F500 M3 S128
G1 X13.2 Y8.2 F1500 M3 S0
G1 X13.8 Y8.2 F500 M3 S128
G1 X53 Y8.2 F1500 M3 S0
G1 X53.1 Y8.2 F500 M3 S128
G1 X57.1 Y8.2 F1500 M3 S0
G1 X57.7 Y8.2 F500 M3 S128
G1 X66.5 Y8.2 F1500 M3 S0
G1 X68.6 Y8.2 F500 M3 S128
G1 X71.2 Y8.2 F1500 M3 S0
G1 X71.3 Y8.2 F500 M3 S128
G1 X72.8 Y8.2 F1500 M3 S0
G1 X72.9 Y8.2 F500 M3 S128
G1 X76.4 Y8.2 F1500 M3 S0
G1 X77.3 Y8.2 F500 M3 S128
G1 X79.5 Y8.2 F1500 M3 S0
G1 X79.9 Y8.2 F500 M3 S128
G1 X80.5 Y8.2 F1500 M3 S0
G1 X80.8 Y8.2 F500 M3 S128
G1 X83.7 Y8.2 F1500 M3 S0
G1 X83.8 Y8.2 F500 M3 S128
G1 X83.8 Y8.3 F1500 M3 S0
G1 X83.7 Y8.3 F500 M3 S128
G1 X80.8 Y8.3 F1500 M3 S0
G1 X80.5 Y8.3 F500 M3 S128
G1 X79.9 Y8.3 F1500 M3 S0
G1 X79.5 Y8.3 F500 M3 S128
G1 X72.9 Y8.3 F1500 M3 S0
G1 X72.8 Y8.3 F500 M3 S128
G1 X71.3 Y8.3 F1500 M3 S0
G1 X71.2 Y8.3 F500 M3 S128
G1 X68.6 Y8.3 F1500 M3 S0
G1 X66.5 Y8.3 F500 M3 S128
G1 X57.7 Y8.3 F1500 M3 S0
G1 X56.8 Y8.3 F500 M3 S128
G1 X53.1 Y8.3 F1500 M3 S0
G1 X53 Y8.3 F500 M3 S128
G1 X13.7 Y8.3 F1500 M3 S0
G1 X12.3 Y8.3 F500 M3 S128
G1 X11.9 Y8.3 F1500 M3 S0
G1 X11.3 Y8.3 F500 M3 S128
G1 X10.4 Y8.3 F1500 M3 S0
G1 X9.8 Y8.3 F500 M3 S128
G1 X9 Y8.3 F1500 M3 S0
G1 X8.2 Y8.3 F500 M3 S128
G1 X7.4 Y8.3 F1500 M3 S0
G1 X6.1 Y8.3 F500 M3 S128
G1 X5.1 Y8.3 F1500 M3 S0
G1 X4.7 Y8.3 F500 M3 S128
G1 X3.9 Y8.3 F1500 M3 S0
G1 X3.4 Y8.3 F500 M3 S128
G1 X3 Y8.3 F1500 M3 S0
G1 X2.4 Y8.3 F500 M3 S128
G1 X2.3 Y8.3 F1500 M3 S0
G1 X1.7 Y8.3 F500 M3 S128
G1 X1.2 Y8.3 F1500 M3 S0
G1 X0.3 Y8.3 F500 M3 S128
G1 X0.5 Y8.4 F1500 M3 S0
G1 X1.2 Y8.4 F500 M3 S128
G1 X1.8 Y8.4 F1500 M3 S0
G1 X3 Y8.4 F500 M3 S128
G1 X3.4 Y8.4 F1500 M3 S0
G1 X3.9 Y8.4 F500 M3 S128
G1 X4.7 Y8.4 F1500 M3 S0
G1 X5.2 Y8.4 F500 M3 S128
G1 X6.1 Y8.4 F1500 M3 S0
G1 X7.4 Y8.4 F500 M3 S128
G1 X8.3 Y8.4 F1500 M3 S0
G1 X8.9 Y8.4 F500 M3 S128
G1 X9.8 Y8.4 F1500 M3 S0
G1 X10.3 Y8.4 F500 M3 S128
G1 X11.4 Y8.4 F1500 M3 S0
G1 X11.9 Y8.4 F500 M3 S128
G1 X12.3 Y8.4 F1500 M3 S0
G1 X13.6 Y8.4 F500 M3 S128
G1 X53 Y8.4 F1500 M3 S0
G1 X53.1 Y8.4 F500 M3 S128
G1 X56.4 Y8.4 F1500 M3 S0
G1 X57.7 Y8.4 F500 M3 S128
G1 X66.5 Y8.4 F1500 M3 S0
G1 X68.6 Y8.4 F500 M3 S128
G1 X71.2 Y8.4 F1500 M3 S0
G1 X71.3 Y8.4 F500 M3 S128
G1 X72.8 Y8.4 F1500 M3 S0
G1 X72.9 Y8.4 F500 M3 S128
G1 X79.5 Y8.4 F1500 M3 S0
G1 X79.9 Y8.4 F500 M3 S128
G1 X80.5 Y8.4 F1500 M3 S0
G1 X80.8 Y8.4 F500 M3 S128
G1 X83.7 Y8.4 F1500 M3 S0
G1 X83.8 Y8.4 F500 M3 S128
G1 X83.8 Y8.5 F1500 M3 S0
G1 X83.7 Y8.5 F500 M3 S128
G1 X80.8 Y8.5 F1500 M3 S0
G1 X80.5 Y8.5 F500 M3 S128
G1 X79.9 Y8.5 F1500 M3 S0
G1 X79.5 Y8.5 F500 M3 S128
G1 X72.9 Y8.5 F1500 M3 S0
G1 X72.8 Y8.5 F500 M3 S128
G1 X71.3 Y8.5 F1500 M3 S0
G1 X71.2 Y8.5 F500 M3 S128
G1 X68.6 Y8.5 F1500 M3 S0
G1 X66.6 Y8.5 F500 M3 S128
G1 X57.5 Y8.5 F1500 M3 S0
G1 X55.9 Y8.5 F500 M3 S128
G1 X53.1 Y8.5 F1500 M3 S0
G1 X53 Y8.5 F500 M3 S128
G1 X13.5 Y8.5 F1500 M3 S0
G1 X12.3 Y8.5 F500 M3 S128
G1 X11.9 Y8.5 F1500 M3 S0
G1 X11.4 Y8.5 F500 M3 S128
G1 X10.3 Y8.5 F1500 M3 S0
G1 X9.8 Y8.5 F500 M3 S128
G1 X8.9 Y8.5 F1500 M3 S0
G1 X8.3 Y8.5 F500 M3 S128
G1 X7.4 Y8.5 F1500 M3 S0
G1 X6.1 Y8.5 F500 M3 S128
G1 X5.2 Y8.5 F1500 M3 S0
G1 X4.7 Y8.5 F500 M3 S128
G1 X3.9 Y8.5 F1500 M3 S0
G1 X3.4 Y8.5 F500 M3 S128
G1 X2.9 Y8.5 F1500 M3 S0
G1 X1.9 Y8.5 F500 M3 S128
G1 X1.2 Y8.5 F1500 M3 S0
G1 X0.6 Y8.5 F500 M3 S128
G1 X0.8 Y8.6 F1500 M3 S0
G1 X1.2 Y8.6 F500 M3 S128
G1 X2.1 Y8.6 F1500 M3 S0
G1 X2.7 Y8.6 F500 M3 S128
G1 X3.3 Y8.6 F1500 M3 S0
G1 X3.8 Y8.6 F500 M3 S128
G1 X4.8 Y8.6 F1500 M3 S0
G1 X5.2 Y8.6 F500 M3 S128
G1 X6.1 Y8.6 F1500 M3 S0
G1 X7.4 Y8.6 F500 M3 S128
G1 X8.4 Y8.6 F1500 M3 S0
G1 X8.9 Y8.6 F500 M3 S128
G1 X9.8 Y8.6 F1500 M3 S0
G1 X10.3 Y8.6 F500 M3 S128
G1 X11.4 Y8.6 F1500 M3 S0
G1 X11.9 Y8.6 F500 M3 S128
G1 X12.3 Y8.6 F1500 M3 S0
G1 X13.1 Y8.6 F500 M3 S128
G1 X53 Y8.6 F1500 M3 S0
G1 X53.1 Y8.6 F500 M3 S128
G1 X55.6 Y8.6 F1500 M3 S0
G1 X57.2 Y8.6 F500 M3 S128
G1 X59.2 Y8.6 F1500 M3 S0
G1 X61.3 Y8.6 F500 M3 S128
G1 X62.8 Y8.6 F1500 M3 S0
G1 X64.9 Y8.6 F500 M3 S128
G1 X66.7 Y8.6 F1500 M3 S0
G1 X67.3 Y8.6 F500 M3 S128
G1 X71.2 Y8.6 F1500 M3 S0
G1 X71.3 Y8.6 F500 M3 S128
G1 X72.8 Y8.6 F1500 M3 S0
G1 X72.9 Y8.6 F500 M3 S128
G1 X75.8 Y8.6 F1500 M3 S0
G1 X77.9 Y8.6 F500 M3 S128
G1 X79.5 Y8.6 F1500 M3 S0
G1 X79.9 Y8.6 F500 M3 S128
G1 X80.5 Y8.6 F1500 M3 S0
G1 X80.8 Y8.6 F500 M3 S128
G1 X83.7 Y8.6 F1500 M3 S0
G1 X83.8 Y8.6 F500 M3 S128
G1 X83.8 Y8.7 F1500 M3 S0
G1 X83.7 Y8.7 F500 M3 S128
G1 X80.8 Y8.7 F1500 M3 S0
G1 X80.5 Y8.7 F500 M3 S128
G1 X79.9 Y8.7 F1500 M3 S0
G1 X79.5 Y8.7 F500 M3 S128
G1 X77.9 Y8.7 F1500 M3 S0
G1 X75.8 Y8.7 F500 M3 S128
G1 X72.9 Y8.7 F1500 M3 S0
G1 X72.8 Y8.7 F500 M3 S128
G1 X71.3 Y8.7 F1500 M3 S0
G1 X71.2 Y8.7 F500 M3 S128
G1 X67.5 Y8.7 F1500 M3 S0
G1 X66.9 Y8.7 F500 M3 S128
G1 X64.9 Y8.7 F1500 M3 S0
G1 X62.8 Y8.7 F500 M3 S128
G1 X61.3 Y8.7 F1500 M3 S0
G1 X59.2 Y8.7 F500 M3 S128
G1 X56.8 Y8.7 F1500 M3 S0
G1 X55.6 Y8.7 F500 M3 S128
G1 X53.1 Y8.7 F1500 M3 S0
G1 X53 Y8.7 F500 M3 S128
G1 X53 Y8.8 F1500 M3 S0
G1 X53.1 Y8.8 F500 M3 S128
G1 X55.6 Y8.8 F1500 M3 S0
G1 X56.4 Y8.8 F500 M3 S128
G1 X59.2 Y8.8 F1500 M3 S0
G1 X61.3 Y8.8 F500 M3 S128
G1 X62.8 Y8.8 F1500 M3 S0
G1 X64.9 Y8.8 F500 M3 S128
G1 X67 Y8.8 F1500 M3 S0
G1 X67.6 Y8.8 F500 M3 S128
G1 X71.2 Y8.8 F1500 M3 S0
G1 X71.3 Y8.8 F500 M3 S128
G1 X72.8 Y8.8 F1500 M3 S0
G1 X72.9 Y8.8 F500 M3 S128
G1 X75.8 Y8.8 F1500 M3 S0
G1 X77.9 Y8.8 F500 M3 S128
G1 X79.5 Y8.8 F1500 M3 S0
G1 X79.9 Y8.8 F500 M3 S128
G1 X83.7 Y8.8 F1500 M3 S0
G1 X83.8 Y8.8 F500 M3 S128
G1 X83.8 Y8.9 F1500 M3 S0
G1 X83.7 Y8.9 F500 M3 S128
G1 X77.9 Y8.9 F1500 M3 S0
G1 X75.8 Y8.9 F500 M3 S128
G1 X72.9 Y8.9 F1500 M3 S0
G1 X72.8 Y8.9 F500 M3 S128
G1 X71.3 Y8.9 F1500 M3 S0
G1 X71.2 Y8.9 F500 M3 S128
G1 X67.8 Y8.9 F1500 M3 S0
G1 X67.1 Y8.9 F500 M3 S128
G1 X64.9 Y8.9 F1500 M3 S0
G1 X62.9 Y8.9 F500 M3 S128
G1 X61.3 Y8.9 F1500 M3 S0
G1 X59.3 Y8.9 F500 M3 S128
G1 X56 Y8.9 F1500 M3 S0
G1 X55.6 Y8.9 F500 M3 S128
G1 X53.1 Y8.9 F1500 M3 S0
G1 X53 Y8.9 F500 M3 S128
G1 X53 Y9 F1500 M3 S0
G1 X53.1 Y9 F500 M3 S128
G1 X55.6 Y9 F1500 M3 S0
G1 X55.7 Y9 F500 M3 S128
G1 X59.4 Y9 F1500 M3 S0
G1 X60 Y9 F500 M3 S128
G1 X63 Y9 F1500 M3 S0
G1 X63.6 Y9 F500 M3 S128
G1 X67.3 Y9 F1500 M3 S0
G1 X67.9 Y9 F500 M3 S128
G1 X71.2 Y9 F1500 M3 S0
G1 X71.3 Y9 F500 M3 S128
G1 X72.8 Y9 F1500 M3 S0
G1 X72.9 Y9 F500 M3 S128
G1 X75.8 Y9 F1500 M3 S0
G1 X76.2 Y9 F500 M3 S128
G1 X76.8 Y9 F1500 M3 S0
G1 X77.1 Y9 F500 M3 S128
G1 X83.7 Y9 F1500 M3 S0
G1 X83.8 Y9 F500 M3 S128
G1 X83.8 Y9.1 F1500 M3 S0
G1 X83.7 Y9.1 F500 M3 S128
G1 X79.9 Y9.1 F1500 M3 S0
G1 X79.5 Y9.1 F500 M3 S128
G1 X77.1 Y9.1 F1500 M3 S0
G1 X76.8 Y9.1 F500 M3 S128
G1 X76.2 Y9.1 F1500 M3 S0
G1 X75.8 Y9.1 F500 M3 S128
G1 X72.9 Y9.1 F1500 M3 S0
G1 X72.8 Y9.1 F500 M3 S128
G1 X71.3 Y9.1 F1500 M3 S0
G1 X71.2 Y9.1 F500 M3 S128
G1 X68 Y9.1 F1500 M3 S0
G1 X67.4 Y9.1 F500 M3 S128
G1 X63.8 Y9.1 F1500 M3 S0
G1 X63.2 Y9.1 F500 M3 S128
G1 X60.2 Y9.1 F1500 M3 S0
G1 X59.6 Y9.1 F500 M3 S128
G1 X53.1 Y9.1 F1500 M3 S0
G1 X53 Y9.1 F500 M3 S128
G1 X53 Y9.2 F1500 M3 S0
G1 X53.1 Y9.2 F500 M3 S128
G1 X59.7 Y9.2 F1500 M3 S0
G1 X60.3 Y9.2 F500 M3 S128
G1 X63.3 Y9.2 F1500 M3 S0
G1 X63.9 Y9.2 F500 M3 S128
G1 X67.6 Y9.2 F1500 M3 S0
G1 X68.2 Y9.2 F500 M3 S128
G1 X71.2 Y9.2 F1500 M3 S0
G1 X71.3 Y9.2 F500 M3 S128
G1 X72.8 Y9.2 F1500 M3 S0
G1 X72.9 Y9.2 F500 M3 S128
G1 X75.8 Y9.2 F1500 M3 S0
G1 X76.2 Y9.2 F500 M3 S128
G1 X76.8 Y9.2 F1500 M3 S0
G1 X77.1 Y9.2 F500 M3 S128
G1 X79.5 Y9.2 F1500 M3 S0
G1 X79.9 Y9.2 F500 M3 S128
G1 X83.7 Y9.2 F1500 M3 S0
G1 X83.8 Y9.2 F500 M3 S128
G1 X83.8 Y9.3 F1500 M3 S0
G1 X83.7 Y9.3 F500 M3 S128
G1 X79.9 Y9.3 F1500 M3 S0
G1 X79.5 Y9.3 F500 M3 S128
G1 X77.2 Y9.3 F1500 M3 S0
G1 X76.8 Y9.3 F500 M3 S128
G1 X76.2 Y9.3 F1500 M3 S0
G1 X75.8 Y9.3 F500 M3 S128
G1 X72.9 Y9.3 F1500 M3 S0
G1 X72.8 Y9.3 F500 M3 S128
G1 X71.3 Y9.3 F1500 M3 S0
G1 X71.2 Y9.3 F500 M3 S128
G1 X68.3 Y9.3 F1500 M3 S0
G1 X67.7 Y9.3 F500 M3 S128
G1 X64.1 Y9.3 F1500 M3 S0
G1 X63.4 Y9.3 F500 M3 S128
G1 X60.5 Y9.3 F1500 M3 S0
G1 X59.8 Y9.3 F500 M3 S128
G1 X57.7 Y9.3 F1500 M3 S0
G1 X55.6 Y9.3 F500 M3 S128
G1 X53.1 Y9.3 F1500 M3 S0
G1 X53 Y9.3 F500 M3 S128
G1 X53 Y9.4 F1500 M3 S0
G1 X53.1 Y9.4 F500 M3 S128
G1 X55.6 Y9.4 F1500 M3 S0
G1 X57.7 Y9.4 F500 M3 S128
G1 X60 Y9.4 F1500 M3 S0
G1 X60.6 Y9.4 F500 M3 S128
G1 X63.6 Y9.4 F1500 M3 S0
G1 X64.2 Y9.4 F500 M3 S128
G1 X67.8 Y9.4 F1500 M3 S0
G1 X68.5 Y9.4 F500 M3 S128
G1 X71.2 Y9.4 F1500 M3 S0
G1 X71.3 Y9.4 F500 M3 S128
G1 X72.8 Y9.4 F1500 M3 S0
G1 X72.9 Y9.4 F500 M3 S128
G1 X75.9 Y9.4 F1500 M3 S0
G1 X76.2 Y9.4 F500 M3 S128
G1 X76.8 Y9.4 F1500 M3 S0
G1 X77.4 Y9.4 F500 M3 S128
G1 X79.5 Y9.4 F1500 M3 S0
G1 X79.9 Y9.4 F500 M3 S128
G1 X83.7 Y9.4 F1500 M3 S0
G1 X83.8 Y9.4 F500 M3 S128
G1 X83.8 Y9.5 F1500 M3 S0
G1 X83.7 Y9.5 F500 M3 S128
G1 X79.9 Y9.5 F1500 M3 S0
G1 X79.5 Y9.5 F500 M3 S128
G1 X77.6 Y9.5 F1500 M3 S0
G1 X76.8 Y9.5 F500 M3 S128
G1 X76.2 Y9.5 F1500 M3 S0
G1 X75.9 Y9.5 F500 M3 S128
G1 X72.9 Y9.5 F1500 M3 S0
G1 X72.8 Y9.5 F500 M3 S128
G1 X71.3 Y9.5 F1500 M3 S0
G1 X71.2 Y9.5 F500 M3 S128
G1 X68.6 Y9.5 F1500 M3 S0
G1 X66.5 Y9.5 F500 M3 S128
G1 X64.3 Y9.5 F1500 M3 S0
G1 X63.7 Y9.5 F500 M3 S128
G1 X60.7 Y9.5 F1500 M3 S0
G1 X60.1 Y9.5 F500 M3 S128
G1 X57.7 Y9.5 F1500 M3 S0
G1 X55.6 Y9.5 F500 M3 S128
G1 X53.1 Y9.5 F1500 M3 S0
G1 X53 Y9.5 F500 M3 S128
G1 X53 Y9.6 F1500 M3 S0
G1 X53.1 Y9.6 F500 M3 S128
G1 X55.6 Y9.6 F1500 M3 S0
G1 X57.7 Y9.6 F500 M3 S128
G1 X60.3 Y9.6 F1500 M3 S0
G1 X60.9 Y9.6 F500 M3 S128
G1 X63.9 Y9.6 F1500 M3 S0
G1 X64.5 Y9.6 F500 M3 S128
G1 X66.5 Y9.6 F1500 M3 S0
G1 X68.6 Y9.6 F500 M3 S128
G1 X71.2 Y9.6 F1500 M3 S0
G1 X71.3 Y9.6 F500 M3 S128
G1 X72.8 Y9.6 F1500 M3 S0
G1 X72.9 Y9.6 F500 M3 S128
G1 X75.9 Y9.6 F1500 M3 S0
G1 X76.3 Y9.6 F500 M3 S128
G1 X76.7 Y9.6 F1500 M3 S0
G1 X77.7 Y9.6 F500 M3 S128
G1 X79.5 Y9.6 F1500 M3 S0
G1 X79.9 Y9.6 F500 M3 S128
G1 X83.7 Y9.6 F1500 M3 S0
G1 X83.8 Y9.6 F500 M3 S128
G1 X83.8 Y9.7 F1500 M3 S0
G1 X83.7 Y9.7 F500 M3 S128
G1 X81.6 Y9.7 F1500 M3 S0
G1 X79.5 Y9.7 F500 M3 S128
G1 X77.9 Y9.7 F1500 M3 S0
G1 X75.9 Y9.7 F500 M3 S128
G1 X72.9 Y9.7 F1500 M3 S0
G1 X72.8 Y9.7 F500 M3 S128
G1 X71.3 Y9.7 F1500 M3 S0
G1 X71.2 Y9.7 F500 M3 S128
G1 X68.6 Y9.7 F1500 M3 S0
G1 X66.5 Y9.7 F500 M3 S128
G1 X64.6 Y9.7 F1500 M3 S0
G1 X64 Y9.7 F500 M3 S128
G1 X61 Y9.7 F1500 M3 S0
G1 X60.4 Y9.7 F500 M3 S128
G1 X56.9 Y9.7 F1500 M3 S0
G1 X56.6 Y9.7 F500 M3 S128
G1 X56 Y9.7 F1500 M3 S0
G1 X55.6 Y9.7 F500 M3 S128
G1 X53.1 Y9.7 F1500 M3 S0
G1 X53 Y9.7 F500 M3 S128
G1 X53 Y9.8 F1500 M3 S0
G1 X53.1 Y9.8 F500 M3 S128
G1 X55.6 Y9.8 F1500 M3 S0
G1 X56 Y9.8 F500 M3 S128
G1 X56.6 Y9.8 F1500 M3 S0
G1 X56.9 Y9.8 F500 M3 S128
G1 X60.5 Y9.8 F1500 M3 S0
G1 X61.2 Y9.8 F500 M3 S128
G1 X64.1 Y9.8 F1500 M3 S0
G1 X64.8 Y9.8 F500 M3 S128
G1 X66.5 Y9.8 F1500 M3 S0
G1 X68.6 Y9.8 F500 M3 S128
G1 X71.2 Y9.8 F1500 M3 S0
G1 X71.3 Y9.8 F500 M3 S128
G1 X72.8 Y9.8 F1500 M3 S0
G1 X72.9 Y9.8 F500 M3 S128
G1 X76 Y9.8 F1500 M3 S0
G1 X77 Y9.8 F500 M3 S128
G1 X77.2 Y9.8 F1500 M3 S0
G1 X77.9 Y9.8 F500 M3 S128
G1 X79.5 Y9.8 F1500 M3 S0
G1 X81.6 Y9.8 F500 M3 S128
G1 X83.7 Y9.8 F1500 M3 S0
G1 X83.8 Y9.8 F500 M3 S128
G1 X83.8 Y9.9 F1500 M3 S0
G1 X83.7 Y9.9 F500 M3 S128
G1 X81.6 Y9.9 F1500 M3 S0
G1 X79.5 Y9.9 F500 M3 S128
G1 X77.9 Y9.9 F1500 M3 S0
G1 X77.4 Y9.9 F500 M3 S128
G1 X77 Y9.9 F1500 M3 S0
G1 X76 Y9.9 F500 M3 S128
G1 X72.9 Y9.9 F1500 M3 S0
G1 X72.8 Y9.9 F500 M3 S128
G1 X71.3 Y9.9 F1500 M3 S0
G1 X71.2 Y9.9 F500 M3 S128
G1 X64.9 Y9.9 F1500 M3 S0
G1 X62.8 Y9.9 F500 M3 S128
G1 X61.3 Y9.9 F1500 M3 S0
G1 X59.2 Y9.9 F500 M3 S128
G1 X56.9 Y9.9 F1500 M3 S0
G1 X56.6 Y9.9 F500 M3 S128
G1 X56 Y9.9 F1500 M3 S0
G1 X55.6 Y9.9 F500 M3 S128
G1 X53.1 Y9.9 F1500 M3 S0
G1 X53 Y9.9 F500 M3 S128
G1 X53 Y10 F1500 M3 S0
G1 X53.1 Y10 F500 M3 S128
G1 X55.6 Y10 F1500 M3 S0
G1 X56 Y10 F500 M3 S128
G1 X56.6 Y10 F1500 M3 S0
G1 X57 Y10 F500 M3 S128
G1 X59.2 Y10 F1500 M3 S0
G1 X61.3 Y10 F500 M3 S128
G1 X62.8 Y10 F1500 M3 S0
G1 X64.9 Y10 F500 M3 S128
G1 X71.2 Y10 F1500 M3 S0
G1 X71.3 Y10 F500 M3 S128
G1 X72.8 Y10 F1500 M3 S0
G1 X72.9 Y10 F500 M3 S128
G1 X76.2 Y10 F1500 M3 S0
G1 X76.9 Y10 F500 M3 S128
G1 X77.6 Y10 F1500 M3 S0
G1 X77.9 Y10 F500 M3 S128
G1 X79.5 Y10 F1500 M3 S0
G1 X81.6 Y10 F500 M3 S128
G1 X83.7 Y10 F1500 M3 S0
G1 X83.8 Y10 F500 M3 S128
G1 X83.8 Y10.1 F1500 M3 S0
G1 X83.7 Y10.1 F500 M3 S128
G1 X79.9 Y10.1 F1500 M3 S0
G1 X79.5 Y10.1 F500 M3 S128
G1 X77.9 Y10.1 F1500 M3 S0
G1 X77.8 Y10.1 F500 M3 S128
G1 X76.6 Y10.1 F1500 M3 S0
G1 X76.5 Y10.1 F500 M3 S128
G1 X72.9 Y10.1 F1500 M3 S0
G1 X72.8 Y10.1 F500 M3 S128
G1 X71.3 Y10.1 F1500 M3 S0
G1 X71.2 Y10.1 F500 M3 S128
G1 X64.9 Y10.1 F1500 M3 S0
G1 X62.8 Y10.1 F500 M3 S128
G1 X61.3 Y10.1 F1500 M3 S0
G1 X59.2 Y10.1 F500 M3 S128
G1 X57.2 Y10.1 F1500 M3 S0
G1 X56.6 Y10.1 F500 M3 S128
G1 X56 Y10.1 F1500 M3 S0
G1 X55.7 Y10.1 F500 M3 S128
G1 X53.1 Y10.1 F1500 M3 S0
G1 X53 Y10.1 F500 M3 S128
G1 X53 Y10.2 F1500 M3 S0
G1 X53.1 Y10.2 F500 M3 S128
G1 X55.7 Y10.2 F1500 M3 S0
G1 X56 Y10.2 F500 M3 S128
G1 X56.6 Y10.2 F1500 M3 S0
G1 X57.4 Y10.2 F500 M3 S128
G1 X59.2 Y10.2 F1500 M3 S0
G1 X61.3 Y10.2 F500 M3 S128
G1 X62.8 Y10.2 F1500 M3 S0
G1 X64.9 Y10.2 F500 M3 S128
G1 X71.2 Y10.2 F1500 M3 S0
G1 X71.3 Y10.2 F500 M3 S128
G1 X72.8 Y10.2 F1500 M3 S0
G1 X72.9 Y10.2 F500 M3 S128
G1 X79.5 Y10.2 F1500 M3 S0
G1 X79.9 Y10.2 F500 M3 S128
G1 X83.7 Y10.2 F1500 M3 S0
G1 X83.8 Y10.2 F500 M3 S128
G1 X83.8 Y10.3 F1500 M3 S0
G1 X83.7 Y10.3 F500 M3 S128
G1 X79.9 Y10.3 F1500 M3 S0
G1 X79.5 Y10.3 F500 M3 S128
G1 X76.2 Y10.3 F1500 M3 S0
G1 X75.8 Y10.3 F500 M3 S128
G1 X72.9 Y10.3 F1500 M3 S0
G1 X72.8 Y10.3 F500 M3 S128
G1 X71.3 Y10.3 F1500 M3 S0
G1 X71.2 Y10.3 F500 M3 S128
G1 X57.5 Y10.3 F1500 M3 S0
G1 X56.5 Y10.3 F500 M3 S128
G1 X56.1 Y10.3 F1500 M3 S0
G1 X55.7 Y10.3 F500 M3 S128
G1 X53.1 Y10.3 F1500 M3 S0
G1 X53 Y10.3 F500 M3 S128
G1 X53 Y10.4 F1500 M3 S0
G1 X53.1 Y10.4 F500 M3 S128
G1 X55.7 Y10.4 F1500 M3 S0
G1 X57.7 Y10.4 F500 M3 S128
G1 X71.2 Y10.4 F1500 M3 S0
G1 X71.3 Y10.4 F500 M3 S128
G1 X72.8 Y10.4 F1500 M3 S0
G1 X72.9 Y10.4 F500 M3 S128
G1 X75.8 Y10.4 F1500 M3 S0
G1 X76.6 Y10.4 F500 M3 S128
G1 X79.5 Y10.4 F1500 M3 S0
G1 X79.9 Y10.4 F500 M3 S128
G1 X83.7 Y10.4 F1500 M3 S0
G1 X83.8 Y10.4 F500 M3 S128
G1 X83.8 Y10.5 F1500 M3 S0
G1 X83.7 Y10.5 F500 M3 S128
G1 X79.9 Y10.5 F1500 M3 S0
G1 X79.5 Y10.5 F500 M3 S128
G1 X76.9 Y10.5 F1500 M3 S0
G1 X75.8 Y10.5 F500 M3 S128
G1 X72.9 Y10.5 F1500 M3 S0
G1 X72.8 Y10.5 F500 M3 S128
G1 X71.3 Y10.5 F1500 M3 S0
G1 X71.2 Y10.5 F500 M3 S128
G1 X57.7 Y10.5 F1500 M3 S0
G1 X57 Y10.5 F500 M3 S128
G1 X56.8 Y10.5 F1500 M3 S0
G1 X55.8 Y10.5 F500 M3 S128
G1 X53.1 Y10.5 F1500 M3 S0
G1 X53 Y10.5 F500 M3 S128
G1 X53 Y10.6 F1500 M3 S0
G1 X53.1 Y10.6 F500 M3 S128
G1 X55.8 Y10.6 F1500 M3 S0
G1 X56.8 Y10.6 F500 M3 S128
G1 X57.2 Y10.6 F1500 M3 S0
G1 X57.7 Y10.6 F500 M3 S128
G1 X71.2 Y10.6 F1500 M3 S0
G1 X71.3 Y10.6 F500 M3 S128
G1 X72.8 Y10.6 F1500 M3 S0
G1 X72.9 Y10.6 F500 M3 S128
G1 X75.8 Y10.6 F1500 M3 S0
G1 X77.3 Y10.6 F500 M3 S128
G1 X79.5 Y10.6 F1500 M3 S0
G1 X79.9 Y10.6 F500 M3 S128
G1 X83.7 Y10.6 F1500 M3 S0
G1 X83.8 Y10.6 F500 M3 S128
G1 X83.8 Y10.7 F1500 M3 S0
G1 X83.7 Y10.7 F500 M3 S128
G1 X77.7 Y10.7 F1500 M3 S0
G1 X76 Y10.7 F500 M3 S128
G1 X72.9 Y10.7 F1500 M3 S0
G1 X72.8 Y10.7 F500 M3 S128
G1 X71.3 Y10.7 F1500 M3 S0
G1 X71.2 Y10.7 F500 M3 S128
G1 X64.9 Y10.7 F1500 M3 S0
G1 X62.8 Y10.7 F500 M3 S128
G1 X61.3 Y10.7 F1500 M3 S0
G1 X59.2 Y10.7 F500 M3 S128
G1 X57.7 Y10.7 F1500 M3 S0
G1 X57.4 Y10.7 F500 M3 S128
G1 X56.7 Y10.7 F1500 M3 S0
G1 X56 Y10.7 F500 M3 S128
G1 X53.1 Y10.7 F1500 M3 S0
G1 X53 Y10.7 F500 M3 S128
G1 X53 Y10.8 F1500 M3 S0
G1 X53.1 Y10.8 F500 M3 S128
G1 X56.3 Y10.8 F1500 M3 S0
G1 X56.4 Y10.8 F500 M3 S128
G1 X57.6 Y10.8 F1500 M3 S0
G1 X57.7 Y10.8 F500 M3 S128
G1 X59.2 Y10.8 F1500 M3 S0
G1 X61.3 Y10.8 F500 M3 S128
G1 X62.8 Y10.8 F1500 M3 S0
G1 X64.9 Y10.8 F500 M3 S128
G1 X71.2 Y10.8 F1500 M3 S0
G1 X71.3 Y10.8 F500 M3 S128
G1 X72.8 Y10.8 F1500 M3 S0
G1 X72.9 Y10.8 F500 M3 S128
G1 X76.5 Y10.8 F1500 M3 S0
G1 X77.9 Y10.8 F500 M3 S128
G1 X83.7 Y10.8 F1500 M3 S0
G1 X83.8 Y10.8 F500 M3 S128
G1 X83.8 Y10.9 F1500 M3 S0
G1 X83.7 Y10.9 F500 M3 S128
G1 X77.9 Y10.9 F1500 M3 S0
G1 X77 Y10.9 F500 M3 S128
G1 X72.9 Y10.9 F1500 M3 S0
G1 X72.8 Y10.9 F500 M3 S128
G1 X71.3 Y10.9 F1500 M3 S0
G1 X71.2 Y10.9 F500 M3 S128
G1 X64.9 Y10.9 F1500 M3 S0
G1 X62.8 Y10.9 F500 M3 S128
G1 X61.3 Y10.9 F1500 M3 S0
G1 X59.2 Y10.9 F500 M3 S128
G1 X53.1 Y10.9 F1500 M3 S0
G1 X53 Y10.9 F500 M3 S128
G1 X53 Y11 F1500 M3 S0
G1 X53.1 Y11 F500 M3 S128
G1 X59.2 Y11 F1500 M3 S0
G1 X61.3 Y11 F500 M3 S128
G1 X62.8 Y11 F1500 M3 S0
G1 X64.9 Y11 F500 M3 S128
G1 X71.2 Y11 F1500 M3 S0
G1 X71.3 Y11 F500 M3 S128
G1 X72.8 Y11 F1500 M3 S0
G1 X72.9 Y11 F500 M3 S128
G1 X77.3 Y11 F1500 M3 S0
G1 X77.9 Y11 F500 M3 S128
G1 X83.7 Y11 F1500 M3 S0
G1 X83.8 Y11 F500 M3 S128
G1 X83.8 Y11.1 F1500 M3 S0
G1 X83.7 Y11.1 F500 M3 S128
G1 X77.9 Y11.1 F1500 M3 S0
G1 X76.9 Y11.1 F500 M3 S128
G1 X72.9 Y11.1 F1500 M3 S0
G1 X72.8 Y11.1 F500 M3 S128
G1 X71.3 Y11.1 F1500 M3 S0
G1 X71.2 Y11.1 F500 M3 S128
G1 X64.9 Y11.1 F1500 M3 S0
G1 X64.5 Y11.1 F500 M3 S128
G1 X63.2 Y11.1 F1500 M3 S0
G1 X62.8 Y11.1 F500 M3 S128
G1 X61.3 Y11.1 F1500 M3 S0
G1 X60.9 Y11.1 F500 M3 S128
G1 X59.6 Y11.1 F1500 M3 S0
G1 X59.2 Y11.1 F500 M3 S128
G1 X53.1 Y11.1 F1500 M3 S0
G1 X53 Y11.1 F500 M3 S128
G1 X53 Y11.2 F1500 M3 S0
G1 X53.1 Y11.2 F500 M3 S128
G1 X59.2 Y11.2 F1500 M3 S0
G1 X59.6 Y11.2 F500 M3 S128
G1 X60.9 Y11.2 F1500 M3 S0
G1 X61.3 Y11.2 F500 M3 S128
G1 X62.8 Y11.2 F1500 M3 S0
G1 X63.2 Y11.2 F500 M3 S128
G1 X64.5 Y11.2 F1500 M3 S0
G1 X64.9 Y11.2 F500 M3 S128
G1 X71.2 Y11.2 F1500 M3 S0
G1 X71.3 Y11.2 F500 M3 S128
G1 X72.8 Y11.2 F1500 M3 S0
G1 X72.9 Y11.2 F500 M3 S128
G1 X76.5 Y11.2 F1500 M3 S0
G1 X77.8 Y11.2 F500 M3 S128
G1 X83.7 Y11.2 F1500 M3 S0
G1 X83.8 Y11.2 F500 M3 S128
G1 X83.8 Y11.3 F1500 M3 S0
G1 X83.7 Y11.3 F500 M3 S128
G1 X77.4 Y11.3 F1500 M3 S0
G1 X76.1 Y11.3 F500 M3 S128
G1 X72.9 Y11.3 F1500 M3 S0
G1 X72.8 Y11.3 F500 M3 S128
G1 X71.3 Y11.3 F1500 M3 S0
G1 X71.2 Y11.3 F500 M3 S128
G1 X64.9 Y11.3 F1500 M3 S0
G1 X64.5 Y11.3 F500 M3 S128
G1 X63.2 Y11.3 F1500 M3 S0
G1 X62.8 Y11.3 F500 M3 S128
G1 X61.3 Y11.3 F1500 M3 S0
G1 X60.9 Y11.3 F500 M3 S128
G1 X59.6 Y11.3 F1500 M3 S0
G1 X59.2 Y11.3 F500 M3 S128
G1 X53.1 Y11.3 F1500 M3 S0
G1 X53 Y11.3 F500 M3 S128
G1 X53 Y11.4 F1500 M3 S0
G1 X53.1 Y11.4 F500 M3 S128
G1 X59.2 Y11.4 F1500 M3 S0
G1 X59.6 Y11.4 F500 M3 S128
G1 X60.9 Y11.4 F1500 M3 S0
G1 X61.3 Y11.4 F500 M3 S128
G1 X62.8 Y11.4 F1500 M3 S0
G1 X63.2 Y11.4 F500 M3 S128
G1 X64.5 Y11.4 F1500 M3 S0
G1 X64.9 Y11.4 F500 M3 S128
G1 X71.2 Y11.4 F1500 M3 S0
G1 X71.3 Y11.4 F500 M3 S128
G1 X72.8 Y11.4 F1500 M3 S0
G1 X72.9 Y11.4 F500 M3 S128
G1 X75.8 Y11.4 F1500 M3 S0
G1 X77 Y11.4 F500 M3 S128
G1 X83.7 Y11.4 F1500 M3 S0
G1 X83.8 Y11.4 F500 M3 S128
G1 X83.8 Y11.5 F1500 M3 S0
G1 X83.7 Y11.5 F500 M3 S128
G1 X76.7 Y11.5 F1500 M3 S0
G1 X75.8 Y11.5 F500 M3 S128
G1 X72.9 Y11.5 F1500 M3 S0
G1 X72.8 Y11.5 F500 M3 S128
G1 X71.3 Y11.5 F1500 M3 S0
G1 X71.2 Y11.5 F500 M3 S128
G1 X64.9 Y11.5 F1500 M3 S0
G1 X64.5 Y11.5 F500 M3 S128
G1 X63.2 Y11.5 F1500 M3 S0
G1 X62.9 Y11.5 F500 M3 S128
G1 X61.3 Y11.5 F1500 M3 S0
G1 X60.9 Y11.5 F500 M3 S128
G1 X59.6 Y11.5 F1500 M3 S0
G1 X59.3 Y11.5 F500 M3 S128
G1 X53.1 Y11.5 F1500 M3 S0
G1 X53 Y11.5 F500 M3 S128
G1 X53 Y11.6 F1500 M3 S0
G1 X53.1 Y11.6 F500 M3 S128
G1 X59.3 Y11.6 F1500 M3 S0
G1 X59.6 Y11.6 F500 M3 S128
G1 X60.9 Y11.6 F1500 M3 S0
G1 X61.3 Y11.6 F500 M3 S128
G1 X62.9 Y11.6 F1500 M3 S0
G1 X63.2 Y11.6 F500 M3 S128
G1 X64.5 Y11.6 F1500 M3 S0
G1 X64.9 Y11.6 F500 M3 S128
G1 X71.2 Y11.6 F1500 M3 S0
G1 X71.3 Y11.6 F500 M3 S128
G1 X72.8 Y11.6 F1500 M3 S0
G1 X72.9 Y11.6 F500 M3 S128
G1 X75.8 Y11.6 F1500 M3 S0
G1 X76.6 Y11.6 F500 M3 S128
G1 X83.7 Y11.6 F1500 M3 S0
G1 X83.8 Y11.6 F500 M3 S128
G1 X83.8 Y11.7 F1500 M3 S0
G1 X83.7 Y11.7 F500 M3 S128
G1 X77 Y11.7 F1500 M3 S0
G1 X75.8 Y11.7 F500 M3 S128
G1 X72.9 Y11.7 F1500 M3 S0
G1 X72.8 Y11.7 F500 M3 S128
G1 X71.3 Y11.7 F1500 M3 S0
G1 X71.2 Y11.7 F500 M3 S128
G1 X64.9 Y11.7 F1500 M3 S0
G1 X64.4 Y11.7 F500 M3 S128
G1 X63.3 Y11.7 F1500 M3 S0
G1 X62.9 Y11.7 F500 M3 S128
G1 X61.3 Y11.7 F1500 M3 S0
G1 X60.8 Y11.7 F500 M3 S128
G1 X59.7 Y11.7 F1500 M3 S0
G1 X59.3 Y11.7 F500 M3 S128
G1 X53.1 Y11.7 F1500 M3 S0
G1 X53 Y11.7 F500 M3 S128
G1 X53 Y11.8 F1500 M3 S0
G1 X53.1 Y11.8 F500 M3 S128
G1 X59.3 Y11.8 F1500 M3 S0
G1 X59.8 Y11.8 F500 M3 S128
G1 X60.8 Y11.8 F1500 M3 S0
G1 X61.2 Y11.8 F500 M3 S128
G1 X62.9 Y11.8 F1500 M3 S0
G1 X63.4 Y11.8 F500 M3 S128
G1 X64.4 Y11.8 F1500 M3 S0
G1 X64.8 Y11.8 F500 M3 S128
G1 X71.2 Y11.8 F1500 M3 S0
G1 X71.3 Y11.8 F500 M3 S128
G1 X72.8 Y11.8 F1500 M3 S0
G1 X72.9 Y11.8 F500 M3 S128
G1 X76.1 Y11.8 F1500 M3 S0
G1 X77.4 Y11.8 F500 M3 S128
G1 X83.7 Y11.8 F1500 M3 S0
G1 X83.8 Y11.8 F500 M3 S128
G1 X83.8 Y11.9 F1500 M3 S0
G1 X83.7 Y11.9 F500 M3 S128
G1 X77.7 Y11.9 F1500 M3 S0
G1 X76.5 Y11.9 F500 M3 S128
G1 X72.9 Y11.9 F1500 M3 S0
G1 X72.8 Y11.9 F500 M3 S128
G1 X71.3 Y11.9 F1500 M3 S0
G1 X71.2 Y11.9 F500 M3 S128
G1 X64.8 Y11.9 F1500 M3 S0
G1 X64.2 Y11.9 F500 M3 S128
G1 X63.6 Y11.9 F1500 M3 S0
G1 X63 Y11.9 F500 M3 S128
G1 X61.2 Y11.9 F1500 M3 S0
G1 X60.6 Y11.9 F500 M3 S128
G1 X60 Y11.9 F1500 M3 S0
G1 X59.4 Y11.9 F500 M3 S128
G1 X53.1 Y11.9 F1500 M3 S0
G1 X53 Y11.9 F500 M3 S128
G1 X53 Y12 F1500 M3 S0
G1 X53.1 Y12 F500 M3 S128
G1 X59.4 Y12 F1500 M3 S0
G1 X61.1 Y12 F500 M3 S128
G1 X63 Y12 F1500 M3 S0
G1 X64.7 Y12 F500 M3 S128
G1 X71.2 Y12 F1500 M3 S0
G1 X71.3 Y12 F500 M3 S128
G1 X72.8 Y12 F1500 M3 S0
G1 X72.9 Y12 F500 M3 S128
G1 X76.9 Y12 F1500 M3 S0
G1 X77.9 Y12 F500 M3 S128
G1 X83.7 Y12 F1500 M3 S0
G1 X83.8 Y12 F500 M3 S128
G1 X83.8 Y12.1 F1500 M3 S0
G1 X83.7 Y12.1 F500 M3 S128
G1 X77.9 Y12.1 F1500 M3 S0
G1 X77.3 Y12.1 F500 M3 S128
G1 X72.9 Y12.1 F1500 M3 S0
G1 X72.8 Y12.1 F500 M3 S128
G1 X71.3 Y12.1 F1500 M3 S0
G1 X71.2 Y12.1 F500 M3 S128
G1 X64.6 Y12.1 F1500 M3 S0
G1 X63.1 Y12.1 F500 M3 S128
G1 X61 Y12.1 F1500 M3 S0
G1 X59.5 Y12.1 F500 M3 S128
G1 X53.1 Y12.1 F1500 M3 S0
G1 X53 Y12.1 F500 M3 S128
G1 X53 Y12.2 F1500 M3 S0
G1 X53.1 Y12.2 F500 M3 S128
G1 X59.6 Y12.2 F1500 M3 S0
G1 X60.9 Y12.2 F500 M3 S128
G1 X63.2 Y12.2 F1500 M3 S0
G1 X64.5 Y12.2 F500 M3 S128
G1 X71.2 Y12.2 F1500 M3 S0
G1 X71.3 Y12.2 F500 M3 S128
G1 X72.8 Y12.2 F1500 M3 S0
G1 X72.9 Y12.2 F500 M3 S128
G1 X77 Y12.2 F1500 M3 S0
G1 X77.9 Y12.2 F500 M3 S128
G1 X83.7 Y12.2 F1500 M3 S0
G1 X83.8 Y12.2 F500 M3 S128
G1 X83.8 Y12.3 F1500 M3 S0
G1 X83.7 Y12.3 F500 M3 S128
G1 X77.9 Y12.3 F1500 M3 S0
G1 X76.6 Y12.3 F500 M3 S128
G1 X72.9 Y12.3 F1500 M3 S0
G1 X72.8 Y12.3 F500 M3 S128
G1 X71.3 Y12.3 F1500 M3 S0
G1 X71.2 Y12.3 F500 M3 S128
G1 X64.3 Y12.3 F1500 M3 S0
G1 X63.4 Y12.3 F500 M3 S128
G1 X60.7 Y12.3 F1500 M3 S0
G1 X59.8 Y12.3 F500 M3 S128
G1 X53.1 Y12.3 F1500 M3 S0
G1 X53 Y12.3 F500 M3 S128
G1 X53 Y12.4 F1500 M3 S0
G1 X53.1 Y12.4 F500 M3 S128
G1 X71.2 Y12.4 F1500 M3 S0
G1 X71.3 Y12.4 F500 M3 S128
G1 X72.8 Y12.4 F1500 M3 S0
G1 X72.9 Y12.4 F500 M3 S128
G1 X76.1 Y12.4 F1500 M3 S0
G1 X77.7 Y12.4 F500 M3 S128
G1 X83.7 Y12.4 F1500 M3 S0
G1 X83.8 Y12.4 F500 M3 S128
G1 X83.8 Y12.5 F1500 M3 S0
G1 X83.7 Y12.5 F500 M3 S128
G1 X77.4 Y12.5 F1500 M3 S0
G1 X75.8 Y12.5 F500 M3 S128
G1 X72.9 Y12.5 F1500 M3 S0
G1 X72.8 Y12.5 F500 M3 S128
G1 X71.3 Y12.5 F1500 M3 S0
G1 X71.2 Y12.5 F500 M3 S128
G1 X53.1 Y12.5 F1500 M3 S0
G1 X53 Y12.5 F500 M3 S128
G1 X53 Y12.6 F1500 M3 S0
G1 X53.1 Y12.6 F500 M3 S128
G1 X71.2 Y12.6 F1500 M3 S0
G1 X71.3 Y12.6 F500 M3 S128
G1 X72.8 Y12.6 F1500 M3 S0
G1 X72.9 Y12.6 F500 M3 S128
G1 X75.8 Y12.6 F1500 M3 S0
G1 X77 Y12.6 F500 M3 S128
G1 X83.7 Y12.6 F1500 M3 S0
G1 X83.8 Y12.6 F500 M3 S128
G1 X83.8 Y12.7 F1500 M3 S0
G1 X83.7 Y12.7 F500 M3 S128
G1 X76.6 Y12.7 F1500 M3 S0
G1 X75.8 Y12.7 F500 M3 S128
G1 X72.9 Y12.7 F1500 M3 S0
G1 X72.8 Y12.7 F500 M3 S128
G1 X71.3 Y12.7 F1500 M3 S0
G1 X71.2 Y12.7 F500 M3 S128
G1 X53.1 Y12.7 F1500 M3 S0
G1 X53 Y12.7 F500 M3 S128
G1 X53 Y12.8 F1500 M3 S0
G1 X53.1 Y12.8 F500 M3 S128
G1 X71.2 Y12.8 F1500 M3 S0
G1 X71.3 Y12.8 F500 M3 S128
G1 X72.8 Y12.8 F1500 M3 S0
G1 X72.9 Y12.8 F500 M3 S128
G1 X75.8 Y12.8 F1500 M3 S0
G1 X76.2 Y12.8 F500 M3 S128
G1 X83.7 Y12.8 F1500 M3 S0
G1 X83.8 Y12.8 F500 M3 S128
G1 X83.8 Y12.9 F1500 M3 S0
G1 X83.7 Y12.9 F500 M3 S128
G1 X75.9 Y12.9 F1500 M3 S0
G1 X75.8 Y12.9 F500 M3 S128
G1 X72.9 Y12.9 F1500 M3 S0
G1 X72.8 Y12.9 F500 M3 S128
G1 X71.3 Y12.9 F1500 M3 S0
G1 X71.2 Y12.9 F500 M3 S128
G1 X53.1 Y12.9 F1500 M3 S0
G1 X53 Y12.9 F500 M3 S128
G1 X53 Y13 F1500 M3 S0
G1 X53.1 Y13 F500 M3 S128
G1 X71.2 Y13 F1500 M3 S0
G1 X71.3 Y13 F500 M3 S128
G1 X72.8 Y13 F1500 M3 S0
G1 X72.9 Y13 F500 M3 S128
G1 X83.7 Y13 F1500 M3 S0
G1 X83.8 Y13 F500 M3 S128
G1 X83.8 Y13.1 F1500 M3 S0
G1 X83.7 Y13.1 F500 M3 S128
G1 X72.9 Y13.1 F1500 M3 S0
G1 X72.8 Y13.1 F500 M3 S128
G1 X71.3 Y13.1 F1500 M3 S0
G1 X71.2 Y13.1 F500 M3 S128
G1 X53.1 Y13.1 F1500 M3 S0
G1 X53 Y13.1 F500 M3 S128
G1 X53 Y13.2 F1500 M3 S0
G1 X53.1 Y13.2 F500 M3 S128
G1 X71.2 Y13.2 F1500 M3 S0
G1 X71.3 Y13.2 F500 M3 S128
G1 X72.8 Y13.2 F1500 M3 S0
G1 X72.9 Y13.2 F500 M3 S128
G1 X83.7 Y13.2 F1500 M3 S0
G1 X83.8 Y13.2 F500 M3 S128
G1 X83.8 Y13.3 F1500 M3 S0
G1 X83.7 Y13.3 F500 M3 S128
G1 X72.9 Y13.3 F1500 M3 S0
G1 X72.8 Y13.3 F500 M3 S128
G1 X71.3 Y13.3 F1500 M3 S0
G1 X71.2 Y13.3 F500 M3 S128
G1 X53.1 Y13.3 F1500 M3 S0
G1 X53 Y13.3 F500 M3 S128
G1 X53 Y13.4 F1500 M3 S0
G1 X53.1 Y13.4 F500 M3 S128
G1 X71.2 Y13.4 F1500 M3 S0
G1 X71.3 Y13.4 F500 M3 S128
G1 X72.8 Y13.4 F1500 M3 S0
G1 X72.9 Y13.4 F500 M3 S128
G1 X83.7 Y13.4 F1500 M3 S0
G1 X83.8 Y13.4 F500 M3 S128
G1 X83.8 Y13.5 F1500 M3 S0
G1 X83.7 Y13.5 F500 M3 S128
G1 X72.9 Y13.5 F1500 M3 S0
G1 X72.8 Y13.5 F500 M3 S128
G1 X71.3 Y13.5 F1500 M3 S0
G1 X71.2 Y13.5 F500 M3 S128
G1 X53.1 Y13.5 F1500 M3 S0
G1 X53 Y13.5 F500 M3 S128
G1 X53 Y13.6 F1500 M3 S0
G1 X53.1 Y13.6 F500 M3 S128
G1 X71.2 Y13.6 F1500 M3 S0
G1 X71.3 Y13.6 F500 M3 S128
G1 X72.8 Y13.6 F1500 M3 S0
G1 X72.9 Y13.6 F500 M3 S128
G1 X83.7 Y13.6 F1500 M3 S0
G1 X83.8 Y13.6 F500 M3 S128
G1 X83.8 Y13.7 F1500 M3 S0
G1 X83.7 Y13.7 F500 M3 S128
G1 X72.9 Y13.7 F1500 M3 S0
G1 X72.8 Y13.7 F500 M3 S128
G1 X71.3 Y13.7 F1500 M3 S0
G1 X71.2 Y13.7 F500 M3 S128
G1 X53.1 Y13.7 F1500 M3 S0
G1 X53 Y13.7 F500 M3 S128
G1 X53 Y13.8 F1500 M3 S0
G1 X53.1 Y13.8 F500 M3 S128
G1 X71.2 Y13.8 F1500 M3 S0
G1 X71.3 Y13.8 F500 M3 S128
G1 X72.8 Y13.8 F1500 M3 S0
G1 X72.9 Y13.8 F500 M3 S128
G1 X83.7 Y13.8 F1500 M3 S0
G1 X83.8 Y13.8 F500 M3 S128
G1 X83.8 Y13.9 F1500 M3 S0
G1 X83.7 Y13.9 F500 M3 S128
G1 X72.9 Y13.9 F1500 M3 S0
G1 X72.8 Y13.9 F500 M3 S128
G1 X71.3 Y13.9 F1500 M3 S0
G1 X71.2 Y13.9 F500 M3 S128
G1 X53.1 Y13.9 F1500 M3 S0
G1 X53 Y13.9 F500 M3 S128
G1 X53 Y14 F1500 M3 S0
G1 X53.1 Y14 F500 M3 S128
G1 X71.2 Y14 F1500 M3 S0
G1 X71.3 Y14 F500 M3 S128
G1 X72.8 Y14 F1500 M3 S0
G1 X72.9 Y14 F500 M3 S128
G1 X83.7 Y14 F1500 M3 S0
G1 X83.8 Y14 F500 M3 S128
G1 X83.8 Y14.1 F1500 M3 S0
G1 X83.7 Y14.1 F500 M3 S128
G1 X72.9 Y14.1 F1500 M3 S0
G1 X72.8 Y14.1 F500 M3 S128
G1 X71.3 Y14.1 F1500 M3 S0
G1 X71.2 Y14.1 F500 M3 S128
G1 X53.1 Y14.1 F1500 M3 S0
G1 X53 Y14.1 F500 M3 S128
G1 X53 Y14.2 F1500 M3 S0
G1 X53.1 Y14.2 F500 M3 S128
G1 X71.2 Y14.2 F1500 M3 S0
G1 X71.3 Y14.2 F500 M3 S128
G1 X72.8 Y14.2 F1500 M3 S0
G1 X72.9 Y14.2 F500 M3 S128
G1 X83.7 Y14.2 F1500 M3 S0
G1 X83.8 Y14.2 F500 M3 S128
G1 X83.8 Y14.3 F1500 M3 S0
G1 X83.7 Y14.3 F500 M3 S128
G1 X72.9 Y14.3 F1500 M3 S0
G1 X72.8 Y14.3 F500 M3 S128
G1 X71.3 Y14.3 F1500 M3 S0
G1 X71.2 Y14.3 F500 M3 S128
G1 X53.1 Y14.3 F1500 M3 S0
G1 X53 Y14.3 F500 M3 S128
G1 X53 Y14.4 F1500 M3 S0
G1 X53.1 Y14.4 F500 M3 S128
G1 X71.2 Y14.4 F1500 M3 S0
G1 X71.3 Y14.4 F500 M3 S128
G1 X72.8 Y14.4 F1500 M3 S0
G1 X72.9 Y14.4 F500 M3 S128
G1 X83.7 Y14.4 F1500 M3 S0
G1 X83.8 Y14.4 F500 M3 S128
G1 X83.8 Y14.5 F1500 M3 S0
G1 X83.7 Y14.5 F500 M3 S128
G1 X72.9 Y14.5 F1500 M3 S0
G1 X72.8 Y14.5 F500 M3 S128
G1 X71.3 Y14.5 F1500 M3 S0
G1 X71.2 Y14.5 F500 M3 S128
G1 X53.1 Y14.5 F1500 M3 S0
G1 X53 Y14.5 F500 M3 S128
G1 X53 Y14.6 F1500 M3 S0
G1 X53.1 Y14.6 F500 M3 S128
G1 X71.2 Y14.6 F1500 M3 S0
G1 X71.3 Y14.6 F500 M3 S128
G1 X72.8 Y14.6 F1500 M3 S0
G1 X72.9 Y14.6 F500 M3 S128
G1 X83.7 Y14.6 F1500 M3 S0
G1 X83.8 Y14.6 F500 M3 S128
G1 X83.8 Y14.7 F1500 M3 S0
G1 X83.7 Y14.7 F500 M3 S128
G1 X72.9 Y14.7 F1500 M3 S0
G1 X72.8 Y14.7 F500 M3 S128
G1 X71.3 Y14.7 F1500 M3 S0
G1 X71.2 Y14.7 F500 M3 S128
G1 X53.1 Y14.7 F1500 M3 S0
G1 X53 Y14.7 F500 M3 S128
G1 X53 Y14.8 F1500 M3 S0
G1 X53.1 Y14.8 F500 M3 S128
G1 X71.2 Y14.8 F1500 M3 S0
G1 X71.3 Y14.8 F500 M3 S128
G1 X72.8 Y14.8 F1500 M3 S0
G1 X72.9 Y14.8 F500 M3 S128
G1 X83.7 Y14.8 F1500 M3 S0
G1 X83.8 Y14.8 F500 M3 S128
G1 X83.8 Y14.9 F1500 M3 S0
G1 X83.7 Y14.9 F500 M3 S128
G1 X72.9 Y14.9 F1500 M3 S0
G1 X72.8 Y14.9 F500 M3 S128
G1 X71.3 Y14.9 F1500 M3 S0
G1 X71.2 Y14.9 F500 M3 S128
G1 X53.1 Y14.9 F1500 M3 S0
G1 X53 Y14.9 F500 M3 S128
G1 X53 Y15 F1500 M3 S0
G1 X53.1 Y15 F500 M3 S128
G1 X71.2 Y15 F1500 M3 S0
G1 X71.3 Y15 F500 M3 S128
G1 X72.8 Y15 F1500 M3 S0
G1 X72.9 Y15 F500 M3 S128
G1 X83.7 Y15 F1500 M3 S0
G1 X83.8 Y15 F500 M3 S128
G1 X83.8 Y15.1 F1500 M3 S0
G1 X83.7 Y15.1 F500 M3 S128
G1 X72.9 Y15.1 F1500 M3 S0
G1 X72.8 Y15.1 F500 M3 S128
G1 X71.3 Y15.1 F1500 M3 S0
G1 X71.2 Y15.1 F500 M3 S128
G1 X53.1 Y15.1 F1500 M3 S0
G1 X53 Y15.1 F500 M3 S128
G1 X53 Y15.2 F1500 M3 S0
G1 X71.4 Y15.2 F500 M3 S128
G1 X72.8 Y15.2 F1500 M3 S0
G1 X72.9 Y15.2 F500 M3 S128
G1 X83.7 Y15.2 F1500 M3 S0
G1 X83.8 Y15.2 F500 M3 S128
G1 X83.8 Y15.3 F1500 M3 S0
G1 X83.7 Y15.3 F500 M3 S128
G1 X72.9 Y15.3 F1500 M3 S0
G1 X72.8 Y15.3 F500 M3 S128
G1 X71.3 Y15.3 F1500 M3 S0
G1 X71.2 Y15.3 F500 M3 S128
G1 X53.1 Y15.3 F1500 M3 S0
G1 X53 Y15.3 F500 M3 S128
G1 X53 Y15.4 F1500 M3 S0
G1 X53.1 Y15.4 F500 M3 S128
G1 X71.2 Y15.4 F1500 M3 S0
G1 X71.3 Y15.4 F500 M3 S128
G1 X72.6 Y15.4 F1500 M3 S0
G1 X84 Y15.4 F500 M3 S128
G1 X83.8 Y15.5 F1500 M3 S0
G1 X83.7 Y15.5 F500 M3 S128
G1 X72.9 Y15.5 F1500 M3 S0
G1 X72.8 Y15.5 F500 M3 S128
G1 X72.8 Y15.6 F1500 M3 S0
G1 X72.9 Y15.6 F500 M3 S128
G1 X83.7 Y15.6 F1500 M3 S0
G1 X83.8 Y15.6 F500 M3 S128
G1 X82.6 Y16.5 F1500 M3 S0
G1 X81.3 Y16.5 F500 M3 S128
G1 X80.5 Y16.5 F1500 M3 S0
G1 X79.7 Y16.5 F500 M3 S128
G1 X79 Y16.5 F1500 M3 S0
G1 X78.6 Y16.5 F500 M3 S128
G1 X77.7 Y16.5 F1500 M3 S0
G1 X77.3 Y16.5 F500 M3 S128
G1 X77 Y16.5 F1500 M3 S0
G1 X75.7 Y16.5 F500 M3 S128
G1 X74.9 Y16.5 F1500 M3 S0
G1 X74.1 Y16.5 F500 M3 S128
G1 X67.8 Y16.5 F1500 M3 S0
G1 X67.3 Y16.5 F500 M3 S128
G1 X66.6 Y16.5 F1500 M3 S0
G1 X66.2 Y16.5 F500 M3 S128
G1 X65.8 Y16.5 F1500 M3 S0
G1 X64.5 Y16.5 F500 M3 S128
G1 X63.7 Y16.5 F1500 M3 S0
G1 X63.3 Y16.5 F500 M3 S128
G1 X62.5 Y16.5 F1500 M3 S0
G1 X62.1 Y16.5 F500 M3 S128
G1 X60.9 Y16.5 F1500 M3 S0
G1 X60.1 Y16.5 F500 M3 S128
G1 X58.2 Y16.5 F1500 M3 S0
G1 X57.8 Y16.5 F500 M3 S128
G1 X57.8 Y16.6 F1500 M3 S0
G1 X58.2 Y16.6 F500 M3 S128
G1 X59.9 Y16.6 F1500 M3 S0
G1 X61.1 Y16.6 F500 M3 S128
G1 X62.1 Y16.6 F1500 M3 S0
G1 X62.6 Y16.6 F500 M3 S128
G1 X63.3 Y16.6 F1500 M3 S0
G1 X63.7 Y16.6 F500 M3 S128
G1 X64.5 Y16.6 F1500 M3 S0
G1 X65.8 Y16.6 F500 M3 S128
G1 X66.2 Y16.6 F1500 M3 S0
G1 X66.6 Y16.6 F500 M3 S128
G1 X67.3 Y16.6 F1500 M3 S0
G1 X67.7 Y16.6 F500 M3 S128
G1 X73.9 Y16.6 F1500 M3 S0
G1 X75.1 Y16.6 F500 M3 S128
G1 X75.7 Y16.6 F1500 M3 S0
G1 X77 Y16.6 F500 M3 S128
G1 X77.3 Y16.6 F1500 M3 S0
G1 X77.7 Y16.6 F500 M3 S128
G1 X78.5 Y16.6 F1500 M3 S0
G1 X79 Y16.6 F500 M3 S128
G1 X79.5 Y16.6 F1500 M3 S0
G1 X80.7 Y16.6 F500 M3 S128
G1 X81.3 Y16.6 F1500 M3 S0
G1 X82.6 Y16.6 F500 M3 S128
G1 X82.6 Y16.7 F1500 M3 S0
G1 X81.3 Y16.7 F500 M3 S128
G1 X80.8 Y16.7 F1500 M3 S0
G1 X79.4 Y16.7 F500 M3 S128
G1 X79 Y16.7 F1500 M3 S0
G1 X78.5 Y16.7 F500 M3 S128
G1 X77.7 Y16.7 F1500 M3 S0
G1 X77.3 Y16.7 F500 M3 S128
G1 X77 Y16.7 F1500 M3 S0
G1 X75.7 Y16.7 F500 M3 S128
G1 X75.2 Y16.7 F1500 M3 S0
G1 X73.8 Y16.7 F500 M3 S128
G1 X67.7 Y16.7 F1500 M3 S0
G1 X67.2 Y16.7 F500 M3 S128
G1 X66.6 Y16.7 F1500 M3 S0
G1 X66.2 Y16.7 F500 M3 S128
G1 X65.8 Y16.7 F1500 M3 S0
G1 X64.5 Y16.7 F500 M3 S128
G1 X63.8 Y16.7 F1500 M3 S0
G1 X63.2 Y16.7 F500 M3 S128
G1 X62.6 Y16.7 F1500 M3 S0
G1 X62 Y16.7 F500 M3 S128
G1 X61.2 Y16.7 F1500 M3 S0
G1 X59.8 Y16.7 F500 M3 S128
G1 X58.2 Y16.7 F1500 M3 S0
G1 X57.8 Y16.7 F500 M3 S128
G1 X57.8 Y16.8 F1500 M3 S0
G1 X58.2 Y16.8 F500 M3 S128
G1 X59.7 Y16.8 F1500 M3 S0
G1 X60.4 Y16.8 F500 M3 S128
G1 X60.6 Y16.8 F1500 M3 S0
G1 X61.3 Y16.8 F500 M3 S128
G1 X62 Y16.8 F1500 M3 S0
G1 X62.6 Y16.8 F500 M3 S128
G1 X63.2 Y16.8 F1500 M3 S0
G1 X63.8 Y16.8 F500 M3 S128
G1 X64.5 Y16.8 F1500 M3 S0
G1 X65.8 Y16.8 F500 M3 S128
G1 X66.2 Y16.8 F1500 M3 S0
G1 X66.6 Y16.8 F500 M3 S128
G1 X67.1 Y16.8 F1500 M3 S0
G1 X67.6 Y16.8 F500 M3 S128
G1 X73.8 Y16.8 F1500 M3 S0
G1 X74.4 Y16.8 F500 M3 S128
G1 X74.7 Y16.8 F1500 M3 S0
G1 X75.3 Y16.8 F500 M3 S128
G1 X75.7 Y16.8 F1500 M3 S0
G1 X77 Y16.8 F500 M3 S128
G1 X77.3 Y16.8 F1500 M3 S0
G1 X77.7 Y16.8 F500 M3 S128
G1 X78.4 Y16.8 F1500 M3 S0
G1 X79 Y16.8 F500 M3 S128
G1 X79.4 Y16.8 F1500 M3 S0
G1 X80 Y16.8 F500 M3 S128
G1 X80.3 Y16.8 F1500 M3 S0
G1 X80.9 Y16.8 F500 M3 S128
G1 X81.3 Y16.8 F1500 M3 S0
G1 X82.6 Y16.8 F500 M3 S128
G1 X81.7 Y16.9 F1500 M3 S0
G1 X81.3 Y16.9 F500 M3 S128
G1 X80.9 Y16.9 F1500 M3 S0
G1 X80.5 Y16.9 F500 M3 S128
G1 X79.8 Y16.9 F1500 M3 S0
G1 X79.3 Y16.9 F500 M3 S128
G1 X79 Y16.9 F1500 M3 S0
G1 X78.3 Y16.9 F500 M3 S128
G1 X77.7 Y16.9 F1500 M3 S0
G1 X77.3 Y16.9 F500 M3 S128
G1 X76.1 Y16.9 F1500 M3 S0
G1 X75.7 Y16.9 F500 M3 S128
G1 X75.3 Y16.9 F1500 M3 S0
G1 X74.9 Y16.9 F500 M3 S128
G1 X74.2 Y16.9 F1500 M3 S0
G1 X73.7 Y16.9 F500 M3 S128
G1 X67.6 Y16.9 F1500 M3 S0
G1 X67.1 Y16.9 F500 M3 S128
G1 X66.6 Y16.9 F1500 M3 S0
G1 X66.2 Y16.9 F500 M3 S128
G1 X64.9 Y16.9 F1500 M3 S0
G1 X64.5 Y16.9 F500 M3 S128
G1 X63.8 Y16.9 F1500 M3 S0
G1 X63.2 Y16.9 F500 M3 S128
G1 X62.6 Y16.9 F1500 M3 S0
G1 X62 Y16.9 F500 M3 S128
G1 X61.3 Y16.9 F1500 M3 S0
G1 X60.8 Y16.9 F500 M3 S128
G1 X60.2 Y16.9 F1500 M3 S0
G1 X59.7 Y16.9 F500 M3 S128
G1 X58.2 Y16.9 F1500 M3 S0
G1 X57.8 Y16.9 F500 M3 S128
G1 X57.8 Y17 F1500 M3 S0
G1 X58.2 Y17 F500 M3 S128
G1 X59.6 Y17 F1500 M3 S0
G1 X60.1 Y17 F500 M3 S128
G1 X60.9 Y17 F1500 M3 S0
G1 X61.4 Y17 F500 M3 S128
G1 X62 Y17 F1500 M3 S0
G1 X62.7 Y17 F500 M3 S128
G1 X63.1 Y17 F1500 M3 S0
G1 X63.9 Y17 F500 M3 S128
G1 X64.5 Y17 F1500 M3 S0
G1 X64.9 Y17 F500 M3 S128
G1 X66.2 Y17 F1500 M3 S0
G1 X66.6 Y17 F500 M3 S128
G1 X67 Y17 F1500 M3 S0
G1 X67.5 Y17 F500 M3 S128
G1 X73.7 Y17 F1500 M3 S0
G1 X74.1 Y17 F500 M3 S128
G1 X74.9 Y17 F1500 M3 S0
G1 X75.3 Y17 F500 M3 S128
G1 X75.7 Y17 F1500 M3 S0
G1 X76.1 Y17 F500 M3 S128
G1 X77.3 Y17 F1500 M3 S0
G1 X77.7 Y17 F500 M3 S128
G1 X78.3 Y17 F1500 M3 S0
G1 X79 Y17 F500 M3 S128
G1 X79.3 Y17 F1500 M3 S0
G1 X79.7 Y17 F500 M3 S128
G1 X80.5 Y17 F1500 M3 S0
G1 X80.9 Y17 F500 M3 S128
G1 X81.3 Y17 F1500 M3 S0
G1 X81.7 Y17 F500 M3 S128
G1 X81.7 Y17.1 F1500 M3 S0
G1 X81.3 Y17.1 F500 M3 S128
G1 X80.9 Y17.1 F1500 M3 S0
G1 X80.5 Y17.1 F500 M3 S128
G1 X79 Y17.1 F1500 M3 S0
G1 X78.2 Y17.1 F500 M3 S128
G1 X77.7 Y17.1 F1500 M3 S0
G1 X77.3 Y17.1 F500 M3 S128
G1 X76.1 Y17.1 F1500 M3 S0
G1 X75.7 Y17.1 F500 M3 S128
G1 X75.3 Y17.1 F1500 M3 S0
G1 X74.9 Y17.1 F500 M3 S128
G1 X67.5 Y17.1 F1500 M3 S0
G1 X67 Y17.1 F500 M3 S128
G1 X66.6 Y17.1 F1500 M3 S0
G1 X66.2 Y17.1 F500 M3 S128
G1 X64.9 Y17.1 F1500 M3 S0
G1 X64.5 Y17.1 F500 M3 S128
G1 X63.9 Y17.1 F1500 M3 S0
G1 X63.5 Y17.1 F500 M3 S128
G1 X63.4 Y17.1 F1500 M3 S0
G1 X63.1 Y17.1 F500 M3 S128
G1 X62.7 Y17.1 F1500 M3 S0
G1 X62.4 Y17.1 F500 M3 S128
G1 X62.3 Y17.1 F1500 M3 S0
G1 X61.9 Y17.1 F500 M3 S128
G1 X61.4 Y17.1 F1500 M3 S0
G1 X61 Y17.1 F500 M3 S128
G1 X60 Y17.1 F1500 M3 S0
G1 X59.6 Y17.1 F500 M3 S128
G1 X58.6 Y17.1 F1500 M3 S0
G1 X57.8 Y17.1 F500 M3 S128
G1 X57.8 Y17.2 F1500 M3 S0
G1 X59 Y17.2 F500 M3 S128
G1 X59.5 Y17.2 F1500 M3 S0
G1 X60 Y17.2 F500 M3 S128
G1 X61 Y17.2 F1500 M3 S0
G1 X61.4 Y17.2 F500 M3 S128
G1 X61.9 Y17.2 F1500 M3 S0
G1 X62.3 Y17.2 F500 M3 S128
G1 X62.4 Y17.2 F1500 M3 S0
G1 X62.7 Y17.2 F500 M3 S128
G1 X63.1 Y17.2 F1500 M3 S0
G1 X63.4 Y17.2 F500 M3 S128
G1 X63.5 Y17.2 F1500 M3 S0
G1 X63.9 Y17.2 F500 M3 S128
G1 X64.5 Y17.2 F1500 M3 S0
G1 X64.9 Y17.2 F500 M3 S128
G1 X66.2 Y17.2 F1500 M3 S0
G1 X66.6 Y17.2 F500 M3 S128
G1 X66.9 Y17.2 F1500 M3 S0
G1 X67.4 Y17.2 F500 M3 S128
G1 X74.8 Y17.2 F1500 M3 S0
G1 X75.3 Y17.2 F500 M3 S128
G1 X75.7 Y17.2 F1500 M3 S0
G1 X76.1 Y17.2 F500 M3 S128
G1 X77.3 Y17.2 F1500 M3 S0
G1 X77.7 Y17.2 F500 M3 S128
G1 X78.1 Y17.2 F1500 M3 S0
G1 X79 Y17.2 F500 M3 S128
G1 X80.4 Y17.2 F1500 M3 S0
G1 X80.9 Y17.2 F500 M3 S128
G1 X81.3 Y17.2 F1500 M3 S0
G1 X81.7 Y17.2 F500 M3 S128
G1 X81.7 Y17.3 F1500 M3 S0
G1 X81.3 Y17.3 F500 M3 S128
G1 X80.9 Y17.3 F1500 M3 S0
G1 X80.1 Y17.3 F500 M3 S128
G1 X79 Y17.3 F1500 M3 S0
G1 X78.6 Y17.3 F500 M3 S128
G1 X78.5 Y17.3 F1500 M3 S0
G1 X78 Y17.3 F500 M3 S128
G1 X77.7 Y17.3 F1500 M3 S0
G1 X77.3 Y17.3 F500 M3 S128
G1 X76.1 Y17.3 F1500 M3 S0
G1 X75.7 Y17.3 F500 M3 S128
G1 X75.3 Y17.3 F1500 M3 S0
G1 X74.5 Y17.3 F500 M3 S128
G1 X67.4 Y17.3 F1500 M3 S0
G1 X66.2 Y17.3 F500 M3 S128
G1 X64.9 Y17.3 F1500 M3 S0
G1 X64.5 Y17.3 F500 M3 S128
G1 X63.9 Y17.3 F1500 M3 S0
G1 X63.5 Y17.3 F500 M3 S128
G1 X63.4 Y17.3 F1500 M3 S0
G1 X63.1 Y17.3 F500 M3 S128
G1 X62.7 Y17.3 F1500 M3 S0
G1 X62.4 Y17.3 F500 M3 S128
G1 X62.3 Y17.3 F1500 M3 S0
G1 X61.9 Y17.3 F500 M3 S128
G1 X61.5 Y17.3 F1500 M3 S0
G1 X61 Y17.3 F500 M3 S128
G1 X60 Y17.3 F1500 M3 S0
G1 X59.5 Y17.3 F500 M3 S128
G1 X59.1 Y17.3 F1500 M3 S0
G1 X57.8 Y17.3 F500 M3 S128
G1 X11.4 Y17.3 F1500 M3 S0
G1 X11.1 Y17.3 F500 M3 S128
G1 X11.2 Y17.4 F1500 M3 S0
G1 X11.4 Y17.4 F500 M3 S128
G1 X57.8 Y17.4 F1500 M3 S0
G1 X59.2 Y17.4 F500 M3 S128
G1 X59.5 Y17.4 F1500 M3 S0
G1 X60 Y17.4 F500 M3 S128
G1 X61 Y17.4 F1500 M3 S0
G1 X61.5 Y17.4 F500 M3 S128
G1 X61.9 Y17.4 F1500 M3 S0
G1 X62.2 Y17.4 F500 M3 S128
G1 X62.4 Y17.4 F1500 M3 S0
G1 X62.8 Y17.4 F500 M3 S128
G1 X63 Y17.4 F1500 M3 S0
G1 X63.4 Y17.4 F500 M3 S128
G1 X63.6 Y17.4 F1500 M3 S0
G1 X64 Y17.4 F500 M3 S128
G1 X64.5 Y17.4 F1500 M3 S0
G1 X65.8 Y17.4 F500 M3 S128
G1 X66.2 Y17.4 F1500 M3 S0
G1 X67.6 Y17.4 F500 M3 S128
G1 X74.1 Y17.4 F1500 M3 S0
G1 X75.2 Y17.4 F500 M3 S128
G1 X75.7 Y17.4 F1500 M3 S0
G1 X77 Y17.4 F500 M3 S128
G1 X77.3 Y17.4 F1500 M3 S0
G1 X77.7 Y17.4 F500 M3 S128
G1 X78 Y17.4 F1500 M3 S0
G1 X78.4 Y17.4 F500 M3 S128
G1 X78.6 Y17.4 F1500 M3 S0
G1 X79 Y17.4 F500 M3 S128
G1 X79.7 Y17.4 F1500 M3 S0
G1 X80.8 Y17.4 F500 M3 S128
G1 X81.3 Y17.4 F1500 M3 S0
G1 X82.6 Y17.4 F500 M3 S128
G1 X82.6 Y17.5 F1500 M3 S0
G1 X81.3 Y17.5 F500 M3 S128
G1 X80.7 Y17.5 F1500 M3 S0
G1 X79.5 Y17.5 F500 M3 S128
G1 X79 Y17.5 F1500 M3 S0
G1 X78.6 Y17.5 F500 M3 S128
G1 X78.3 Y17.5 F1500 M3 S0
G1 X77.9 Y17.5 F500 M3 S128
G1 X77.7 Y17.5 F1500 M3 S0
G1 X77.3 Y17.5 F500 M3 S128
G1 X77 Y17.5 F1500 M3 S0
G1 X75.7 Y17.5 F500 M3 S128
G1 X75.1 Y17.5 F1500 M3 S0
G1 X73.9 Y17.5 F500 M3 S128
G1 X67.7 Y17.5 F1500 M3 S0
G1 X66.2 Y17.5 F500 M3 S128
G1 X65.8 Y17.5 F1500 M3 S0
G1 X64.5 Y17.5 F500 M3 S128
G1 X64 Y17.5 F1500 M3 S0
G1 X63.6 Y17.5 F500 M3 S128
G1 X63.3 Y17.5 F1500 M3 S0
G1 X63 Y17.5 F500 M3 S128
G1 X62.8 Y17.5 F1500 M3 S0
G1 X62.5 Y17.5 F500 M3 S128
G1 X62.2 Y17.5 F1500 M3 S0
G1 X61.8 Y17.5 F500 M3 S128
G1 X61.5 Y17.5 F1500 M3 S0
G1 X61 Y17.5 F500 M3 S128
G1 X59.9 Y17.5 F1500 M3 S0
G1 X59.5 Y17.5 F500 M3 S128
G1 X59.3 Y17.5 F1500 M3 S0
G1 X58.7 Y17.5 F500 M3 S128
G1 X58.2 Y17.5 F1500 M3 S0
G1 X57.8 Y17.5 F500 M3 S128
G1 X11.5 Y17.5 F1500 M3 S0
G1 X11.1 Y17.5 F500 M3 S128
G1 X11.2 Y17.6 F1500 M3 S0
G1 X11.3 Y17.6 F500 M3 S128
G1 X11.4 Y17.6 F1500 M3 S0
G1 X11.5 Y17.6 F500 M3 S128
G1 X57.8 Y17.6 F1500 M3 S0
G1 X58.2 Y17.6 F500 M3 S128
G1 X58.8 Y17.6 F1500 M3 S0
G1 X59.3 Y17.6 F500 M3 S128
G1 X59.5 Y17.6 F1500 M3 S0
G1 X60 Y17.6 F500 M3 S128
G1 X61 Y17.6 F1500 M3 S0
G1 X61.5 Y17.6 F500 M3 S128
G1 X61.8 Y17.6 F1500 M3 S0
G1 X62.2 Y17.6 F500 M3 S128
G1 X62.5 Y17.6 F1500 M3 S0
G1 X62.8 Y17.6 F500 M3 S128
G1 X63 Y17.6 F1500 M3 S0
G1 X63.3 Y17.6 F500 M3 S128
G1 X63.6 Y17.6 F1500 M3 S0
G1 X64 Y17.6 F500 M3 S128
G1 X64.5 Y17.6 F1500 M3 S0
G1 X65.8 Y17.6 F500 M3 S128
G1 X66.2 Y17.6 F1500 M3 S0
G1 X66.6 Y17.6 F500 M3 S128
G1 X67.2 Y17.6 F1500 M3 S0
G1 X67.7 Y17.6 F500 M3 S128
G1 X73.8 Y17.6 F1500 M3 S0
G1 X74.9 Y17.6 F500 M3 S128
G1 X75.7 Y17.6 F1500 M3 S0
G1 X77 Y17.6 F500 M3 S128
G1 X77.3 Y17.6 F1500 M3 S0
G1 X77.7 Y17.6 F500 M3 S128
G1 X77.8 Y17.6 F1500 M3 S0
G1 X78.3 Y17.6 F500 M3 S128
G1 X78.6 Y17.6 F1500 M3 S0
G1 X79 Y17.6 F500 M3 S128
G1 X79.4 Y17.6 F1500 M3 S0
G1 X80.5 Y17.6 F500 M3 S128
G1 X81.3 Y17.6 F1500 M3 S0
G1 X82.6 Y17.6 F500 M3 S128
G1 X81.7 Y17.7 F1500 M3 S0
G1 X81.3 Y17.7 F500 M3 S128
G1 X80.1 Y17.7 F1500 M3 S0
G1 X79.4 Y17.7 F500 M3 S128
G1 X79 Y17.7 F1500 M3 S0
G1 X78.6 Y17.7 F500 M3 S128
G1 X78.2 Y17.7 F1500 M3 S0
G1 X77.8 Y17.7 F500 M3 S128
G1 X77.7 Y17.7 F1500 M3 S0
G1 X77.3 Y17.7 F500 M3 S128
G1 X76.1 Y17.7 F1500 M3 S0
G1 X75.7 Y17.7 F500 M3 S128
G1 X74.5 Y17.7 F1500 M3 S0
G1 X73.8 Y17.7 F500 M3 S128
G1 X67.7 Y17.7 F1500 M3 S0
G1 X67.3 Y17.7 F500 M3 S128
G1 X66.6 Y17.7 F1500 M3 S0
G1 X66.2 Y17.7 F500 M3 S128
G1 X64.9 Y17.7 F1500 M3 S0
G1 X64.5 Y17.7 F500 M3 S128
G1 X64 Y17.7 F1500 M3 S0
G1 X63.6 Y17.7 F500 M3 S128
G1 X63.3 Y17.7 F1500 M3 S0
G1 X63 Y17.7 F500 M3 S128
G1 X62.9 Y17.7 F1500 M3 S0
G1 X62.5 Y17.7 F500 M3 S128
G1 X62.2 Y17.7 F1500 M3 S0
G1 X61.8 Y17.7 F500 M3 S128
G1 X61.5 Y17.7 F1500 M3 S0
G1 X61 Y17.7 F500 M3 S128
G1 X60 Y17.7 F1500 M3 S0
G1 X59.5 Y17.7 F500 M3 S128
G1 X59.3 Y17.7 F1500 M3 S0
G1 X58.9 Y17.7 F500 M3 S128
G1 X58.2 Y17.7 F1500 M3 S0
G1 X57.8 Y17.7 F500 M3 S128
G1 X11.5 Y17.7 F1500 M3 S0
G1 X11.1 Y17.7 F500 M3 S128
G1 X11 Y17.8 F1500 M3 S0
G1 X11.3 Y17.8 F500 M3 S128
G1 X11.4 Y17.8 F1500 M3 S0
G1 X11.5 Y17.8 F500 M3 S128
G1 X57.8 Y17.8 F1500 M3 S0
G1 X58.2 Y17.8 F500 M3 S128
G1 X58.9 Y17.8 F1500 M3 S0
G1 X59.3 Y17.8 F500 M3 S128
G1 X59.6 Y17.8 F1500 M3 S0
G1 X60 Y17.8 F500 M3 S128
G1 X61 Y17.8 F1500 M3 S0
G1 X61.4 Y17.8 F500 M3 S128
G1 X61.7 Y17.8 F1500 M3 S0
G1 X62.2 Y17.8 F500 M3 S128
G1 X62.5 Y17.8 F1500 M3 S0
G1 X63.3 Y17.8 F500 M3 S128
G1 X63.7 Y17.8 F1500 M3 S0
G1 X64.1 Y17.8 F500 M3 S128
G1 X64.5 Y17.8 F1500 M3 S0
G1 X64.9 Y17.8 F500 M3 S128
G1 X66.2 Y17.8 F1500 M3 S0
G1 X66.6 Y17.8 F500 M3 S128
G1 X67.3 Y17.8 F1500 M3 S0
G1 X67.8 Y17.8 F500 M3 S128
G1 X73.8 Y17.8 F1500 M3 S0
G1 X74.2 Y17.8 F500 M3 S128
G1 X75.7 Y17.8 F1500 M3 S0
G1 X76.1 Y17.8 F500 M3 S128
G1 X77.3 Y17.8 F1500 M3 S0
G1 X78.1 Y17.8 F500 M3 S128
G1 X78.6 Y17.8 F1500 M3 S0
G1 X79 Y17.8 F500 M3 S128
G1 X79.4 Y17.8 F1500 M3 S0
G1 X79.8 Y17.8 F500 M3 S128
G1 X81.3 Y17.8 F1500 M3 S0
G1 X81.7 Y17.8 F500 M3 S128
G1 X81.7 Y17.9 F1500 M3 S0
G1 X81.3 Y17.9 F500 M3 S128
G1 X79.8 Y17.9 F1500 M3 S0
G1 X79.3 Y17.9 F500 M3 S128
G1 X79 Y17.9 F1500 M3 S0
G1 X78.6 Y17.9 F500 M3 S128
G1 X78.1 Y17.9 F1500 M3 S0
G1 X77.3 Y17.9 F500 M3 S128
G1 X76.1 Y17.9 F1500 M3 S0
