; G-Code generated by Simplify3D(R) Version 3.1.1
; Sep 2, 2017 at 8:23:29 AM
; Settings Summary
;   processName,Process1
;   applyToModels,relay-mount-base
;   profileName,FlashForge Creator Pro(2) (modified)
;   profileVersion,2015-05-01 08:00:00
;   baseProfile,
;   printMaterial,PLA
;   printQuality,Medium
;   printExtruders,Left Extruder Only
;   extruderName,Right Extruder,Left Extruder
;   extruderToolheadNumber,0,1
;   extruderDiameter,0.4,0.4
;   extruderAutoWidth,0,0
;   extruderWidth,0.4,0.4
;   extrusionMultiplier,0.9,0.9
;   extruderUseRetract,1,1
;   extruderRetractionDistance,1,1
;   extruderExtraRestartDistance,0,0
;   extruderRetractionZLift,0,0
;   extruderRetractionSpeed,1200,1200
;   extruderUseCoasting,0,0
;   extruderCoastingDistance,0.2,0.2
;   extruderUseWipe,0,0
;   extruderWipeDistance,5,5
;   primaryExtruder,1
;   layerHeight,0.2
;   topSolidLayers,3
;   bottomSolidLayers,3
;   perimeterOutlines,2
;   printPerimetersInsideOut,1
;   startPointOption,2
;   startPointOriginX,0
;   startPointOriginY,0
;   startPointOriginZ,0
;   sequentialIslands,0
;   spiralVaseMode,0
;   firstLayerHeightPercentage,90
;   firstLayerWidthPercentage,100
;   firstLayerUnderspeed,0.5
;   useRaft,0
;   raftExtruder,1
;   raftLayers,3
;   raftOffset,3
;   raftSeparationDistance,0.14
;   raftInfill,85
;   disableRaftBaseLayers,0
;   useSkirt,1
;   skirtExtruder,1
;   skirtLayers,1
;   skirtOutlines,2
;   skirtOffset,4
;   usePrimePillar,0
;   primePillarExtruder,999
;   primePillarWidth,12
;   primePillarLocation,7
;   primePillarSpeedMultiplier,1
;   useOozeShield,0
;   oozeShieldExtruder,999
;   oozeShieldOffset,2
;   oozeShieldOutlines,1
;   oozeShieldSidewallShape,1
;   oozeShieldSidewallAngle,30
;   oozeShieldSpeedMultiplier,1
;   infillExtruder,1
;   internalInfillPattern,Rectilinear
;   externalInfillPattern,Rectilinear
;   infillPercentage,20
;   outlineOverlapPercentage,20
;   infillExtrusionWidthPercentage,100
;   minInfillLength,5
;   infillLayerInterval,1
;   infillAngles,45,-45
;   overlapInfillAngles,0
;   generateSupport,1
;   supportExtruder,1
;   supportInfillPercentage,30
;   supportExtraInflation,0
;   denseSupportLayers,0
;   denseSupportInfillPercentage,70
;   supportLayerInterval,1
;   supportHorizontalPartOffset,0.3
;   supportUpperSeparationLayers,1
;   supportLowerSeparationLayers,1
;   supportType,0
;   supportGridSpacing,4
;   maxOverhangAngle,45
;   supportAngles,0
;   temperatureName,Right Extruder,Left Extruder,Heated Build Platform
;   temperatureNumber,0,1,0
;   temperatureSetpointCount,1,1,1
;   temperatureSetpointLayers,1,1,1
;   temperatureSetpointTemperatures,0,230,60
;   temperatureStabilizeAtStartup,0,0,0
;   temperatureHeatedBed,0,0,1
;   temperatureRelayBetweenLayers,0,0,0
;   temperatureRelayBetweenLoops,0,0,0
;   fanLayers,1,2
;   fanSpeeds,0,100
;   blipFanToFullPower,0
;   adjustSpeedForCooling,1
;   minSpeedLayerTime,15
;   minCoolingSpeedSlowdown,20
;   increaseFanForCooling,0
;   minFanLayerTime,45
;   maxCoolingFanSpeed,100
;   increaseFanForBridging,1
;   bridgingFanSpeed,100
;   use5D,1
;   relativeEdistances,1
;   allowEaxisZeroing,0
;   independentExtruderAxes,1
;   includeM10123,0
;   stickySupport,1
;   applyToolheadOffsets,0
;   gcodeXoffset,0
;   gcodeYoffset,0
;   gcodeZoffset,0
;   overrideMachineDefinition,1
;   machineTypeOverride,0
;   strokeXoverride,225
;   strokeYoverride,145
;   strokeZoverride,150
;   originOffsetXoverride,112.5
;   originOffsetYoverride,72.5
;   originOffsetZoverride,0
;   homeXdirOverride,1
;   homeYdirOverride,1
;   homeZdirOverride,-1
;   flipXoverride,1
;   flipYoverride,-1
;   flipZoverride,1
;   toolheadOffsets,0,0|34,0|0,0|0,0|0,0|0,0
;   overrideFirmwareConfiguration,1
;   firmwareTypeOverride,MakerBot/Sailfish Firmware
;   GPXconfigOverride,r1d
;   baudRateOverride,115200
;   overridePrinterModels,1
;   printerModelsOverride,FlashForge_CreatorPro.stl
;   startingGcode,; **** Replicator 1 dual start.gcode ****,M73 P0 ; enable build progress,G162 X Y F3000 ; home XY maximum,G161 Z F1200 ; home Z minimum,G92 Z-5 ; set Z to -5,G1 Z0 ; move Z to 0,G161 Z F100 ; home Z slowly,M132 X Y Z A B ; recall home offsets,M135 T0 ; load right extruder offsets,G1 X150 Y-70 Z30 F9000 ; move to wait position right hand side of the table,G130 X20 Y20 Z20 A20 B20 ; lower stepper Vrefs while heating,M126 S[fan_speed_pwm],M140 S[bed0_temperature] T0,M134 T0 ; stabilize bed temperature,M104 S[extruder1_temperature] T1,M133 T1 ; stabilize left extruder temperature,G130 X127 Y127 Z40 A127 B127 ; default stepper Vrefs,G92 A0 B0 ; zero extruders,G1 Z0.4 ; position nozzle,M135 T1 ; left tool,G1 X110 Y-70 E30 F300 ; move nozzle,G1 X120 Y-70 Z0.15 F1200 ; slow wipe,G1 X110 Y-70 Z0.5 F1200 ; lift,G92 A0 B0 ; zero extruders,M73 P1 ;@body (notify GPX body has started),; **** end of start.gcode ****
;   layerChangeGcode,
;   retractionGcode,
;   toolChangeGcode,
;   endingGcode,; **** Replicator 1 dual end.gcode ****,M73 P100 ; end build progress,G1 Z150 F1000 ; send Z axis to bottom of machine,M140 S0 T0 ; cool down HBP,M104 S0 T0 ; cool down right extruder,M104 S0 T1 ; cool down left extruder,M127 ; stop blower fan,G162 X Y F3000 ; home XY maximum,M18 ; disable stepper,M72 P1 ; play Ta-Da song,; **** end of end.gcode ****
;   exportFileFormat,x3g
;   celebration,0
;   celebrationSong,Random Song
;   postProcessing,
;   defaultSpeed,3600
;   outlineUnderspeed,0.5
;   solidInfillUnderspeed,0.8
;   supportUnderspeed,0.8
;   rapidXYspeed,4200
;   rapidZspeed,1200
;   minBridgingArea,50
;   bridgingExtraInflation,0
;   bridgingExtrusionMultiplier,1
;   bridgingSpeedMultiplier,0.8
;   filamentDiameter,1.75
;   filamentPricePerKg,46
;   filamentDensity,1.25
;   useMinPrintHeight,0
;   minPrintHeight,0
;   useMaxPrintHeight,0
;   maxPrintHeight,0
;   useDiaphragm,0
;   diaphragmLayerInterval,20
;   robustSlicing,1
;   mergeAllIntoSolid,0
;   onlyRetractWhenCrossingOutline,1
;   retractBetweenLayers,1
;   useRetractionMinTravel,0
;   retractionMinTravel,3
;   retractWhileWiping,0
;   onlyWipeOutlines,1
;   avoidCrossingOutline,0
;   maxMovementDetourFactor,3
;   toolChangeRetractionDistance,12
;   toolChangeExtraRestartDistance,-0.5
;   toolChangeRetractionSpeed,600
;   allowThinWallGapFill,1
;   thinWallAllowedOverlapPercentage,10
;   horizontalSizeCompensation,0
G90
M83
; **** Replicator 1 dual start.gcode ****
M73 P0 ; enable build progress
G162 X Y F3000 ; home XY maximum
G161 Z F1200 ; home Z minimum
G92 Z-5 ; set Z to -5
G1 Z0 ; move Z to 0
G161 Z F100 ; home Z slowly
M132 X Y Z A B ; recall home offsets
M135 T0 ; load right extruder offsets
G1 X150 Y-70 Z30 F9000 ; move to wait position right hand side of the table
G130 X20 Y20 Z20 A20 B20 ; lower stepper Vrefs while heating
M127
M140 S60 T0
M134 T0 ; stabilize bed temperature
M104 S230 T1
M133 T1 ; stabilize left extruder temperature
G130 X127 Y127 Z40 A127 B127 ; default stepper Vrefs
G92 A0 B0 ; zero extruders
G1 Z0.4 ; position nozzle
M135 T1 ; left tool
G1 X110 Y-70 E30 F300 ; move nozzle
G1 X120 Y-70 Z0.15 F1200 ; slow wipe
G1 X110 Y-70 Z0.5 F1200 ; lift
G92 A0 B0 ; zero extruders
M73 P1 ;@body (notify GPX body has started)
; **** end of start.gcode ****
G1 E-1.0000 F1200
G1 Z0.180 F1200
; layer 1, Z = 0.18
M135 T1
; tool H0.200 W0.400
; skirt
G1 X46.226 Y33.175 F4200
G1 E1.0000 F360
G1 X-46.226 Y33.175 E2.7675 F1800
G1 X-46.447 Y33.084 E0.0071
G1 X-48.959 Y30.572 E0.1063
G1 X-49.050 Y30.351 E0.0071
G1 X-49.050 Y-30.351 E1.8171
G1 X-48.959 Y-30.572 E0.0071
G1 X-46.447 Y-33.084 E0.1063
G1 X-46.226 Y-33.175 E0.0071
G1 X46.226 Y-33.175 E2.7675
G1 X46.447 Y-33.084 E0.0071
G1 X48.959 Y-30.572 E0.1063
G1 X49.050 Y-30.351 E0.0071
G1 X49.050 Y30.351 E1.8171
G1 X48.959 Y30.572 E0.0071
G1 X46.447 Y33.084 E0.1063
G1 X46.226 Y33.175 E0.0071
G1 X46.147 Y32.775 F4200
G1 X-46.147 Y32.775 E2.7627 F1800
G1 X-46.220 Y32.745 E0.0024
G1 X-48.620 Y30.345 E0.1016
G1 X-48.650 Y30.272 E0.0024
G1 X-48.650 Y-30.272 E1.8123
G1 X-48.620 Y-30.345 E0.0024
G1 X-46.220 Y-32.745 E0.1016
G1 X-46.147 Y-32.775 E0.0024
G1 X46.147 Y-32.775 E2.7627
G1 X46.220 Y-32.745 E0.0024
G1 X48.620 Y-30.345 E0.1016
G1 X48.650 Y-30.272 E0.0024
G1 X48.650 Y30.272 E1.8123
G1 X48.620 Y30.345 E0.0024
G1 X46.220 Y32.745 E0.1016
G1 X46.147 Y32.775 E0.0024
G1 E-1.0000 F1200
; inner perimeter
G1 X43.850 Y27.975 F4200
G1 E1.0000 F1200
G1 X-43.850 Y27.975 E2.6252 F1350
G1 X-43.850 Y-27.975 E1.6748
G1 X43.850 Y-27.975 E2.6252
G1 X43.850 Y27.975 E1.6748
; outer perimeter
G1 X44.250 Y28.375 F4200
G1 X-44.250 Y28.375 E2.6492 F900
G1 X-44.250 Y-28.375 E1.6988
G1 X44.250 Y-28.375 E2.6492
G1 X44.250 Y28.375 E1.6988
; inner perimeter
G1 X24.048 Y11.485 F4200
G1 X24.422 Y10.889 E0.0211 F1350
G1 X24.655 Y10.225 E0.0211
G1 X24.730 Y9.559 E0.0201
G1 X24.730 Y8.373 E0.0355
G1 X25.150 Y8.023 E0.0164
G1 X25.718 Y7.349 E0.0264
G1 X26.160 Y6.588 E0.0264
G1 X26.463 Y5.761 E0.0264
G1 X26.617 Y4.894 E0.0264
G1 X26.619 Y4.013 E0.0264
G1 X26.467 Y3.145 E0.0264
G1 X26.167 Y2.317 E0.0264
G1 X25.727 Y1.554 E0.0264
G1 X25.162 Y0.879 E0.0264
G1 X24.488 Y0.312 E0.0264
G1 X23.725 Y-0.128 E0.0264
G1 X22.898 Y-0.430 E0.0264
G1 X22.030 Y-0.583 E0.0264
G1 X21.150 Y-0.583 E0.0264
G1 X20.282 Y-0.430 E0.0264
G1 X19.455 Y-0.128 E0.0264
G1 X18.692 Y0.312 E0.0264
G1 X18.018 Y0.879 E0.0264
G1 X17.453 Y1.554 E0.0264
G1 X17.013 Y2.317 E0.0264
G1 X16.713 Y3.145 E0.0264
G1 X16.561 Y4.013 E0.0264
G1 X16.563 Y4.894 E0.0264
G1 X16.717 Y5.761 E0.0264
G1 X17.020 Y6.588 E0.0264
G1 X17.462 Y7.349 E0.0264
G1 X18.030 Y8.023 E0.0264
G1 X18.450 Y8.373 E0.0164
G1 X18.450 Y9.559 E0.0355
G1 X18.525 Y10.225 E0.0201
G1 X18.758 Y10.889 E0.0211
G1 X19.132 Y11.485 E0.0211
G1 X19.630 Y11.983 E0.0211
G1 X20.226 Y12.357 E0.0211
G1 X20.890 Y12.590 E0.0211
G1 X21.590 Y12.669 E0.0211
G1 X22.290 Y12.590 E0.0211
G1 X22.954 Y12.357 E0.0211
G1 X23.550 Y11.983 E0.0211
G1 X24.048 Y11.485 E0.0211
; outer perimeter
G1 X23.733 Y11.234 F4200
G1 X24.060 Y10.714 E0.0184 F900
G1 X24.263 Y10.135 E0.0184
G1 X24.330 Y9.536 E0.0180
G1 X24.330 Y8.186 E0.0404
G1 X24.867 Y7.738 E0.0209
G1 X25.390 Y7.118 E0.0243
G1 X25.796 Y6.417 E0.0243
G1 X26.075 Y5.656 E0.0243
G1 X26.217 Y4.858 E0.0243
G1 X26.219 Y4.047 E0.0243
G1 X26.079 Y3.249 E0.0243
G1 X25.803 Y2.487 E0.0243
G1 X25.398 Y1.784 E0.0243
G1 X24.878 Y1.163 E0.0243
G1 X24.257 Y0.641 E0.0243
G1 X23.555 Y0.235 E0.0243
G1 X22.794 Y-0.042 E0.0243
G1 X21.995 Y-0.183 E0.0243
G1 X21.185 Y-0.183 E0.0243
G1 X20.386 Y-0.042 E0.0243
G1 X19.625 Y0.235 E0.0243
G1 X18.923 Y0.641 E0.0243
G1 X18.302 Y1.163 E0.0243
G1 X17.782 Y1.784 E0.0243
G1 X17.377 Y2.487 E0.0243
G1 X17.101 Y3.249 E0.0243
G1 X16.961 Y4.047 E0.0243
G1 X16.963 Y4.858 E0.0243
G1 X17.105 Y5.656 E0.0243
G1 X17.384 Y6.417 E0.0243
G1 X17.790 Y7.118 E0.0243
G1 X18.313 Y7.738 E0.0243
G1 X18.850 Y8.186 E0.0209
G1 X18.850 Y9.536 E0.0404
G1 X18.917 Y10.135 E0.0180
G1 X19.120 Y10.714 E0.0184
G1 X19.447 Y11.234 E0.0184
G1 X19.881 Y11.668 E0.0184
G1 X20.401 Y11.995 E0.0184
G1 X20.980 Y12.198 E0.0184
G1 X21.590 Y12.266 E0.0184
G1 X22.200 Y12.198 E0.0184
G1 X22.779 Y11.995 E0.0184
G1 X23.299 Y11.668 E0.0184
G1 X23.733 Y11.234 E0.0184
G1 E-1.0000 F1200
; inner perimeter
G1 X-13.678 Y10.889 F4200
G1 E1.0000 F1200
G1 X-13.445 Y10.225 E0.0211 F1350
G1 X-13.370 Y9.559 E0.0201
G1 X-13.370 Y8.373 E0.0355
G1 X-12.950 Y8.023 E0.0164
G1 X-12.382 Y7.349 E0.0264
G1 X-11.940 Y6.588 E0.0264
G1 X-11.637 Y5.761 E0.0264
G1 X-11.483 Y4.894 E0.0264
G1 X-11.481 Y4.013 E0.0264
G1 X-11.633 Y3.145 E0.0264
G1 X-11.933 Y2.317 E0.0264
G1 X-12.373 Y1.554 E0.0264
G1 X-12.938 Y0.879 E0.0264
G1 X-13.612 Y0.312 E0.0264
G1 X-14.375 Y-0.128 E0.0264
G1 X-15.202 Y-0.430 E0.0264
G1 X-16.070 Y-0.583 E0.0264
G1 X-16.950 Y-0.583 E0.0264
G1 X-17.818 Y-0.430 E0.0264
G1 X-18.645 Y-0.128 E0.0264
G1 X-19.408 Y0.312 E0.0264
G1 X-20.082 Y0.879 E0.0264
G1 X-20.647 Y1.554 E0.0264
G1 X-21.087 Y2.317 E0.0264
G1 X-21.387 Y3.145 E0.0264
G1 X-21.539 Y4.013 E0.0264
G1 X-21.537 Y4.894 E0.0264
G1 X-21.383 Y5.761 E0.0264
G1 X-21.080 Y6.588 E0.0264
G1 X-20.638 Y7.349 E0.0264
G1 X-20.070 Y8.023 E0.0264
G1 X-19.650 Y8.373 E0.0164
G1 X-19.650 Y9.559 E0.0355
G1 X-19.575 Y10.225 E0.0201
G1 X-19.342 Y10.889 E0.0211
G1 X-18.968 Y11.485 E0.0211
G1 X-18.470 Y11.983 E0.0211
G1 X-17.874 Y12.357 E0.0211
G1 X-17.210 Y12.590 E0.0211
G1 X-16.510 Y12.669 E0.0211
G1 X-15.810 Y12.590 E0.0211
G1 X-15.146 Y12.357 E0.0211
G1 X-14.550 Y11.983 E0.0211
G1 X-14.052 Y11.485 E0.0211
G1 X-13.678 Y10.889 E0.0211
; outer perimeter
G1 X-14.040 Y10.714 F4200
G1 X-13.837 Y10.135 E0.0184 F900
G1 X-13.770 Y9.536 E0.0180
G1 X-13.770 Y8.186 E0.0404
G1 X-13.233 Y7.738 E0.0209
G1 X-12.710 Y7.118 E0.0243
G1 X-12.304 Y6.417 E0.0243
G1 X-12.025 Y5.656 E0.0243
G1 X-11.883 Y4.858 E0.0243
G1 X-11.881 Y4.047 E0.0243
G1 X-12.021 Y3.249 E0.0243
G1 X-12.297 Y2.487 E0.0243
G1 X-12.702 Y1.784 E0.0243
G1 X-13.222 Y1.163 E0.0243
G1 X-13.843 Y0.641 E0.0243
G1 X-14.545 Y0.235 E0.0243
G1 X-15.306 Y-0.042 E0.0243
G1 X-16.105 Y-0.183 E0.0243
G1 X-16.915 Y-0.183 E0.0243
G1 X-17.714 Y-0.042 E0.0243
G1 X-18.475 Y0.235 E0.0243
G1 X-19.177 Y0.641 E0.0243
G1 X-19.798 Y1.163 E0.0243
G1 X-20.318 Y1.784 E0.0243
G1 X-20.723 Y2.487 E0.0243
G1 X-20.999 Y3.249 E0.0243
G1 X-21.139 Y4.047 E0.0243
G1 X-21.137 Y4.858 E0.0243
G1 X-20.995 Y5.656 E0.0243
G1 X-20.716 Y6.417 E0.0243
G1 X-20.310 Y7.118 E0.0243
G1 X-19.787 Y7.738 E0.0243
G1 X-19.250 Y8.186 E0.0209
G1 X-19.250 Y9.536 E0.0404
G1 X-19.183 Y10.135 E0.0180
G1 X-18.980 Y10.714 E0.0184
G1 X-18.653 Y11.234 E0.0184
G1 X-18.219 Y11.668 E0.0184
G1 X-17.699 Y11.995 E0.0184
G1 X-17.120 Y12.198 E0.0184
G1 X-16.510 Y12.266 E0.0184
G1 X-15.900 Y12.198 E0.0184
G1 X-15.321 Y11.995 E0.0184
G1 X-14.801 Y11.668 E0.0184
G1 X-14.367 Y11.234 E0.0184
G1 X-14.040 Y10.714 E0.0184
G1 E-1.0000 F1200
; solid layer
G1 X-17.838 Y12.709 F4200
G1 E1.0000 F1200
G1 X-2.892 Y27.655 E0.6327 F1440
G1 X-2.326 Y27.655 E0.0169
G1 X-17.051 Y12.930 E0.6234
G1 X-16.510 Y12.991 E0.0163
G1 X-16.433 Y12.982 E0.0023
G1 X-1.761 Y27.655 E0.6211
G1 X-1.195 Y27.655 E0.0169
G1 X-15.925 Y12.925 E0.6236
G1 X-15.739 Y12.904 E0.0056
G1 X-15.473 Y12.811 E0.0084
G1 X-0.629 Y27.655 E0.6284
G1 X-0.064 Y27.655 E0.0169
G1 X-15.054 Y12.664 E0.6346
G1 X-15.006 Y12.648 E0.0015
G1 X-14.699 Y12.454 E0.0109
G1 X0.502 Y27.655 E0.6435
G1 X1.068 Y27.655 E0.0169
G1 X-14.351 Y12.236 E0.6527
G1 X-14.349 Y12.235 E0.0001
G1 X-14.068 Y11.954 E0.0119
G1 X1.633 Y27.655 E0.6647
G1 X2.199 Y27.655 E0.0169
G1 X-13.789 Y11.667 E0.6768
G1 X-13.570 Y11.320 E0.0123
G1 X2.765 Y27.655 E0.6915
G1 X3.331 Y27.655 E0.0169
G1 X-13.364 Y10.961 E0.7067
G1 X-13.217 Y10.542 E0.0133
G1 X3.896 Y27.655 E0.7245
G1 X4.462 Y27.655 E0.0169
G1 X-13.107 Y10.086 E0.7438
G1 X-13.050 Y9.577 E0.0153
G1 X5.028 Y27.655 E0.7653
G1 X5.593 Y27.655 E0.0169
G1 X-13.050 Y9.012 E0.7892
G1 X-13.050 Y8.523 E0.0146
G1 X-13.008 Y8.488 E0.0016
G1 X6.159 Y27.655 E0.8114
G1 X6.725 Y27.655 E0.0169
G1 X-12.703 Y8.227 E0.8225
G1 X-12.445 Y7.920 E0.0120
G1 X7.290 Y27.655 E0.8354
G1 X7.856 Y27.655 E0.0169
G1 X-12.186 Y7.613 E0.8484
G1 X-12.119 Y7.534 E0.0031
G1 X-11.965 Y7.268 E0.0092
G1 X8.422 Y27.655 E0.8630
G1 X8.987 Y27.655 E0.0169
G1 X-11.757 Y6.910 E0.8782
G1 X-11.649 Y6.724 E0.0064
G1 X-11.576 Y6.525 E0.0063
G1 X9.553 Y27.655 E0.8945
G1 X10.119 Y27.655 E0.0169
G1 X-11.425 Y6.111 E0.9120
G1 X-11.327 Y5.844 E0.0085
G1 X-11.297 Y5.674 E0.0052
G1 X10.684 Y27.655 E0.9305
G1 X11.250 Y27.655 E0.0169
G1 X-11.211 Y5.194 E0.9509
G1 X-11.163 Y4.922 E0.0083
G1 X-11.162 Y4.677 E0.0073
G1 X11.816 Y27.655 E0.9727
G1 X12.382 Y27.655 E0.0169
G1 X-11.161 Y4.112 E0.9966
G1 X-11.161 Y3.985 E0.0038
G1 X-11.254 Y3.454 E0.0162
G1 X12.947 Y27.655 E1.0245
G1 X13.513 Y27.655 E0.0169
G1 X-11.461 Y2.681 E1.0572
G1 X20.824 Y12.905 F4200
G1 X35.575 Y27.655 E0.6244 F1440
G1 X36.140 Y27.655 E0.0169
G1 X21.462 Y12.976 E0.6214
G1 X21.590 Y12.991 E0.0039
G1 X21.996 Y12.945 E0.0122
G1 X36.706 Y27.655 E0.6227
G1 X37.272 Y27.655 E0.0169
G1 X22.479 Y12.863 E0.6262
G1 X22.898 Y12.716 E0.0133
G1 X37.837 Y27.655 E0.6324
G1 X38.403 Y27.655 E0.0169
G1 X23.279 Y12.531 E0.6402
