; G-Code generated by Simplify3D(R) Version 4.0.0
; Jan 13, 2018 at 6:26:48 PM
; Settings Summary
;   processName,Process1
;   applyToModels,Sheave_Bracket,Sheave
;   profileName,FlashForge Creator Pro (modified)
;   profileVersion,2017-10-24 22:12:49
;   baseProfile,
;   printMaterial,PLA
;   printQuality,Medium
;   printExtruders,Left Extruder Only
;   extruderName,Right Extruder,Left Extruder
;   extruderToolheadNumber,0,1
;   extruderDiameter,0.4,0.4
;   extruderAutoWidth,0,0
;   extruderWidth,0.4,0.4
;   extrusionMultiplier,0.9,0.9
;   extruderUseRetract,1,1
;   extruderRetractionDistance,1,1
;   extruderExtraRestartDistance,0,0
;   extruderRetractionZLift,0,0
;   extruderRetractionSpeed,1200,1200
;   extruderUseCoasting,0,0
;   extruderCoastingDistance,0.2,0.2
;   extruderUseWipe,0,0
;   extruderWipeDistance,5,5
;   primaryExtruder,1
;   layerHeight,0.1
;   topSolidLayers,4
;   bottomSolidLayers,4
;   perimeterOutlines,2
;   printPerimetersInsideOut,1
;   startPointOption,2
;   startPointOriginX,0
;   startPointOriginY,0
;   sequentialIslands,0
;   spiralVaseMode,0
;   firstLayerHeightPercentage,90
;   firstLayerWidthPercentage,100
;   firstLayerUnderspeed,0.5
;   useRaft,0
;   raftExtruder,1
;   raftTopLayers,3
;   raftBaseLayers,2
;   raftOffset,3
;   raftSeparationDistance,0.14
;   raftTopInfill,100
;   aboveRaftSpeedMultiplier,0.3
;   useSkirt,1
;   skirtExtruder,1
;   skirtLayers,2
;   skirtOutlines,2
;   skirtOffset,4
;   usePrimePillar,0
;   primePillarExtruder,999
;   primePillarWidth,12
;   primePillarLocation,7
;   primePillarSpeedMultiplier,1
;   useOozeShield,0
;   oozeShieldExtruder,999
;   oozeShieldOffset,2
;   oozeShieldOutlines,1
;   oozeShieldSidewallShape,1
;   oozeShieldSidewallAngle,30
;   oozeShieldSpeedMultiplier,1
;   infillExtruder,1
;   internalInfillPattern,Rectilinear
;   externalInfillPattern,Rectilinear
;   infillPercentage,30
;   outlineOverlapPercentage,20
;   infillExtrusionWidthPercentage,100
;   minInfillLength,5
;   infillLayerInterval,1
;   internalInfillAngles,45,-45
;   overlapInternalInfillAngles,0
;   externalInfillAngles,45,-45
;   generateSupport,1
;   supportExtruder,1
;   supportInfillPercentage,40
;   supportExtraInflation,0
;   supportBaseLayers,0
;   denseSupportExtruder,1
;   denseSupportLayers,0
;   denseSupportInfillPercentage,70
;   supportLayerInterval,1
;   supportHorizontalPartOffset,0.3
;   supportUpperSeparationLayers,1
;   supportLowerSeparationLayers,1
;   supportType,0
;   supportGridSpacing,4
;   maxOverhangAngle,45
;   supportAngles,0
;   temperatureName,Right Extruder,Left Extruder,Heated Build Platform
;   temperatureNumber,0,1,0
;   temperatureSetpointCount,1,1,1
;   temperatureSetpointLayers,1,1,1
;   temperatureSetpointTemperatures,0,230,60
;   temperatureStabilizeAtStartup,0,0,0
;   temperatureHeatedBed,0,0,1
;   temperatureRelayBetweenLayers,0,0,0
;   temperatureRelayBetweenLoops,0,0,0
;   fanLayers,1,2
;   fanSpeeds,0,100
;   blipFanToFullPower,0
;   adjustSpeedForCooling,1
;   minSpeedLayerTime,15
;   minCoolingSpeedSlowdown,20
;   increaseFanForCooling,0
;   minFanLayerTime,45
;   maxCoolingFanSpeed,100
;   increaseFanForBridging,1
;   bridgingFanSpeed,100
;   use5D,1
;   relativeEdistances,1
;   allowEaxisZeroing,0
;   independentExtruderAxes,1
;   includeM10123,0
;   stickySupport,1
;   applyToolheadOffsets,0
;   gcodeXoffset,0
;   gcodeYoffset,0
;   gcodeZoffset,0
;   overrideMachineDefinition,1
;   machineTypeOverride,0
;   strokeXoverride,225
;   strokeYoverride,145
;   strokeZoverride,150
;   originOffsetXoverride,112.5
;   originOffsetYoverride,72.5
;   originOffsetZoverride,0
;   homeXdirOverride,1
;   homeYdirOverride,1
;   homeZdirOverride,-1
;   flipXoverride,1
;   flipYoverride,-1
;   flipZoverride,1
;   toolheadOffsets,0,0|34,0|0,0|0,0|0,0|0,0
;   overrideFirmwareConfiguration,1
;   firmwareTypeOverride,MakerBot/Sailfish Firmware
;   GPXconfigOverride,r1d
;   baudRateOverride,115200
;   overridePrinterModels,1
;   printerModelsOverride,FlashForge_CreatorPro.stl
;   startingGcode,; **** Replicator 1 dual start.gcode ****,M73 P0 ; enable build progress,G162 X Y F3000 ; home XY maximum,G161 Z F1200 ; home Z minimum,G92 Z-5 ; set Z to -5,G1 Z0 ; move Z to 0,G161 Z F100 ; home Z slowly,M132 X Y Z A B ; recall home offsets,M135 T0 ; load right extruder offsets,G1 X150 Y-70 Z30 F9000 ; move to wait position right hand side of the table,G130 X20 Y20 Z20 A20 B20 ; lower stepper Vrefs while heating,M126 S[fan_speed_pwm],M140 S[bed0_temperature] T0,M134 T0 ; stabilize bed temperature,M104 S[extruder1_temperature] T1,M133 T1 ; stabilize left extruder temperature,G130 X127 Y127 Z40 A127 B127 ; default stepper Vrefs,G92 A0 B0 ; zero extruders,G1 Z0.4 ; position nozzle,M135 T1 ; left tool,G1 X110 Y-70 E30 F300 ; move nozzle,G1 X120 Y-70 Z0.15 F1200 ; slow wipe,G1 X110 Y-70 Z0.5 F1200 ; lift,G92 A0 B0 ; zero extruders,M73 P1 ;@body (notify GPX body has started),; **** end of start.gcode ****
;   layerChangeGcode,
;   retractionGcode,
;   toolChangeGcode,
;   endingGcode,; **** Replicator 1 dual end.gcode ****,M73 P100 ; end build progress,G1 Z150 F1000 ; send Z axis to bottom of machine,M140 S0 T0 ; cool down HBP,M104 S0 T0 ; cool down right extruder,M104 S0 T1 ; cool down left extruder,M127 ; stop blower fan,G162 X Y F3000 ; home XY maximum,M18 ; disable stepper,M72 P1 ; play Ta-Da song,; **** end of end.gcode ****
;   exportFileFormat,x3g
;   celebration,0
;   celebrationSong,Random Song
;   postProcessing,
;   defaultSpeed,3600
;   outlineUnderspeed,0.5
;   solidInfillUnderspeed,0.8
;   supportUnderspeed,0.8
;   rapidXYspeed,4200
;   rapidZspeed,1200
;   minBridgingArea,50
;   bridgingExtraInflation,0
;   bridgingExtrusionMultiplier,1
;   bridgingSpeedMultiplier,0.8
;   useFixedBridgingAngle,0
;   fixedBridgingAngle,0
;   applyBridgingToPerimeters,0
;   filamentDiameters,1.75|1.75|1.75|1.75|1.75|1.75
;   filamentPricesPerKg,46|46|46|46|46|46
;   filamentDensities,1.25|1.25|1.25|1.25|1.25|1.25
;   useMinPrintHeight,0
;   minPrintHeight,0
;   useMaxPrintHeight,0
;   maxPrintHeight,0
;   useDiaphragm,0
;   diaphragmLayerInterval,20
;   robustSlicing,1
;   mergeAllIntoSolid,0
;   onlyRetractWhenCrossingOutline,1
;   retractBetweenLayers,1
;   useRetractionMinTravel,0
;   retractionMinTravel,3
;   retractWhileWiping,0
;   onlyWipeOutlines,1
;   avoidCrossingOutline,0
;   maxMovementDetourFactor,3
;   toolChangeRetractionDistance,12
;   toolChangeExtraRestartDistance,-0.5
;   toolChangeRetractionSpeed,600
;   externalThinWallType,0
;   internalThinWallType,2
;   thinWallAllowedOverlapPercentage,10
;   singleExtrusionMinLength,1
;   singleExtrusionMinPrintingWidthPercentage,50
;   singleExtrusionMaxPrintingWidthPercentage,200
;   singleExtrusionEndpointExtension,0.2
;   horizontalSizeCompensation,0
G90
M83
; **** Replicator 1 dual start.gcode ****
M73 P0 ; enable build progress
G162 X Y F3000 ; home XY maximum
G161 Z F1200 ; home Z minimum
G92 Z-5 ; set Z to -5
G1 Z0 ; move Z to 0
G161 Z F100 ; home Z slowly
M132 X Y Z A B ; recall home offsets
M135 T0 ; load right extruder offsets
G1 X150 Y-70 Z30 F9000 ; move to wait position right hand side of the table
G130 X20 Y20 Z20 A20 B20 ; lower stepper Vrefs while heating
M127
M140 S60 T0
M134 T0 ; stabilize bed temperature
M104 S230 T1
M133 T1 ; stabilize left extruder temperature
G130 X127 Y127 Z40 A127 B127 ; default stepper Vrefs
G92 A0 B0 ; zero extruders
G1 Z0.4 ; position nozzle
M135 T1 ; left tool
G1 X110 Y-70 E30 F300 ; move nozzle
G1 X120 Y-70 Z0.15 F1200 ; slow wipe
G1 X110 Y-70 Z0.5 F1200 ; lift
G92 A0 B0 ; zero extruders
M73 P1 ;@body (notify GPX body has started)
; **** end of start.gcode ****
G1 E-1.0000 F1200
G1 Z0.090 F1200
; process Process1
; layer 1, Z = 0.090
M135 T1
; tool H0.100 W0.400
; skirt
G1 X13.650 Y-11.365 F4200
G1 E1.0000 F360
G1 X13.650 Y31.461 E0.6410 F1800
G1 X13.559 Y31.682 E0.0036
G1 X11.047 Y34.194 E0.0532
G1 X10.826 Y34.285 E0.0036
G1 X-6.338 Y34.285 E0.2569
G1 X-6.359 Y34.284 E0.0003
G1 X-6.655 Y34.264 E0.0044
G1 X-6.676 Y34.262 E0.0003
G1 X-31.274 Y30.845 E0.3717
G1 X-31.465 Y30.742 E0.0033
G1 X-33.574 Y28.319 E0.0481
G1 X-33.650 Y28.116 E0.0033
G1 X-33.650 Y-28.116 E0.8416
G1 X-33.574 Y-28.319 E0.0033
G1 X-31.465 Y-30.742 E0.0481
G1 X-31.274 Y-30.845 E0.0033
G1 X-6.676 Y-34.262 E0.3717
G1 X-6.655 Y-34.264 E0.0003
G1 X-6.359 Y-34.284 E0.0044
G1 X-6.338 Y-34.285 E0.0003
G1 X10.826 Y-34.285 E0.2569
G1 X11.047 Y-34.194 E0.0036
G1 X12.830 Y-32.410 E0.0377
G1 X13.333 Y-32.914 E0.0107
G1 X13.554 Y-33.005 E0.0036
G1 X29.546 Y-33.005 E0.2394
G1 X29.767 Y-32.914 E0.0036
G1 X32.279 Y-30.402 E0.0532
G1 X32.370 Y-30.181 E0.0036
G1 X32.370 Y-14.189 E0.2394
G1 X32.279 Y-13.968 E0.0036
G1 X29.767 Y-11.456 E0.0532
G1 X29.546 Y-11.365 E0.0036
G1 X13.650 Y-11.365 E0.2379
G1 X13.633 Y-11.765 F4200
G1 X13.560 Y-11.795 E0.0012 F1800
G1 X13.250 Y-12.105 E0.0066
G1 X13.250 Y31.382 E0.6509
G1 X13.220 Y31.455 E0.0012
G1 X10.820 Y33.855 E0.0508
G1 X10.747 Y33.885 E0.0012
G1 X-6.332 Y33.885 E0.2556
G1 X-6.338 Y33.885 E0.0001
G1 X-6.621 Y33.865 E0.0042
G1 X-6.628 Y33.865 E0.0001
G1 X-31.147 Y30.459 E0.3705
G1 X-31.210 Y30.425 E0.0011
G1 X-33.225 Y28.111 E0.0459
G1 X-33.250 Y28.044 E0.0011
G1 X-33.250 Y-28.044 E0.8395
G1 X-33.225 Y-28.111 E0.0011
G1 X-31.210 Y-30.425 E0.0459
G1 X-31.147 Y-30.459 E0.0011
G1 X-6.628 Y-33.865 E0.3705
G1 X-6.621 Y-33.865 E0.0001
G1 X-6.338 Y-33.885 E0.0042
G1 X-6.332 Y-33.885 E0.0001
G1 X10.747 Y-33.885 E0.2556
G1 X10.820 Y-33.855 E0.0012
G1 X12.830 Y-31.845 E0.0425
G1 X13.560 Y-32.575 E0.0154
G1 X13.633 Y-32.605 E0.0012
G1 X29.467 Y-32.605 E0.2370
G1 X29.540 Y-32.575 E0.0012
G1 X31.940 Y-30.175 E0.0508
G1 X31.970 Y-30.102 E0.0012
G1 X31.970 Y-14.268 E0.2370
G1 X31.940 Y-14.195 E0.0012
G1 X29.540 Y-11.795 E0.0508
G1 X29.467 Y-11.765 E0.0012
G1 X13.633 Y-11.765 E0.2370
G1 E-1.0000 F1200
; inner perimeter
G1 X19.631 Y-19.689 F4200
G1 E1.0000 F1200
G1 X19.322 Y-19.960 E0.0062 F1350
G1 X19.051 Y-20.270 E0.0062
G1 X18.822 Y-20.613 E0.0062
G1 X18.640 Y-20.982 E0.0062
G1 X18.508 Y-21.372 E0.0062
G1 X18.428 Y-21.776 E0.0062
G1 X18.401 Y-22.187 E0.0062
G1 X18.429 Y-22.599 E0.0062
G1 X18.509 Y-23.000 E0.0061
G1 X18.642 Y-23.392 E0.0062
G1 X18.825 Y-23.761 E0.0062
G1 X19.054 Y-24.104 E0.0062
G1 X19.325 Y-24.413 E0.0062
G1 X19.635 Y-24.684 E0.0062
G1 X19.978 Y-24.913 E0.0062
G1 X20.347 Y-25.095 E0.0062
G1 X20.738 Y-25.227 E0.0062
G1 X21.141 Y-25.307 E0.0062
G1 X21.552 Y-25.334 E0.0062
G1 X21.963 Y-25.306 E0.0062
G1 X22.367 Y-25.226 E0.0062
G1 X22.757 Y-25.093 E0.0062
G1 X23.126 Y-24.910 E0.0062
G1 X23.469 Y-24.681 E0.0062
G1 X23.778 Y-24.410 E0.0062
G1 X24.049 Y-24.100 E0.0062
G1 X24.278 Y-23.757 E0.0062
G1 X24.460 Y-23.388 E0.0062
G1 X24.592 Y-22.998 E0.0062
G1 X24.672 Y-22.593 E0.0062
G1 X24.699 Y-22.183 E0.0062
G1 X24.671 Y-21.772 E0.0062
G1 X24.591 Y-21.368 E0.0062
G1 X24.458 Y-20.978 E0.0062
G1 X24.275 Y-20.609 E0.0062
G1 X24.046 Y-20.266 E0.0062
G1 X23.775 Y-19.957 E0.0062
G1 X23.465 Y-19.686 E0.0062
G1 X23.122 Y-19.457 E0.0062
G1 X22.753 Y-19.275 E0.0062
G1 X22.363 Y-19.143 E0.0062
G1 X21.959 Y-19.063 E0.0062
G1 X21.548 Y-19.036 E0.0062
G1 X21.137 Y-19.064 E0.0062
G1 X20.733 Y-19.144 E0.0062
G1 X20.343 Y-19.277 E0.0062
G1 X19.974 Y-19.460 E0.0062
G1 X19.631 Y-19.689 E0.0062
; outer perimeter
G1 X19.387 Y-19.371 F4200
G1 X19.038 Y-19.677 E0.0069 F900
G1 X18.732 Y-20.026 E0.0069
G1 X18.475 Y-20.413 E0.0069
G1 X18.270 Y-20.829 E0.0069
G1 X18.121 Y-21.269 E0.0069
G1 X18.031 Y-21.724 E0.0069
G1 X18.001 Y-22.188 E0.0069
G1 X18.031 Y-22.651 E0.0069
G1 X18.121 Y-23.104 E0.0069
G1 X18.272 Y-23.546 E0.0070
G1 X18.478 Y-23.962 E0.0069
G1 X18.736 Y-24.348 E0.0069
G1 X19.042 Y-24.697 E0.0069
G1 X19.391 Y-25.003 E0.0069
G1 X19.778 Y-25.260 E0.0069
G1 X20.194 Y-25.465 E0.0069
G1 X20.634 Y-25.614 E0.0069
G1 X21.090 Y-25.704 E0.0069
G1 X21.553 Y-25.734 E0.0069
G1 X22.016 Y-25.704 E0.0069
G1 X22.471 Y-25.613 E0.0070
G1 X22.911 Y-25.463 E0.0069
G1 X23.327 Y-25.257 E0.0070
G1 X23.713 Y-24.999 E0.0069
G1 X24.062 Y-24.693 E0.0069
G1 X24.368 Y-24.344 E0.0069
G1 X24.625 Y-23.957 E0.0069
G1 X24.830 Y-23.541 E0.0069
G1 X24.979 Y-23.101 E0.0069
G1 X25.069 Y-22.645 E0.0069
G1 X25.099 Y-22.182 E0.0069
G1 X25.069 Y-21.719 E0.0069
G1 X24.978 Y-21.264 E0.0069
G1 X24.828 Y-20.824 E0.0069
G1 X24.622 Y-20.408 E0.0069
G1 X24.364 Y-20.022 E0.0069
G1 X24.058 Y-19.673 E0.0069
G1 X23.709 Y-19.367 E0.0069
G1 X23.322 Y-19.110 E0.0069
G1 X22.906 Y-18.905 E0.0069
G1 X22.466 Y-18.756 E0.0069
G1 X22.011 Y-18.666 E0.0069
G1 X21.547 Y-18.636 E0.0069
G1 X21.084 Y-18.666 E0.0069
G1 X20.629 Y-18.757 E0.0069
G1 X20.189 Y-18.907 E0.0070
G1 X19.773 Y-19.113 E0.0069
G1 X19.387 Y-19.371 E0.0069
; solid layer
G1 X18.874 Y-21.290 F4200
G1 X20.655 Y-19.509 E0.0377 F1440
G1 X20.816 Y-19.454 E0.0025
G1 X21.179 Y-19.382 E0.0055
G1 X21.360 Y-19.370 E0.0027
G1 X18.735 Y-21.995 E0.0556
G1 X18.722 Y-22.187 E0.0029
G1 X18.746 Y-22.549 E0.0054
G1 X21.914 Y-19.381 E0.0671
G1 X21.917 Y-19.381 E0.0000
G1 X22.280 Y-19.453 E0.0055
G1 X22.375 Y-19.485 E0.0015
G1 X18.850 Y-23.011 E0.0746
G1 X18.938 Y-23.269 E0.0041
G1 X19.011 Y-23.416 E0.0024
G1 X22.781 Y-19.646 E0.0798
G1 X22.962 Y-19.735 E0.0030
G1 X23.139 Y-19.853 E0.0032
G1 X19.218 Y-23.774 E0.0830
G1 X19.308 Y-23.908 E0.0024
G1 X19.468 Y-24.090 E0.0036
G1 X23.455 Y-20.103 E0.0844
G1 X23.548 Y-20.184 E0.0018
G1 X23.731 Y-20.392 E0.0042
G1 X19.757 Y-24.366 E0.0841
G1 X19.830 Y-24.430 E0.0014
G1 X20.088 Y-24.601 E0.0046
G1 X23.967 Y-20.723 E0.0821
G1 X23.998 Y-20.769 E0.0008
G1 X24.159 Y-21.096 E0.0055
G1 X20.461 Y-24.794 E0.0783
G1 X20.470 Y-24.798 E0.0002
G1 X20.820 Y-24.917 E0.0055
G1 X20.890 Y-24.931 E0.0011
G1 X24.296 Y-21.525 E0.0721
G1 X24.353 Y-21.814 E0.0044
G1 X24.367 Y-22.019 E0.0031
G1 X21.384 Y-25.002 E0.0631
G1 X21.552 Y-25.013 E0.0025
G1 X21.921 Y-24.988 E0.0055
G1 X21.974 Y-24.978 E0.0008
G1 X24.343 Y-22.609 E0.0501
G1 X24.282 Y-22.915 E0.0047
G1 X24.163 Y-23.265 E0.0055
G1 X24.077 Y-23.440 E0.0029
G1 X22.806 Y-24.712 E0.0269
G1 E-1.0000 F1200
; inner perimeter
G1 X8.450 Y-29.085 F4200
G1 E1.0000 F1200
G1 X8.450 Y29.085 E0.8706 F1350
G1 X-6.131 Y29.085 E0.2182
G1 X-28.450 Y25.988 E0.3373
G1 X-28.450 Y-25.988 E0.7779
G1 X-6.131 Y-29.085 E0.3373
G1 X8.450 Y-29.085 E0.2182
; outer perimeter
G1 X8.850 Y-29.485 F4200
G1 X8.850 Y29.485 E0.8826 F900
G1 X-6.158 Y29.485 E0.2246
G1 X-28.850 Y26.336 E0.3429
G1 X-28.850 Y-26.336 E0.7883
G1 X-6.158 Y-29.485 E0.3429
G1 X8.850 Y-29.485 E0.2246
; inner perimeter
G1 X3.298 Y-17.103 F4200
G1 X-19.800 Y-17.110 E0.3457 F1350
G1 X-23.300 Y-17.110 E0.0524
G1 X-23.300 Y17.110 E0.5122
G1 X3.300 Y17.117 E0.3981
G1 X3.298 Y-17.103 E0.5122
; outer perimeter
G1 X2.898 Y-16.703 F4200
G1 X-19.800 Y-16.710 E0.3397 F900
G1 X-22.900 Y-16.710 E0.0464
G1 X-22.900 Y16.710 E0.5002
G1 X2.900 Y16.717 E0.3862
G1 X2.898 Y-16.703 E0.5002
; solid layer
G1 X3.618 Y-17.312 F4200
G1 X8.130 Y-12.800 E0.0955 F1440
G1 X8.130 Y-12.235 E0.0085
G1 X3.618 Y-16.746 E0.0955
G1 X3.618 Y-16.181 E0.0085
G1 X8.130 Y-11.669 E0.0955
G1 X8.130 Y-11.103 E0.0085
G1 X3.618 Y-15.615 E0.0955
G1 X3.618 Y-15.049 E0.0085
G1 X8.130 Y-10.538 E0.0955
G1 X8.130 Y-9.972 E0.0085
G1 X3.618 Y-14.484 E0.0955
G1 X3.618 Y-13.918 E0.0085
G1 X8.130 Y-9.406 E0.0955
G1 X8.130 Y-8.841 E0.0085
G1 X3.618 Y-13.352 E0.0955
G1 X3.619 Y-12.786 E0.0085
G1 X8.130 Y-8.275 E0.0955
G1 X8.130 Y-7.709 E0.0085
G1 X3.619 Y-12.221 E0.0955
G1 X3.619 Y-11.655 E0.0085
G1 X8.130 Y-7.144 E0.0955
G1 X8.130 Y-6.578 E0.0085
G1 X3.619 Y-11.089 E0.0955
G1 X3.619 Y-10.524 E0.0085
G1 X8.130 Y-6.012 E0.0955
G1 X8.130 Y-5.446 E0.0085
G1 X3.619 Y-9.958 E0.0955
G1 X3.619 Y-9.392 E0.0085
G1 X8.130 Y-4.881 E0.0955
G1 X8.130 Y-4.315 E0.0085
G1 X3.619 Y-8.826 E0.0955
G1 X3.619 Y-8.261 E0.0085
G1 X8.130 Y-3.749 E0.0955
G1 X8.130 Y-3.184 E0.0085
G1 X3.619 Y-7.695 E0.0955
G1 X3.619 Y-7.129 E0.0085
G1 X8.130 Y-2.618 E0.0955
G1 X8.130 Y-2.052 E0.0085
G1 X3.619 Y-6.564 E0.0955
G1 X3.619 Y-5.998 E0.0085
G1 X8.130 Y-1.487 E0.0955
G1 X8.130 Y-0.921 E0.0085
G1 X3.619 Y-5.432 E0.0955
G1 X3.619 Y-4.866 E0.0085
