; G-Code generated by Simplify3D(R) Version 4.0.0
; Jan 15, 2018 at 8:55:49 AM
; Settings Summary
;   processName,Process1
;   applyToModels,strap_mount_1,strap_mount_2
;   profileName,FlashForge Creator Pro (modified)
;   profileVersion,2017-10-24 22:12:49
;   baseProfile,
;   printMaterial,PLA
;   printQuality,Medium
;   printExtruders,Left Extruder Only
;   extruderName,Right Extruder,Left Extruder
;   extruderToolheadNumber,0,1
;   extruderDiameter,0.4,0.4
;   extruderAutoWidth,0,0
;   extruderWidth,0.4,0.4
;   extrusionMultiplier,0.9,0.9
;   extruderUseRetract,1,1
;   extruderRetractionDistance,1,1
;   extruderExtraRestartDistance,0,0
;   extruderRetractionZLift,0,0
;   extruderRetractionSpeed,1200,1200
;   extruderUseCoasting,0,0
;   extruderCoastingDistance,0.2,0.2
;   extruderUseWipe,0,0
;   extruderWipeDistance,5,5
;   primaryExtruder,1
;   layerHeight,0.1
;   topSolidLayers,4
;   bottomSolidLayers,4
;   perimeterOutlines,2
;   printPerimetersInsideOut,1
;   startPointOption,2
;   startPointOriginX,0
;   startPointOriginY,0
;   sequentialIslands,0
;   spiralVaseMode,0
;   firstLayerHeightPercentage,90
;   firstLayerWidthPercentage,100
;   firstLayerUnderspeed,0.5
;   useRaft,0
;   raftExtruder,1
;   raftTopLayers,3
;   raftBaseLayers,2
;   raftOffset,3
;   raftSeparationDistance,0.14
;   raftTopInfill,100
;   aboveRaftSpeedMultiplier,0.3
;   useSkirt,1
;   skirtExtruder,1
;   skirtLayers,2
;   skirtOutlines,2
;   skirtOffset,4
;   usePrimePillar,0
;   primePillarExtruder,999
;   primePillarWidth,12
;   primePillarLocation,7
;   primePillarSpeedMultiplier,1
;   useOozeShield,0
;   oozeShieldExtruder,999
;   oozeShieldOffset,2
;   oozeShieldOutlines,1
;   oozeShieldSidewallShape,1
;   oozeShieldSidewallAngle,30
;   oozeShieldSpeedMultiplier,1
;   infillExtruder,1
;   internalInfillPattern,Rectilinear
;   externalInfillPattern,Rectilinear
;   infillPercentage,30
;   outlineOverlapPercentage,20
;   infillExtrusionWidthPercentage,100
;   minInfillLength,5
;   infillLayerInterval,1
;   internalInfillAngles,45,-45
;   overlapInternalInfillAngles,0
;   externalInfillAngles,45,-45
;   generateSupport,1
;   supportExtruder,1
;   supportInfillPercentage,40
;   supportExtraInflation,0
;   supportBaseLayers,0
;   denseSupportExtruder,1
;   denseSupportLayers,0
;   denseSupportInfillPercentage,70
;   supportLayerInterval,1
;   supportHorizontalPartOffset,0.3
;   supportUpperSeparationLayers,1
;   supportLowerSeparationLayers,1
;   supportType,0
;   supportGridSpacing,4
;   maxOverhangAngle,45
;   supportAngles,0
;   temperatureName,Right Extruder,Left Extruder,Heated Build Platform
;   temperatureNumber,0,1,0
;   temperatureSetpointCount,1,1,1
;   temperatureSetpointLayers,1,1,1
;   temperatureSetpointTemperatures,0,230,60
;   temperatureStabilizeAtStartup,0,0,0
;   temperatureHeatedBed,0,0,1
;   temperatureRelayBetweenLayers,0,0,0
;   temperatureRelayBetweenLoops,0,0,0
;   fanLayers,1,2
;   fanSpeeds,0,100
;   blipFanToFullPower,0
;   adjustSpeedForCooling,1
;   minSpeedLayerTime,15
;   minCoolingSpeedSlowdown,20
;   increaseFanForCooling,0
;   minFanLayerTime,45
;   maxCoolingFanSpeed,100
;   increaseFanForBridging,1
;   bridgingFanSpeed,100
;   use5D,1
;   relativeEdistances,1
;   allowEaxisZeroing,0
;   independentExtruderAxes,1
;   includeM10123,0
;   stickySupport,1
;   applyToolheadOffsets,0
;   gcodeXoffset,0
;   gcodeYoffset,0
;   gcodeZoffset,0
;   overrideMachineDefinition,1
;   machineTypeOverride,0
;   strokeXoverride,225
;   strokeYoverride,145
;   strokeZoverride,150
;   originOffsetXoverride,112.5
;   originOffsetYoverride,72.5
;   originOffsetZoverride,0
;   homeXdirOverride,1
;   homeYdirOverride,1
;   homeZdirOverride,-1
;   flipXoverride,1
;   flipYoverride,-1
;   flipZoverride,1
;   toolheadOffsets,0,0|34,0|0,0|0,0|0,0|0,0
;   overrideFirmwareConfiguration,1
;   firmwareTypeOverride,MakerBot/Sailfish Firmware
;   GPXconfigOverride,r1d
;   baudRateOverride,115200
;   overridePrinterModels,1
;   printerModelsOverride,FlashForge_CreatorPro.stl
;   startingGcode,; **** Replicator 1 dual start.gcode ****,M73 P0 ; enable build progress,G162 X Y F3000 ; home XY maximum,G161 Z F1200 ; home Z minimum,G92 Z-5 ; set Z to -5,G1 Z0 ; move Z to 0,G161 Z F100 ; home Z slowly,M132 X Y Z A B ; recall home offsets,M135 T0 ; load right extruder offsets,G1 X150 Y-70 Z30 F9000 ; move to wait position right hand side of the table,G130 X20 Y20 Z20 A20 B20 ; lower stepper Vrefs while heating,M126 S[fan_speed_pwm],M140 S[bed0_temperature] T0,M134 T0 ; stabilize bed temperature,M104 S[extruder1_temperature] T1,M133 T1 ; stabilize left extruder temperature,G130 X127 Y127 Z40 A127 B127 ; default stepper Vrefs,G92 A0 B0 ; zero extruders,G1 Z0.4 ; position nozzle,M135 T1 ; left tool,G1 X110 Y-70 E30 F300 ; move nozzle,G1 X120 Y-70 Z0.15 F1200 ; slow wipe,G1 X110 Y-70 Z0.5 F1200 ; lift,G92 A0 B0 ; zero extruders,M73 P1 ;@body (notify GPX body has started),; **** end of start.gcode ****
;   layerChangeGcode,
;   retractionGcode,
;   toolChangeGcode,
;   endingGcode,; **** Replicator 1 dual end.gcode ****,M73 P100 ; end build progress,G1 Z150 F1000 ; send Z axis to bottom of machine,M140 S0 T0 ; cool down HBP,M104 S0 T0 ; cool down right extruder,M104 S0 T1 ; cool down left extruder,M127 ; stop blower fan,G162 X Y F3000 ; home XY maximum,M18 ; disable stepper,M72 P1 ; play Ta-Da song,; **** end of end.gcode ****
;   exportFileFormat,x3g
;   celebration,0
;   celebrationSong,Random Song
;   postProcessing,
;   defaultSpeed,3600
;   outlineUnderspeed,0.5
;   solidInfillUnderspeed,0.8
;   supportUnderspeed,0.8
;   rapidXYspeed,4200
;   rapidZspeed,1200
;   minBridgingArea,50
;   bridgingExtraInflation,0
;   bridgingExtrusionMultiplier,1
;   bridgingSpeedMultiplier,0.8
;   useFixedBridgingAngle,0
;   fixedBridgingAngle,0
;   applyBridgingToPerimeters,0
;   filamentDiameters,1.75|1.75|1.75|1.75|1.75|1.75
;   filamentPricesPerKg,46|46|46|46|46|46
;   filamentDensities,1.25|1.25|1.25|1.25|1.25|1.25
;   useMinPrintHeight,0
;   minPrintHeight,0
;   useMaxPrintHeight,0
;   maxPrintHeight,0
;   useDiaphragm,0
;   diaphragmLayerInterval,20
;   robustSlicing,1
;   mergeAllIntoSolid,0
;   onlyRetractWhenCrossingOutline,1
;   retractBetweenLayers,1
;   useRetractionMinTravel,0
;   retractionMinTravel,3
;   retractWhileWiping,0
;   onlyWipeOutlines,1
;   avoidCrossingOutline,0
;   maxMovementDetourFactor,3
;   toolChangeRetractionDistance,12
;   toolChangeExtraRestartDistance,-0.5
;   toolChangeRetractionSpeed,600
;   externalThinWallType,0
;   internalThinWallType,2
;   thinWallAllowedOverlapPercentage,10
;   singleExtrusionMinLength,1
;   singleExtrusionMinPrintingWidthPercentage,50
;   singleExtrusionMaxPrintingWidthPercentage,200
;   singleExtrusionEndpointExtension,0.2
;   horizontalSizeCompensation,0
G90
M83
; **** Replicator 1 dual start.gcode ****
M73 P0 ; enable build progress
G162 X Y F3000 ; home XY maximum
G161 Z F1200 ; home Z minimum
G92 Z-5 ; set Z to -5
G1 Z0 ; move Z to 0
G161 Z F100 ; home Z slowly
M132 X Y Z A B ; recall home offsets
M135 T0 ; load right extruder offsets
G1 X150 Y-70 Z30 F9000 ; move to wait position right hand side of the table
G130 X20 Y20 Z20 A20 B20 ; lower stepper Vrefs while heating
M127
M140 S60 T0
M134 T0 ; stabilize bed temperature
M104 S230 T1
M133 T1 ; stabilize left extruder temperature
G130 X127 Y127 Z40 A127 B127 ; default stepper Vrefs
G92 A0 B0 ; zero extruders
G1 Z0.4 ; position nozzle
M135 T1 ; left tool
G1 X110 Y-70 E30 F300 ; move nozzle
G1 X120 Y-70 Z0.15 F1200 ; slow wipe
G1 X110 Y-70 Z0.5 F1200 ; lift
G92 A0 B0 ; zero extruders
M73 P1 ;@body (notify GPX body has started)
; **** end of start.gcode ****
G1 E-1.0000 F1200
G1 Z0.090 F1200
; process Process1
; layer 1, Z = 0.090
M135 T1
; tool H0.100 W0.400
; skirt
G1 X-0.870 Y-16.623 F4200
G1 E1.0000 F360
G1 X0.732 Y-18.225 E0.0339 F1800
G1 X0.952 Y-18.316 E0.0036
G1 X13.077 Y-18.316 E0.1815
G1 X13.298 Y-18.225 E0.0036
G1 X15.810 Y-15.713 E0.0532
G1 X15.901 Y-15.492 E0.0036
G1 X15.901 Y15.492 E0.4637
G1 X15.810 Y15.713 E0.0036
G1 X13.298 Y18.225 E0.0532
G1 X13.077 Y18.316 E0.0036
G1 X0.952 Y18.316 E0.1815
G1 X0.732 Y18.225 E0.0036
G1 X-0.870 Y16.623 E0.0339
G1 X-2.471 Y18.225 E0.0339
G1 X-2.691 Y18.316 E0.0036
G1 X-14.865 Y18.316 E0.1822
G1 X-15.085 Y18.225 E0.0036
G1 X-17.597 Y15.713 E0.0532
G1 X-17.689 Y15.492 E0.0036
G1 X-17.689 Y-15.492 E0.4637
G1 X-17.597 Y-15.713 E0.0036
G1 X-15.085 Y-18.225 E0.0532
G1 X-14.865 Y-18.316 E0.0036
G1 X-2.691 Y-18.316 E0.1822
G1 X-2.471 Y-18.225 E0.0036
G1 X-0.870 Y-16.623 E0.0339
G1 X-0.870 Y-16.058 F4200
G1 X0.958 Y-17.886 E0.0387 F1800
G1 X1.032 Y-17.916 E0.0012
G1 X12.998 Y-17.916 E0.1791
G1 X13.071 Y-17.886 E0.0012
G1 X15.471 Y-15.486 E0.0508
G1 X15.501 Y-15.413 E0.0012
G1 X15.501 Y15.413 E0.4614
G1 X15.471 Y15.486 E0.0012
G1 X13.071 Y17.886 E0.0508
G1 X12.998 Y17.916 E0.0012
G1 X1.032 Y17.916 E0.1791
G1 X0.958 Y17.886 E0.0012
G1 X-0.870 Y16.058 E0.0387
G1 X-2.698 Y17.886 E0.0387
G1 X-2.771 Y17.916 E0.0012
G1 X-14.785 Y17.916 E0.1798
G1 X-14.859 Y17.886 E0.0012
G1 X-17.258 Y15.486 E0.0508
G1 X-17.288 Y15.413 E0.0012
G1 X-17.288 Y-15.413 E0.4614
G1 X-17.258 Y-15.486 E0.0012
G1 X-14.859 Y-17.886 E0.0508
G1 X-14.785 Y-17.916 E0.0012
G1 X-2.771 Y-17.916 E0.1798
G1 X-2.698 Y-17.886 E0.0012
G1 X-0.870 Y-16.058 E0.0387
G1 E-1.0000 F1200
; inner perimeter
G1 X3.329 Y-13.116 F4200
G1 E1.0000 F1200
G1 X10.367 Y-13.116 E0.1053 F1350
G1 X10.375 Y-10.688 E0.0363
G1 X10.361 Y-8.231 E0.0368
G1 X10.361 Y6.482 E0.2202
G1 X10.066 Y6.537 E0.0045
G1 X9.937 Y6.198 E0.0054
G1 X9.769 Y5.898 E0.0051
G1 X9.559 Y5.626 E0.0051
G1 X9.312 Y5.388 E0.0051
G1 X9.032 Y5.188 E0.0051
G1 X8.727 Y5.030 E0.0051
G1 X8.401 Y4.919 E0.0051
G1 X8.064 Y4.857 E0.0051
G1 X7.720 Y4.844 E0.0051
G1 X7.378 Y4.881 E0.0051
G1 X7.046 Y4.968 E0.0051
G1 X6.729 Y5.102 E0.0051
G1 X6.436 Y5.281 E0.0051
G1 X6.171 Y5.500 E0.0051
G1 X5.942 Y5.756 E0.0051
G1 X5.752 Y6.042 E0.0051
G1 X5.606 Y6.353 E0.0051
G1 X5.507 Y6.682 E0.0051
G1 X5.457 Y7.022 E0.0051
G1 X5.457 Y7.360 E0.0051
G1 X5.506 Y7.700 E0.0051
G1 X5.604 Y8.029 E0.0051
G1 X5.749 Y8.340 E0.0051
G1 X5.938 Y8.627 E0.0051
G1 X6.167 Y8.883 E0.0051
G1 X6.431 Y9.104 E0.0051
G1 X6.724 Y9.283 E0.0051
G1 X7.040 Y9.418 E0.0051
G1 X7.372 Y9.505 E0.0051
G1 X7.714 Y9.544 E0.0051
G1 X8.057 Y9.532 E0.0051
G1 X8.396 Y9.470 E0.0051
G1 X8.721 Y9.360 E0.0051
G1 X9.027 Y9.203 E0.0051
G1 X9.307 Y9.004 E0.0051
G1 X9.555 Y8.766 E0.0051
G1 X9.766 Y8.495 E0.0051
G1 X9.934 Y8.195 E0.0051
G1 X10.067 Y7.852 E0.0055
G1 X10.361 Y7.906 E0.0045
G1 X10.361 Y8.231 E0.0049
G1 X10.375 Y10.688 E0.0368
G1 X10.367 Y13.116 E0.0363
G1 X3.329 Y13.116 E0.1053
G1 X3.329 Y-13.116 E0.3926
; outer perimeter
G1 X2.929 Y-13.516 F4200
G1 X10.765 Y-13.516 E0.1173 F900
G1 X10.775 Y-10.688 E0.0423
G1 X10.761 Y-8.230 E0.0368
G1 X10.761 Y8.230 E0.2464
G1 X10.775 Y10.688 E0.0368
G1 X10.765 Y13.516 E0.0423
G1 X2.929 Y13.516 E0.1173
G1 X2.929 Y-13.516 E0.4046
; inner perimeter
G1 X6.178 Y-9.221 F4200
G1 X5.914 Y-9.000 E0.0051 F1350
G1 X5.685 Y-8.743 E0.0051
G1 X5.496 Y-8.456 E0.0051
G1 X5.351 Y-8.145 E0.0051
G1 X5.253 Y-7.816 E0.0051
G1 X5.203 Y-7.481 E0.0051
G1 X5.203 Y-7.137 E0.0051
G1 X5.253 Y-6.803 E0.0051
G1 X5.352 Y-6.468 E0.0052
G1 X5.499 Y-6.156 E0.0052
G1 X5.689 Y-5.870 E0.0051
G1 X5.919 Y-5.614 E0.0051
G1 X6.183 Y-5.394 E0.0051
G1 X6.477 Y-5.215 E0.0051
G1 X6.793 Y-5.081 E0.0051
G1 X7.126 Y-4.994 E0.0051
G1 X7.468 Y-4.957 E0.0051
G1 X7.812 Y-4.969 E0.0051
G1 X8.150 Y-5.032 E0.0051
G1 X8.476 Y-5.143 E0.0051
G1 X8.781 Y-5.301 E0.0051
G1 X9.061 Y-5.501 E0.0051
G1 X9.308 Y-5.740 E0.0051
G1 X9.518 Y-6.012 E0.0051
G1 X9.687 Y-6.312 E0.0051
G1 X9.809 Y-6.633 E0.0051
G1 X9.884 Y-6.969 E0.0051
G1 X9.908 Y-7.312 E0.0051
G1 X9.883 Y-7.655 E0.0051
G1 X9.807 Y-7.991 E0.0051
G1 X9.684 Y-8.312 E0.0051
G1 X9.515 Y-8.611 E0.0051
G1 X9.304 Y-8.883 E0.0051
G1 X9.056 Y-9.121 E0.0051
G1 X8.776 Y-9.321 E0.0051
G1 X8.470 Y-9.477 E0.0051
G1 X8.144 Y-9.588 E0.0051
G1 X7.806 Y-9.650 E0.0051
G1 X7.462 Y-9.661 E0.0051
G1 X7.120 Y-9.623 E0.0051
G1 X6.788 Y-9.536 E0.0051
G1 X6.471 Y-9.400 E0.0051
G1 X6.178 Y-9.221 E0.0051
; outer perimeter
G1 X6.412 Y-8.895 F4200
G1 X6.193 Y-8.712 E0.0043 F900
G1 X6.003 Y-8.499 E0.0043
G1 X5.846 Y-8.261 E0.0043
G1 X5.726 Y-8.002 E0.0043
G1 X5.644 Y-7.729 E0.0043
G1 X5.603 Y-7.452 E0.0042
G1 X5.603 Y-7.167 E0.0043
G1 X5.644 Y-6.889 E0.0042
G1 X5.727 Y-6.611 E0.0043
G1 X5.848 Y-6.353 E0.0043
G1 X6.006 Y-6.115 E0.0043
G1 X6.197 Y-5.903 E0.0043
G1 X6.416 Y-5.720 E0.0043
G1 X6.660 Y-5.572 E0.0043
G1 X6.923 Y-5.460 E0.0043
G1 X7.199 Y-5.388 E0.0043
G1 X7.483 Y-5.357 E0.0043
G1 X7.768 Y-5.368 E0.0043
G1 X8.048 Y-5.420 E0.0043
G1 X8.319 Y-5.512 E0.0043
G1 X8.572 Y-5.643 E0.0043
G1 X8.804 Y-5.809 E0.0043
G1 X9.010 Y-6.007 E0.0043
G1 X9.184 Y-6.233 E0.0043
G1 X9.323 Y-6.482 E0.0043
G1 X9.425 Y-6.749 E0.0043
G1 X9.487 Y-7.027 E0.0043
G1 X9.507 Y-7.312 E0.0043
G1 X9.486 Y-7.596 E0.0043
G1 X9.424 Y-7.874 E0.0043
G1 X9.321 Y-8.141 E0.0043
G1 X9.181 Y-8.389 E0.0043
G1 X9.006 Y-8.615 E0.0043
G1 X8.800 Y-8.812 E0.0043
G1 X8.568 Y-8.978 E0.0043
G1 X8.314 Y-9.108 E0.0043
G1 X8.044 Y-9.200 E0.0043
G1 X7.763 Y-9.251 E0.0043
G1 X7.478 Y-9.261 E0.0043
G1 X7.194 Y-9.229 E0.0043
G1 X6.918 Y-9.156 E0.0043
G1 X6.655 Y-9.044 E0.0043
G1 X6.412 Y-8.895 E0.0043
G1 E-1.0000 F1200
G1 X7.734 Y5.245 F4200
G1 E1.0000 F1200
G1 X7.451 Y5.276 E0.0043 F900
G1 X7.175 Y5.348 E0.0043
G1 X6.912 Y5.459 E0.0043
G1 X6.669 Y5.607 E0.0043
G1 X6.449 Y5.789 E0.0043
G1 X6.259 Y6.001 E0.0043
G1 X6.102 Y6.239 E0.0043
G1 X5.980 Y6.497 E0.0043
G1 X5.898 Y6.770 E0.0043
G1 X5.857 Y7.052 E0.0043
G1 X5.857 Y7.332 E0.0042
G1 X5.897 Y7.613 E0.0043
G1 X5.979 Y7.886 E0.0043
G1 X6.099 Y8.144 E0.0043
G1 X6.256 Y8.382 E0.0043
G1 X6.446 Y8.595 E0.0043
G1 X6.665 Y8.778 E0.0043
G1 X6.908 Y8.927 E0.0043
G1 X7.170 Y9.039 E0.0043
G1 X7.446 Y9.111 E0.0043
G1 X7.729 Y9.143 E0.0043
G1 X8.014 Y9.133 E0.0043
G1 X8.295 Y9.082 E0.0043
G1 X8.565 Y8.990 E0.0043
G1 X8.819 Y8.861 E0.0043
G1 X9.051 Y8.695 E0.0043
G1 X9.257 Y8.498 E0.0043
G1 X9.432 Y8.273 E0.0043
G1 X9.572 Y8.025 E0.0043
G1 X9.674 Y7.759 E0.0043
G1 X9.736 Y7.481 E0.0043
G1 X9.758 Y7.196 E0.0043
G1 X9.737 Y6.912 E0.0043
G1 X9.675 Y6.634 E0.0043
G1 X9.574 Y6.368 E0.0043
G1 X9.434 Y6.119 E0.0043
G1 X9.260 Y5.894 E0.0043
G1 X9.055 Y5.696 E0.0043
G1 X8.823 Y5.530 E0.0043
G1 X8.570 Y5.399 E0.0043
G1 X8.300 Y5.307 E0.0043
G1 X8.019 Y5.255 E0.0043
G1 X7.734 Y5.245 E0.0043
G1 E-1.0000 F1200
; gap fill
G1 X10.230 Y6.836 F4200
G1 E1.0000 F1200
G1 X10.437 Y7.043 E0.0044 F1440
G1 X10.437 Y7.591 E0.0082
G1 X10.415 Y7.587 E0.0003
G1 X10.078 Y7.250 E0.0071
; solid layer
G1 X9.933 Y8.801 F4200
G1 X10.045 Y8.913 E0.0024 F1440
G1 X10.048 Y9.482 E0.0085
G1 X9.668 Y9.102 E0.0081
G1 X9.512 Y9.251 E0.0032
G1 X9.360 Y9.360 E0.0028
G1 X10.051 Y10.051 E0.0146
G1 X10.055 Y10.620 E0.0085
G1 X9.007 Y9.573 E0.0222
G1 X8.846 Y9.656 E0.0027
G1 X8.606 Y9.737 E0.0038
G1 X10.053 Y11.185 E0.0306
G1 X10.051 Y11.748 E0.0084
G1 X8.144 Y9.841 E0.0404
G1 X8.092 Y9.851 E0.0008
G1 X7.702 Y9.864 E0.0058
G1 X7.589 Y9.852 E0.0017
G1 X10.049 Y12.312 E0.0521
G1 X10.048 Y12.796 E0.0072
G1 X9.968 Y12.796 E0.0012
G1 X6.861 Y9.690 E0.0658
G1 X3.745 Y12.796 F4200
G1 X3.649 Y12.700 E0.0020 F1440
G1 X3.649 Y12.134 E0.0085
G1 X4.311 Y12.796 E0.0140
G1 X4.876 Y12.796 E0.0085
G1 X3.649 Y11.568 E0.0260
G1 X3.649 Y11.002 E0.0085
G1 X5.442 Y12.796 E0.0380
G1 X6.008 Y12.796 E0.0085
G1 X3.649 Y10.437 E0.0499
G1 X3.649 Y9.871 E0.0085
G1 X6.573 Y12.796 E0.0619
G1 X7.139 Y12.796 E0.0085
G1 X3.649 Y9.305 E0.0739
G1 X3.649 Y8.740 E0.0085
G1 X7.705 Y12.796 E0.0859
G1 X8.271 Y12.796 E0.0085
G1 X3.649 Y8.174 E0.0978
G1 X3.649 Y7.608 E0.0085
G1 X8.836 Y12.796 E0.1098
G1 X9.402 Y12.796 E0.0085
G1 X3.649 Y7.043 E0.1218
G1 X3.649 Y6.477 E0.0085
G1 X5.300 Y8.128 E0.0349
G1 X5.192 Y7.769 E0.0056
G1 X5.139 Y7.402 E0.0055
G1 X3.649 Y5.911 E0.0316
G1 X3.649 Y5.346 E0.0085
G1 X5.158 Y6.855 E0.0319
G1 X5.194 Y6.612 E0.0037
G1 X5.260 Y6.392 E0.0035
G1 X3.649 Y4.780 E0.0341
G1 X3.649 Y4.214 E0.0085
G1 X5.423 Y5.989 E0.0376
