; G-Code generated by Simplify3D(R) Version 3.1.1
; Jun 11, 2017 at 3:38:57 PM
; Settings Summary
;   processName,Process1
;   applyToModels,Wire Holder v1
;   profileName,Default
;   profileVersion,2015-05-01 08:00:00
;   baseProfile,
;   printMaterial,PLA
;   printQuality,Medium
;   printExtruders,
;   extruderName,Primary Extruder
;   extruderToolheadNumber,0
;   extruderDiameter,0.35
;   extruderAutoWidth,0
;   extruderWidth,0.4
;   extrusionMultiplier,0.9
;   extruderUseRetract,1
;   extruderRetractionDistance,1
;   extruderExtraRestartDistance,0
;   extruderRetractionZLift,0
;   extruderRetractionSpeed,1800
;   extruderUseCoasting,0
;   extruderCoastingDistance,0.2
;   extruderUseWipe,0
;   extruderWipeDistance,5
;   primaryExtruder,0
;   layerHeight,0.2
;   topSolidLayers,3
;   bottomSolidLayers,3
;   perimeterOutlines,2
;   printPerimetersInsideOut,1
;   startPointOption,2
;   startPointOriginX,0
;   startPointOriginY,0
;   startPointOriginZ,300
;   sequentialIslands,0
;   spiralVaseMode,0
;   firstLayerHeightPercentage,90
;   firstLayerWidthPercentage,100
;   firstLayerUnderspeed,0.5
;   useRaft,0
;   raftExtruder,0
;   raftLayers,3
;   raftOffset,3
;   raftSeparationDistance,0.14
;   raftInfill,85
;   disableRaftBaseLayers,0
;   useSkirt,1
;   skirtExtruder,0
;   skirtLayers,1
;   skirtOutlines,2
;   skirtOffset,4
;   usePrimePillar,0
;   primePillarExtruder,999
;   primePillarWidth,12
;   primePillarLocation,7
;   primePillarSpeedMultiplier,1
;   useOozeShield,0
;   oozeShieldExtruder,999
;   oozeShieldOffset,2
;   oozeShieldOutlines,1
;   oozeShieldSidewallShape,1
;   oozeShieldSidewallAngle,30
;   oozeShieldSpeedMultiplier,1
;   infillExtruder,0
;   internalInfillPattern,Rectilinear
;   externalInfillPattern,Rectilinear
;   infillPercentage,20
;   outlineOverlapPercentage,15
;   infillExtrusionWidthPercentage,100
;   minInfillLength,5
;   infillLayerInterval,1
;   infillAngles,45,-45
;   overlapInfillAngles,0
;   generateSupport,0
;   supportExtruder,0
;   supportInfillPercentage,30
;   supportExtraInflation,0
;   denseSupportLayers,0
;   denseSupportInfillPercentage,70
;   supportLayerInterval,1
;   supportHorizontalPartOffset,0.3
;   supportUpperSeparationLayers,1
;   supportLowerSeparationLayers,1
;   supportType,0
;   supportGridSpacing,4
;   maxOverhangAngle,45
;   supportAngles,0
;   temperatureName,Primary Extruder
;   temperatureNumber,0
;   temperatureSetpointCount,1
;   temperatureSetpointLayers,1
;   temperatureSetpointTemperatures,190
;   temperatureStabilizeAtStartup,1
;   temperatureHeatedBed,0
;   temperatureRelayBetweenLayers,0
;   temperatureRelayBetweenLoops,0
;   fanLayers,1,2
;   fanSpeeds,0,100
;   blipFanToFullPower,0
;   adjustSpeedForCooling,1
;   minSpeedLayerTime,15
;   minCoolingSpeedSlowdown,20
;   increaseFanForCooling,0
;   minFanLayerTime,45
;   maxCoolingFanSpeed,100
;   increaseFanForBridging,0
;   bridgingFanSpeed,100
;   use5D,1
;   relativeEdistances,0
;   allowEaxisZeroing,1
;   independentExtruderAxes,0
;   includeM10123,0
;   stickySupport,1
;   applyToolheadOffsets,0
;   gcodeXoffset,0
;   gcodeYoffset,0
;   gcodeZoffset,0
;   overrideMachineDefinition,0
;   machineTypeOverride,0
;   strokeXoverride,200
;   strokeYoverride,200
;   strokeZoverride,200
;   originOffsetXoverride,0
;   originOffsetYoverride,0
;   originOffsetZoverride,0
;   homeXdirOverride,-1
;   homeYdirOverride,-1
;   homeZdirOverride,-1
;   flipXoverride,1
;   flipYoverride,-1
;   flipZoverride,1
;   toolheadOffsets,0,0|0,0|0,0|0,0|0,0|0,0
;   overrideFirmwareConfiguration,0
;   firmwareTypeOverride,RepRap (Marlin/Repetier/Sprinter)
;   GPXconfigOverride,r2
;   baudRateOverride,115200
;   overridePrinterModels,0
;   printerModelsOverride
;   startingGcode,G28 ; home all axes
;   layerChangeGcode,
;   retractionGcode,
;   toolChangeGcode,
;   endingGcode,M104 S0 ; turn off extruder,M140 S0 ; turn off bed,M84 ; disable motors
;   exportFileFormat,gcode
;   celebration,0
;   celebrationSong,Random Song
;   postProcessing,
;   defaultSpeed,3600
;   outlineUnderspeed,0.5
;   solidInfillUnderspeed,0.8
;   supportUnderspeed,0.8
;   rapidXYspeed,4800
;   rapidZspeed,1000
;   minBridgingArea,50
;   bridgingExtraInflation,0
;   bridgingExtrusionMultiplier,1
;   bridgingSpeedMultiplier,1
;   filamentDiameter,1.75
;   filamentPricePerKg,46
;   filamentDensity,1.25
;   useMinPrintHeight,0
;   minPrintHeight,0
;   useMaxPrintHeight,0
;   maxPrintHeight,0
;   useDiaphragm,0
;   diaphragmLayerInterval,20
;   robustSlicing,1
;   mergeAllIntoSolid,0
;   onlyRetractWhenCrossingOutline,1
;   retractBetweenLayers,1
;   useRetractionMinTravel,0
;   retractionMinTravel,3
;   retractWhileWiping,0
;   onlyWipeOutlines,1
;   avoidCrossingOutline,0
;   maxMovementDetourFactor,3
;   toolChangeRetractionDistance,12
;   toolChangeExtraRestartDistance,-0.5
;   toolChangeRetractionSpeed,600
;   allowThinWallGapFill,1
;   thinWallAllowedOverlapPercentage,10
;   horizontalSizeCompensation,0
G90
M82
M127
M104 S190 T0
M133 T0
G28 ; home all axes
G92 E0
G1 E-1.0000 F1800
G1 Z0.180 F1000
; layer 1, Z = 0.18
M135 T0
; tool H0.200 W0.400
; skirt
G1 X-8.808 Y8.658 F4800
G1 E0.0000 F540
G92 E0
G1 X-9.276 Y8.658 E0.0140 F1800
G1 X-9.497 Y8.567 E0.0212
G1 X-12.009 Y6.055 E0.1275
G1 X-12.100 Y5.835 E0.1347
G1 X-12.100 Y-12.718 E0.6900
G1 X-12.009 Y-12.938 E0.6971
G1 X-9.497 Y-15.450 E0.8035
G1 X-9.276 Y-15.542 E0.8106
G1 X2.276 Y-15.542 E1.1564
G1 X2.497 Y-15.450 E1.1636
G1 X2.500 Y-15.447 E1.1637
G1 X2.503 Y-15.450 E1.1639
G1 X2.724 Y-15.542 E1.1710
G1 X9.276 Y-15.542 E1.3671
G1 X9.497 Y-15.450 E1.3743
G1 X12.009 Y-12.938 E1.4806
G1 X12.100 Y-12.718 E1.4878
G1 X12.100 Y5.835 E2.0431
G1 X12.009 Y6.055 E2.0503
G1 X9.497 Y8.567 E2.1566
G1 X9.276 Y8.658 E2.1638
G1 X8.828 Y8.658 E2.1772
G1 X8.636 Y9.316 E2.1977
G1 X8.630 Y9.335 E2.1983
G1 X8.532 Y9.604 E2.2069
G1 X8.524 Y9.623 E2.2074
G1 X8.086 Y10.613 E2.2399
G1 X8.077 Y10.631 E2.2405
G1 X7.944 Y10.885 E2.2491
G1 X7.934 Y10.902 E2.2496
G1 X7.601 Y11.446 E2.2687
G1 X7.594 Y11.457 E2.2691
G1 X7.487 Y11.615 E2.2748
G1 X7.479 Y11.626 E2.2752
G1 X7.099 Y12.138 E2.2943
G1 X7.087 Y12.154 E2.2949
G1 X6.901 Y12.372 E2.3035
G1 X6.888 Y12.386 E2.3041
G1 X6.132 Y13.163 E2.3365
G1 X6.118 Y13.177 E2.3371
G1 X5.905 Y13.368 E2.3457
G1 X5.890 Y13.381 E2.3463
G1 X5.351 Y13.805 E2.3668
G1 X5.335 Y13.816 E2.3674
G1 X5.098 Y13.978 E2.3760
G1 X5.082 Y13.989 E2.3766
G1 X4.107 Y14.564 E2.4104
G1 X4.084 Y14.576 E2.4112
G1 X3.739 Y14.740 E2.4227
G1 X3.714 Y14.750 E2.4235
G1 X2.654 Y15.144 E2.4573
G1 X2.635 Y15.151 E2.4579
G1 X2.360 Y15.232 E2.4665
G1 X2.341 Y15.237 E2.4671
G1 X1.719 Y15.378 E2.4862
G1 X1.706 Y15.381 E2.4866
G1 X1.518 Y15.414 E2.4923
G1 X1.505 Y15.417 E2.4927
G1 X0.873 Y15.502 E2.5118
G1 X0.854 Y15.504 E2.5124
G1 X0.568 Y15.523 E2.5209
G1 X0.548 Y15.523 E2.5215
G1 X-0.583 Y15.524 E2.5554
G1 X-0.610 Y15.523 E2.5562
G1 X-0.990 Y15.490 E2.5676
G1 X-1.017 Y15.486 E2.5684
G1 X-2.130 Y15.287 E2.6023
G1 X-2.150 Y15.283 E2.6029
G1 X-2.428 Y15.214 E2.6115
G1 X-2.447 Y15.208 E2.6121
G1 X-3.054 Y15.014 E2.6311
G1 X-3.067 Y15.010 E2.6315
G1 X-3.246 Y14.944 E2.6372
G1 X-3.258 Y14.939 E2.6376
G1 X-3.846 Y14.691 E2.6567
G1 X-3.864 Y14.683 E2.6573
G1 X-4.120 Y14.554 E2.6659
G1 X-4.137 Y14.545 E2.6665
G1 X-5.071 Y13.996 E2.6989
G1 X-5.088 Y13.985 E2.6995
G1 X-5.325 Y13.824 E2.7081
G1 X-5.341 Y13.812 E2.7087
G1 X-5.880 Y13.389 E2.7292
G1 X-5.896 Y13.376 E2.7298
G1 X-6.109 Y13.185 E2.7384
G1 X-6.123 Y13.171 E2.7390
G1 X-6.913 Y12.361 E2.7728
G1 X-6.931 Y12.342 E2.7736
G1 X-7.172 Y12.046 E2.7851
G1 X-7.188 Y12.024 E2.7859
G1 X-7.823 Y11.088 E2.8197
G1 X-7.833 Y11.071 E2.8203
G1 X-7.978 Y10.824 E2.8289
G1 X-7.987 Y10.806 E2.8295
G1 X-8.272 Y10.236 E2.8486
G1 X-8.277 Y10.224 E2.8490
G1 X-8.355 Y10.049 E2.8547
G1 X-8.360 Y10.037 E2.8551
G1 X-8.593 Y9.443 E2.8742
G1 X-8.599 Y9.425 E2.8748
G1 X-8.686 Y9.152 E2.8833
G1 X-8.691 Y9.132 E2.8839
G1 X-8.808 Y8.658 E2.8986
G1 X-8.494 Y8.258 F4800
G92 E0
G1 X-9.197 Y8.258 E0.0210 F1800
G1 X-9.270 Y8.228 E0.0234
G1 X-11.670 Y5.829 E0.1250
G1 X-11.700 Y5.755 E0.1274
G1 X-11.700 Y-12.638 E0.6780
G1 X-11.670 Y-12.712 E0.6803
G1 X-9.270 Y-15.111 E0.7819
G1 X-9.197 Y-15.142 E0.7843
G1 X2.197 Y-15.142 E1.1253
G1 X2.270 Y-15.111 E1.1277
G1 X2.500 Y-14.881 E1.1375
G1 X2.730 Y-15.111 E1.1472
G1 X2.803 Y-15.142 E1.1496
G1 X9.197 Y-15.142 E1.3409
G1 X9.270 Y-15.111 E1.3433
G1 X11.670 Y-12.712 E1.4449
G1 X11.700 Y-12.638 E1.4473
G1 X11.700 Y5.755 E1.9979
G1 X11.670 Y5.829 E2.0002
G1 X9.270 Y8.228 E2.1018
G1 X9.197 Y8.258 E2.1042
G1 X8.506 Y8.258 E2.1249
G1 X8.504 Y8.273 E2.1253
G1 X8.502 Y8.280 E2.1255
G1 X8.444 Y8.546 E2.1337
G1 X8.442 Y8.553 E2.1339
G1 X8.254 Y9.198 E2.1540
G1 X8.252 Y9.204 E2.1542
G1 X8.158 Y9.460 E2.1624
G1 X8.156 Y9.467 E2.1626
G1 X7.722 Y10.445 E2.1946
G1 X7.720 Y10.451 E2.1948
G1 X7.593 Y10.693 E2.2030
G1 X7.589 Y10.699 E2.2032
G1 X7.262 Y11.233 E2.2219
G1 X7.260 Y11.237 E2.2221
G1 X7.158 Y11.387 E2.2275
G1 X7.155 Y11.391 E2.2277
G1 X6.782 Y11.894 E2.2464
G1 X6.778 Y11.899 E2.2466
G1 X6.601 Y12.107 E2.2548
G1 X6.596 Y12.112 E2.2550
G1 X5.850 Y12.879 E2.2870
G1 X5.845 Y12.884 E2.2872
G1 X5.642 Y13.066 E2.2954
G1 X5.637 Y13.071 E2.2956
G1 X5.109 Y13.486 E2.3157
G1 X5.103 Y13.490 E2.3159
G1 X4.878 Y13.644 E2.3241
G1 X4.873 Y13.648 E2.3243
G1 X3.911 Y14.215 E2.3577
G1 X3.904 Y14.219 E2.3579
G1 X3.575 Y14.375 E2.3688
G1 X3.567 Y14.379 E2.3691
G1 X2.521 Y14.767 E2.4025
G1 X2.514 Y14.769 E2.4027
G1 X2.253 Y14.847 E2.4109
G1 X2.246 Y14.849 E2.4111
G1 X1.635 Y14.987 E2.4298
G1 X1.631 Y14.988 E2.4300
G1 X1.452 Y15.020 E2.4354
G1 X1.448 Y15.021 E2.4355
G1 X0.827 Y15.104 E2.4543
G1 X0.820 Y15.105 E2.4545
G1 X0.548 Y15.123 E2.4627
G1 X0.541 Y15.123 E2.4629
G1 X-0.575 Y15.124 E2.4963
G1 X-0.584 Y15.124 E2.4965
G1 X-0.946 Y15.092 E2.5074
G1 X-0.955 Y15.091 E2.5077
G1 X-2.054 Y14.894 E2.5411
G1 X-2.060 Y14.893 E2.5413
G1 X-2.325 Y14.827 E2.5495
G1 X-2.331 Y14.825 E2.5497
G1 X-2.928 Y14.634 E2.5684
G1 X-2.932 Y14.633 E2.5685
G1 X-3.103 Y14.570 E2.5740
G1 X-3.107 Y14.568 E2.5741
G1 X-3.684 Y14.325 E2.5929
G1 X-3.690 Y14.322 E2.5931
G1 X-3.934 Y14.200 E2.6012
G1 X-3.940 Y14.197 E2.6014
G1 X-4.863 Y13.654 E2.6335
G1 X-4.868 Y13.651 E2.6337
G1 X-5.094 Y13.497 E2.6419
G1 X-5.099 Y13.493 E2.6421
G1 X-5.628 Y13.078 E2.6622
G1 X-5.633 Y13.074 E2.6624
G1 X-5.837 Y12.892 E2.6705
G1 X-5.841 Y12.887 E2.6707
G1 X-6.621 Y12.088 E2.7041
G1 X-6.626 Y12.082 E2.7044
G1 X-6.857 Y11.800 E2.7153
G1 X-6.862 Y11.793 E2.7156
G1 X-7.488 Y10.869 E2.7490
G1 X-7.491 Y10.863 E2.7492
G1 X-7.629 Y10.628 E2.7573
G1 X-7.632 Y10.622 E2.7575
G1 X-7.912 Y10.061 E2.7763
G1 X-7.914 Y10.057 E2.7764
G1 X-7.987 Y9.891 E2.7819
G1 X-7.989 Y9.887 E2.7820
G1 X-8.218 Y9.304 E2.8008
G1 X-8.220 Y9.297 E2.8010
G1 X-8.303 Y9.037 E2.8091
G1 X-8.305 Y9.031 E2.8093
G1 X-8.494 Y8.258 E2.8331
G92 E0
G1 E-1.0000 F1800
; inner perimeter
G1 X-6.900 Y3.458 F4800
G1 E0.0000 F1800
G92 E0
G1 X-6.900 Y-10.342 E0.4131 F1350
G1 X-0.100 Y-10.342 E0.6166
G1 X-0.100 Y0.658 E0.9459
G1 X5.100 Y0.658 E1.1016
G1 X5.100 Y-10.342 E1.4308
G1 X6.900 Y-10.342 E1.4847
G1 X6.900 Y3.458 E1.8978
G1 X2.812 Y3.458 E2.0202
G1 X2.510 Y3.199 E2.0321
G1 X2.169 Y2.962 E2.0445
G1 X1.806 Y2.760 E2.0570
G1 X1.424 Y2.596 E2.0694
G1 X1.028 Y2.472 E2.0818
G1 X0.621 Y2.388 E2.0943
G1 X0.208 Y2.346 E2.1067
G1 X-0.208 Y2.346 E2.1191
G1 X-0.621 Y2.388 E2.1316
G1 X-1.028 Y2.472 E2.1440
G1 X-1.424 Y2.596 E2.1565
G1 X-1.806 Y2.760 E2.1689
G1 X-2.170 Y2.962 E2.1813
G1 X-2.514 Y3.203 E2.1939
G1 X-2.812 Y3.458 E2.2057
G1 X-6.900 Y3.458 E2.3280
G92 E0
G1 E-1.0000 F1800
; outer perimeter
G1 X-4.176 Y7.466 F4800
G1 E0.0000 F1800
G92 E0
G1 X-4.250 Y7.092 E0.0114 F900
G1 X-4.291 Y6.713 E0.0228
G1 X-4.298 Y6.332 E0.0342
G1 X-4.272 Y5.952 E0.0457
G1 X-4.212 Y5.575 E0.0571
G1 X-4.118 Y5.205 E0.0685
G1 X-3.992 Y4.845 E0.0799
G1 X-3.835 Y4.498 E0.0913
G1 X-3.475 Y3.858 E0.1133
G1 X-7.300 Y3.858 E0.2278
G1 X-7.300 Y-10.742 E0.6648
G1 X0.300 Y-10.742 E0.8923
G1 X0.300 Y0.258 E1.2216
G1 X4.700 Y0.258 E1.3533
G1 X4.700 Y-10.742 E1.6826
G1 X7.300 Y-10.742 E1.7604
G1 X7.300 Y3.858 E2.1975
G1 X3.475 Y3.858 E2.3120
G1 X3.832 Y4.492 E2.3338
G1 X3.990 Y4.840 E2.3452
G1 X4.116 Y5.200 E2.3566
G1 X4.210 Y5.569 E2.3680
G1 X4.271 Y5.946 E2.3794
G1 X4.298 Y6.326 E2.3909
G1 X4.291 Y6.707 E2.4023
G1 X4.251 Y7.087 E2.4137
G1 X4.177 Y7.461 E2.4251
G1 X4.070 Y7.827 E2.4365
G1 X3.932 Y8.182 E2.4479
G1 X3.762 Y8.524 E2.4593
G1 X3.563 Y8.849 E2.4708
G1 X3.335 Y9.155 E2.4822
G1 X3.082 Y9.440 E2.4936
G1 X2.804 Y9.701 E2.5050
G1 X2.504 Y9.937 E2.5164
G1 X2.185 Y10.145 E2.5278
G1 X1.848 Y10.324 E2.5393
G1 X1.497 Y10.472 E2.5507
G1 X1.134 Y10.589 E2.5621
G1 X0.762 Y10.673 E2.5735
G1 X0.384 Y10.724 E2.5849
G1 X0.003 Y10.741 E2.5963
G1 X-0.378 Y10.725 E2.6077
G1 X-0.756 Y10.674 E2.6192
G1 X-1.128 Y10.591 E2.6306
G1 X-1.491 Y10.474 E2.6420
G1 X-1.843 Y10.326 E2.6534
G1 X-2.180 Y10.148 E2.6648
G1 X-2.500 Y9.940 E2.6762
G1 X-2.800 Y9.705 E2.6877
G1 X-3.078 Y9.444 E2.6991
G1 X-3.332 Y9.159 E2.7105
G1 X-3.560 Y8.854 E2.7219
G1 X-3.759 Y8.529 E2.7333
G1 X-3.929 Y8.187 E2.7447
G1 X-4.069 Y7.832 E2.7561
G1 X-4.176 Y7.466 E2.7676
; inner perimeter
; outer perimeter
G1 X-3.625 Y7.186 F4800
G92 E0
G1 X-3.531 Y7.549 E0.0112 F900
G1 X-3.400 Y7.901 E0.0224
G1 X-3.235 Y8.237 E0.0337
G1 X-3.037 Y8.555 E0.0449
G1 X-2.808 Y8.852 E0.0561
G1 X-2.549 Y9.124 E0.0673
G1 X-2.265 Y9.368 E0.0785
G1 X-1.957 Y9.582 E0.0898
G1 X-1.630 Y9.764 E0.1010
G1 X-1.285 Y9.912 E0.1122
G1 X-0.927 Y10.024 E0.1234
G1 X-0.560 Y10.099 E0.1346
G1 X-0.187 Y10.137 E0.1459
G1 X0.187 Y10.137 E0.1571
G1 X0.560 Y10.099 E0.1683
G1 X0.927 Y10.024 E0.1795
G1 X1.285 Y9.912 E0.1907
G1 X1.630 Y9.764 E0.2020
G1 X1.957 Y9.582 E0.2132
G1 X2.265 Y9.368 E0.2244
G1 X2.549 Y9.124 E0.2356
G1 X2.808 Y8.852 E0.2468
G1 X3.037 Y8.555 E0.2581
G1 X3.235 Y8.237 E0.2693
G1 X3.400 Y7.901 E0.2805
G1 X3.531 Y7.549 E0.2917
G1 X3.625 Y7.186 E0.3029
G1 X3.681 Y6.816 E0.3142
G1 X3.700 Y6.442 E0.3254
G1 X3.681 Y6.067 E0.3366
G1 X3.625 Y5.697 E0.3478
G1 X3.531 Y5.334 E0.3590
G1 X3.400 Y4.982 E0.3703
G1 X3.235 Y4.646 E0.3815
G1 X3.037 Y4.328 E0.3927
G1 X2.808 Y4.031 E0.4039
G1 X2.549 Y3.760 E0.4151
G1 X2.265 Y3.516 E0.4264
G1 X1.957 Y3.301 E0.4376
G1 X1.630 Y3.119 E0.4488
G1 X1.285 Y2.972 E0.4600
G1 X0.927 Y2.859 E0.4712
G1 X0.560 Y2.784 E0.4825
G1 X0.187 Y2.746 E0.4937
G1 X-0.187 Y2.746 E0.5049
G1 X-0.560 Y2.784 E0.5161
G1 X-0.927 Y2.859 E0.5273
G1 X-1.285 Y2.972 E0.5386
G1 X-1.630 Y3.119 E0.5498
G1 X-1.957 Y3.301 E0.5610
G1 X-2.269 Y3.519 E0.5724
G1 X-2.549 Y3.760 E0.5834
G1 X-2.808 Y4.031 E0.5947
G1 X-3.037 Y4.328 E0.6059
G1 X-3.235 Y4.646 E0.6171
G1 X-3.400 Y4.982 E0.6283
G1 X-3.531 Y5.334 E0.6396
G1 X-3.625 Y5.697 E0.6508
G1 X-3.681 Y6.067 E0.6620
G1 X-3.700 Y6.442 E0.6732
G1 X-3.681 Y6.816 E0.6844
G1 X-3.625 Y7.186 E0.6957
G92 E0
G1 E-1.0000 F1800
; solid layer
G1 X-6.498 Y3.118 F4800
G1 E0.0000 F1800
G92 E0
G1 X-6.560 Y3.057 E0.0026 F1440
G1 X-6.560 Y2.491 E0.0195
G1 X-5.933 Y3.118 E0.0461
G1 X-5.367 Y3.118 E0.0630
G1 X-6.560 Y1.925 E0.1136
G1 X-6.560 Y1.360 E0.1305
G1 X-4.801 Y3.118 E0.2049
G1 X-4.235 Y3.118 E0.2219
G1 X-6.560 Y0.794 E0.3203
G1 X-6.560 Y0.228 E0.3372
G1 X-3.670 Y3.118 E0.4596
G1 X-3.104 Y3.118 E0.4765
G1 X-6.560 Y-0.337 E0.6228
G1 X-6.560 Y-0.903 E0.6397
G1 X-2.723 Y2.934 E0.8022
G1 X-2.390 Y2.701 E0.8143
G1 X-6.560 Y-1.469 E0.9908
G1 X-6.560 Y-2.035 E1.0078
G1 X-2.030 Y2.495 E1.1995
G1 X-1.956 Y2.454 E1.2021
G1 X-1.641 Y2.319 E1.2123
G1 X-6.560 Y-2.600 E1.4206
G1 X-6.560 Y-3.166 E1.4375
G1 X-1.219 Y2.175 E1.6636
G1 X-1.113 Y2.142 E1.6669
G1 X-0.759 Y2.069 E1.6778
G1 X-6.560 Y-3.732 E1.9233
G1 X-6.560 Y-4.297 E1.9403
G1 X-0.254 Y2.009 E2.2072
G1 X-0.225 Y2.006 E2.2081
G1 X0.225 Y2.006 E2.2216
G1 X0.319 Y2.016 E2.2244
G1 X-6.560 Y-4.863 E2.5156
G1 X-0.951 Y-10.002 F4800
G92 E0
G1 X-0.440 Y-9.491 E0.0216 F1440
G1 X-0.440 Y-8.925 E0.0385
G1 X-1.516 Y-10.002 E0.0841
G1 X-2.082 Y-10.002 E0.1010
G1 X-0.440 Y-8.360 E0.1706
G1 X-0.440 Y-7.794 E0.1875
G1 X-2.648 Y-10.002 E0.2809
G1 X-3.213 Y-10.002 E0.2979
G1 X-0.440 Y-7.228 E0.4153
G1 X-0.440 Y-6.663 E0.4322
